;This Gcode has been generated specifically for the LulzBot Mini
;Basic settings: Layer height: 0.38 Walls: 1 Fill: 20
;Filament Diameter: 2.85
;Nozzle Size: 0.5
G21                          ; metric values
G90                          ; absolute positioning
M82                          ; set extruder to absolute mode
M107                         ; start with the fan off
G92 E0                       ; set extruder position to 0
M140 S60; get bed heating up
G28                          ; home all
M109 S140                    ; set to cleaning temp and wait
G1 Z150 E-30 F75             ; suck up XXmm of filament
M109 S140                    ; heat up rest of way
G1 X45 Y174 F11520           ; move behind scraper
G1 Z0  F1200                 ; CRITICAL: set Z to height of top of scraper
G1 X45 Y174 Z-.5 F4000       ; wiping ; plunge into wipe pad
G1 X55 Y172 Z-.5 F4000       ; wiping
G1 X45 Y174 Z0 F4000         ; wiping
G1 X55 Y172 F4000            ; wiping
G1 X45 Y174 F4000            ; wiping
G1 X55 Y172 F4000            ; wiping
G1 X45 Y174 F4000            ; wiping
G1 X55 Y172 F4000            ; wiping
G1 X60 Y174 F4000            ; wiping
G1 X80 Y172 F4000            ; wiping
G1 X60 Y174 F4000            ; wiping
G1 X80 Y172 F4000            ; wiping
G1 X60 Y174 F4000            ; wiping
G1 X90 Y172 F4000            ; wiping
G1 X80 Y174 F4000            ; wiping
G1 X100 Y172 F4000           ; wiping
G1 X80 Y174 F4000            ; wiping
G1 X100 Y172 F4000           ; wiping
G1 X80 Y174 F4000            ; wiping
G1 X100 Y172 F4000           ; wiping
G1 X110 Y174 F4000           ; wiping
G1 X100 Y172 F4000           ; wiping
G1 X110 Y174 F4000           ; wiping
G1 X100 Y172 F4000           ; wiping
G1 X110 Y174 F4000           ; wiping
G1 X115 Y172 Z-0.5 F1000     ; wipe slower and bury noz in cleanish area
G1 Z10                       ; raise z
G28 X0 Y0                    ; home x and y
M109 S140                    ; set to probing temp
M204 S300                    ; Set probing acceleration
G29                          ; Probe
M204 S2000                   ; Restore standard acceleration
G1 X5 Y15 Z10 F5000          ; get out the way
G4 S1                        ; pause
M400                         ; clear buffer
M109 S205    ; set extruder temp and wait
G4 S15                       ; wait for bed to temp up
G1 Z2 E0 F75                 ; extrude filament back into nozzle
M140 S60; get bed temping up during first layer

;Layer count: 66
;LAYER:0
M107
G0 F10500 X62.397 Y3.169 Z0.425
;TYPE:SKIRT
G1 F900 X84.958 Y3.169 E0.93939
G1 X84.958 Y25.730 E1.87879
G1 X62.397 Y25.730 E2.81818
G1 X62.397 Y3.169 E3.75758
G0 F10500 X63.022 Y3.794
G1 F900 X84.333 Y3.794 E4.64492
G1 X84.333 Y25.105 E5.53227
G1 X63.022 Y25.105 E6.41961
G1 X63.022 Y3.794 E7.30696
G0 F10500 X63.647 Y4.419
G1 F900 X83.708 Y4.419 E8.14226
G1 X83.708 Y24.480 E8.97756
G1 X63.647 Y24.480 E9.81286
G1 X63.647 Y4.419 E10.64816
G0 F10500 X64.272 Y5.044
G1 F900 X83.083 Y5.044 E11.43141
G1 X83.083 Y23.855 E12.21466
G1 X64.272 Y23.855 E12.99791
G1 X64.272 Y5.044 E13.78116
G1 F600 E12.28116
G1 Z0.525
G0 F10500 X68.521 Y9.293
;TYPE:WALL-INNER
G1 Z0.425
G1 F600 E13.78116
G1 F900 X78.834 Y9.293 E14.21057
G1 X78.834 Y19.606 E14.63999
G1 X68.521 Y19.606 E15.06940
G1 X68.521 Y9.293 E15.49881
G0 F10500 X67.896 Y8.668
;TYPE:WALL-OUTER
G1 F900 X79.459 Y8.668 E15.98027
G1 X79.459 Y20.231 E16.46173
G1 X67.896 Y20.231 E16.94319
G1 X67.896 Y8.668 E17.42465
G0 F10500 X68.309 Y8.991
G0 X69.173 Y9.512
;TYPE:SKIN
G1 F900 X78.614 Y18.953 E17.98058
G0 F10500 X78.164 Y19.386
G1 F900 X68.739 Y9.961 E18.53557
G0 F10500 X68.739 Y10.845
G1 F900 X77.280 Y19.386 E19.03851
G0 F10500 X76.396 Y19.386
G1 F900 X68.739 Y11.729 E19.48939
G0 F10500 X68.739 Y12.613
G1 F900 X75.512 Y19.386 E19.88822
G0 F10500 X74.628 Y19.386
G1 F900 X68.739 Y13.497 E20.23499
G0 F10500 X68.739 Y14.381
G1 F900 X73.744 Y19.386 E20.52971
G0 F10500 X72.860 Y19.386
G1 F900 X68.739 Y15.265 E20.77238
G0 F10500 X68.739 Y16.148
G1 F900 X71.977 Y19.386 E20.96305
G0 F10500 X71.093 Y19.386
G1 F900 X68.739 Y17.032 E21.10166
G0 F10500 X68.739 Y17.916
G1 F900 X70.209 Y19.386 E21.18822
G0 F10500 X69.325 Y19.386
G1 F900 X68.739 Y18.800 E21.22273
G0 F10500 X70.057 Y9.512
G1 F900 X78.614 Y18.069 E21.72661
G0 F10500 X78.614 Y17.185
G1 F900 X70.941 Y9.512 E22.17843
G0 F10500 X71.825 Y9.512
G1 F900 X78.614 Y16.301 E22.57820
G0 F10500 X78.614 Y15.417
G1 F900 X72.708 Y9.512 E22.92595
G0 F10500 X73.592 Y9.512
G1 F900 X78.614 Y14.533 E23.22164
G0 F10500 X78.614 Y13.649
G1 F900 X74.476 Y9.512 E23.46527
G0 F10500 X75.360 Y9.512
G1 F900 X78.614 Y12.766 E23.65689
G0 F10500 X78.614 Y11.882
G1 F900 X76.244 Y9.512 E23.79644
G0 F10500 X77.128 Y9.512
G1 F900 X78.614 Y10.998 E23.88395
G0 F10500 X78.614 Y10.114
G1 F900 X78.012 Y9.512 E23.91940
;LAYER:1
M106 S226
G0 F10500 X79.021 Y9.106 Z0.805
;TYPE:WALL-INNER
G1 F780 X79.021 Y19.793 E24.23769
G1 X68.334 Y19.793 E24.55599
G1 X68.334 Y9.106 E24.87428
G1 X79.021 Y9.106 E25.19258
G0 F10500 X79.521 Y8.606
;TYPE:WALL-OUTER
G1 F720 X79.521 Y20.293 E25.54065
G1 X67.834 Y20.293 E25.88873
G1 X67.834 Y8.606 E26.23681
G1 X79.521 Y8.606 E26.58489
G0 F10500 X78.754 Y9.280
;TYPE:SKIN
G1 F960 X68.508 Y19.526 E27.01645
G0 F10500 X69.123 Y19.617
G1 F960 X78.845 Y9.896 E27.42592
G0 F10500 X78.845 Y10.603
G1 F960 X69.831 Y19.617 E27.80559
G0 F10500 X70.538 Y19.617
G1 F960 X78.845 Y11.310 E28.15548
G0 F10500 X78.845 Y12.017
G1 F960 X71.245 Y19.617 E28.47559
G0 F10500 X71.952 Y19.617
G1 F960 X78.845 Y12.725 E28.76591
G0 F10500 X78.845 Y13.432
G1 F960 X72.659 Y19.617 E29.02644
G0 F10500 X73.366 Y19.617
G1 F960 X78.845 Y14.139 E29.25720
G0 F10500 X78.845 Y14.846
G1 F960 X74.073 Y19.617 E29.45817
G0 F10500 X74.780 Y19.617
G1 F960 X78.845 Y15.553 E29.62937
G0 F10500 X78.845 Y16.260
G1 F960 X75.487 Y19.617 E29.77079
G0 F10500 X76.194 Y19.617
G1 F960 X78.845 Y16.967 E29.88243
G0 F10500 X78.845 Y17.674
G1 F960 X76.902 Y19.617 E29.96427
G0 F10500 X77.609 Y19.617
G1 F960 X78.845 Y18.381 E30.01633
G0 F10500 X78.845 Y19.089
G1 F960 X78.316 Y19.617 E30.03859
G0 F10500 X68.508 Y18.818
G1 F960 X78.046 Y9.280 E30.44033
G0 F10500 X77.339 Y9.280
G1 F960 X68.508 Y18.111 E30.81229
G0 F10500 X68.508 Y17.404
G1 F960 X76.632 Y9.280 E31.15447
G0 F10500 X75.925 Y9.280
G1 F960 X68.508 Y16.697 E31.46688
G0 F10500 X68.508 Y15.990
G1 F960 X75.218 Y9.280 E31.74950
G0 F10500 X74.511 Y9.280
G1 F960 X68.508 Y15.283 E32.00235
G0 F10500 X68.508 Y14.576
G1 F960 X73.804 Y9.280 E32.22542
G0 F10500 X73.097 Y9.280
G1 F960 X68.508 Y13.869 E32.41871
G0 F10500 X68.508 Y13.162
G1 F960 X72.390 Y9.280 E32.58222
G0 F10500 X71.682 Y9.280
G1 F960 X68.508 Y12.454 E32.71591
G0 F10500 X68.508 Y11.747
G1 F960 X70.975 Y9.280 E32.81982
G0 F10500 X70.268 Y9.280
G1 F960 X68.508 Y11.040 E32.89395
G0 F10500 X68.508 Y10.333
G1 F960 X69.561 Y9.280 E32.93830
G0 F10500 X68.854 Y9.280
G1 F960 X68.508 Y9.626 E32.95287
;LAYER:2
M106 S249
G0 F10500 X68.334 Y9.106 Z1.185
;TYPE:WALL-INNER
G1 F720 X79.021 Y9.106 E33.27117
G1 X79.021 Y19.793 E33.58946
G1 X68.334 Y19.793 E33.90776
G1 X68.334 Y9.106 E34.22605
G0 F10500 X67.834 Y8.606
;TYPE:WALL-OUTER
G1 F660 X79.521 Y8.606 E34.57413
G1 X79.521 Y20.293 E34.92221
G1 X67.834 Y20.293 E35.27029
G1 X67.834 Y8.606 E35.61837
G0 F10500 X68.508 Y9.464
;TYPE:SKIN
G1 F960 X78.661 Y19.617 E36.04601
G0 F10500 X78.845 Y19.094
G1 F960 X69.032 Y9.281 E36.45934
G0 F10500 X69.739 Y9.281
G1 F960 X78.845 Y18.387 E36.84288
G0 F10500 X78.845 Y17.680
G1 F960 X70.446 Y9.281 E37.19665
G0 F10500 X71.153 Y9.281
G1 F960 X78.845 Y16.973 E37.52064
G0 F10500 X78.845 Y16.266
G1 F960 X71.860 Y9.281 E37.81484
G0 F10500 X72.567 Y9.281
G1 F960 X78.845 Y15.559 E38.07927
G0 F10500 X78.845 Y14.852
G1 F960 X73.274 Y9.281 E38.31392
G0 F10500 X73.981 Y9.281
G1 F960 X78.845 Y14.144 E38.51878
G0 F10500 X78.845 Y13.437
G1 F960 X74.688 Y9.281 E38.69385
G0 F10500 X75.395 Y9.281
G1 F960 X78.845 Y12.730 E38.83914
G0 F10500 X78.845 Y12.023
G1 F960 X76.103 Y9.281 E38.95463
G0 F10500 X76.810 Y9.281
G1 F960 X78.845 Y11.316 E39.04035
G0 F10500 X78.845 Y10.609
G1 F960 X77.517 Y9.281 E39.09628
G0 F10500 X78.224 Y9.281
G1 F960 X78.845 Y9.902 E39.12244
G0 F10500 X77.954 Y19.617
G1 F960 X68.508 Y10.171 E39.52031
G0 F10500 X68.508 Y10.878
G1 F960 X77.247 Y19.617 E39.88839
G0 F10500 X76.540 Y19.617
G1 F960 X68.508 Y11.585 E40.22670
G0 F10500 X68.508 Y12.293
G1 F960 X75.832 Y19.617 E40.53519
G0 F10500 X75.125 Y19.617
G1 F960 X68.508 Y13.000 E40.81390
G0 F10500 X68.508 Y13.707
G1 F960 X74.418 Y19.617 E41.06283
G0 F10500 X73.711 Y19.617
G1 F960 X68.508 Y14.414 E41.28198
G0 F10500 X68.508 Y15.121
G1 F960 X73.004 Y19.617 E41.47135
G0 F10500 X72.297 Y19.617
G1 F960 X68.508 Y15.828 E41.63094
G0 F10500 X68.508 Y16.535
G1 F960 X71.590 Y19.617 E41.76076
G0 F10500 X70.883 Y19.617
G1 F960 X68.508 Y17.242 E41.86079
G0 F10500 X68.508 Y17.949
G1 F960 X70.176 Y19.617 E41.93105
G0 F10500 X69.468 Y19.617
G1 F960 X68.508 Y18.657 E41.97148
G0 F10500 X68.508 Y19.364
G1 F960 X68.761 Y19.617 E41.98214
;LAYER:3
M106 S255
G0 F10500 X68.334 Y19.793 Z1.565
;TYPE:WALL-INNER
G1 F660 X68.334 Y9.106 E42.30043
G1 X79.021 Y9.106 E42.61873
G1 X79.021 Y19.793 E42.93702
G1 X68.334 Y19.793 E43.25532
G0 F10500 X67.834 Y20.293
;TYPE:WALL-OUTER
G1 F600 X67.834 Y8.606 E43.60340
G1 X79.521 Y8.606 E43.95148
G1 X79.521 Y20.293 E44.29955
G1 X67.834 Y20.293 E44.64763
G0 F10500 X68.770 Y19.617
;TYPE:FILL
G1 F780 X78.845 Y9.543 E45.07197
G0 F10500 X78.845 Y11.670
G1 F780 X76.456 Y9.281 E45.17260
G0 F10500 X72.036 Y9.280
G1 F780 X68.508 Y12.808 E45.32120
G0 F10500 X68.508 Y15.475
G1 F780 X72.650 Y19.617 E45.49566
G0 F10500 X75.841 Y19.617
G1 F780 X78.845 Y16.614 E45.62216
G0 F10500 X78.845 Y18.741
G1 F780 X69.385 Y9.281 E46.02062
;LAYER:4
G0 F10500 X68.334 Y9.106 Z1.945
;TYPE:WALL-INNER
G1 F660 X79.021 Y9.106 E46.33892
G1 X79.021 Y19.793 E46.65721
G1 X68.334 Y19.793 E46.97551
G1 X68.334 Y9.106 E47.29380
G0 F10500 X67.834 Y8.606
;TYPE:WALL-OUTER
G1 F540 X79.521 Y8.606 E47.64188
G1 X79.521 Y20.293 E47.98996
G1 X67.834 Y20.293 E48.33804
G1 X67.834 Y8.606 E48.68611
G0 F10500 X68.184 Y8.866
G0 X69.385 Y9.281
;TYPE:FILL
G1 F780 X78.845 Y18.741 E49.08457
G0 F10500 X78.845 Y16.614
G1 F780 X75.841 Y19.617 E49.21108
G0 F10500 X72.650 Y19.617
G1 F780 X68.508 Y15.475 E49.38554
G0 F10500 X68.508 Y12.808
G1 F780 X72.036 Y9.280 E49.53414
G0 F10500 X76.456 Y9.281
G1 F780 X78.845 Y11.670 E49.63476
G0 F10500 X78.845 Y9.543
G1 F780 X68.770 Y19.617 E50.05910
;LAYER:5
G0 F10500 X68.334 Y19.793 Z2.325
;TYPE:WALL-INNER
G1 F660 X68.334 Y9.106 E50.37740
G1 X79.021 Y9.106 E50.69569
G1 X79.021 Y19.793 E51.01399
G1 X68.334 Y19.793 E51.33228
G0 F10500 X67.834 Y20.293
;TYPE:WALL-OUTER
G1 F540 X67.834 Y8.606 E51.68036
G1 X79.521 Y8.606 E52.02844
G1 X79.521 Y20.293 E52.37652
G1 X67.834 Y20.293 E52.72460
G0 F10500 X68.770 Y19.617
;TYPE:FILL
G1 F780 X78.845 Y9.543 E53.14893
G0 F10500 X78.845 Y11.670
G1 F780 X76.456 Y9.281 E53.24956
G0 F10500 X72.036 Y9.280
G1 F780 X68.508 Y12.808 E53.39816
G0 F10500 X68.508 Y15.475
G1 F780 X72.650 Y19.617 E53.57262
G0 F10500 X75.841 Y19.617
G1 F780 X78.845 Y16.614 E53.69913
G0 F10500 X78.845 Y18.741
G1 F780 X69.385 Y9.281 E54.09758
;LAYER:6
G0 F10500 X68.334 Y9.106 Z2.705
;TYPE:WALL-INNER
G1 F660 X79.021 Y9.106 E54.41588
G1 X79.021 Y19.793 E54.73417
G1 X68.334 Y19.793 E55.05247
G1 X68.334 Y9.106 E55.37076
G0 F10500 X67.834 Y8.606
;TYPE:WALL-OUTER
G1 F540 X79.521 Y8.606 E55.71884
G1 X79.521 Y20.293 E56.06692
G1 X67.834 Y20.293 E56.41500
G1 X67.834 Y8.606 E56.76308
G0 F10500 X68.184 Y8.866
G0 X69.385 Y9.281
;TYPE:FILL
G1 F780 X78.845 Y18.741 E57.16153
G0 F10500 X78.845 Y16.614
G1 F780 X75.841 Y19.617 E57.28804
G0 F10500 X72.650 Y19.617
G1 F780 X68.508 Y15.475 E57.46250
G0 F10500 X68.508 Y12.808
G1 F780 X72.036 Y9.280 E57.61110
G0 F10500 X76.456 Y9.281
G1 F780 X78.845 Y11.670 E57.71173
G0 F10500 X78.845 Y9.543
G1 F780 X68.770 Y19.617 E58.13606
;LAYER:7
G0 F10500 X68.334 Y19.793 Z3.085
;TYPE:WALL-INNER
G1 F660 X68.334 Y9.106 E58.45436
G1 X79.021 Y9.106 E58.77265
G1 X79.021 Y19.793 E59.09095
G1 X68.334 Y19.793 E59.40924
G0 F10500 X67.834 Y20.293
;TYPE:WALL-OUTER
G1 F540 X67.834 Y8.606 E59.75732
G1 X79.521 Y8.606 E60.10540
G1 X79.521 Y20.293 E60.45348
G1 X67.834 Y20.293 E60.80156
G0 F10500 X68.770 Y19.617
;TYPE:FILL
G1 F780 X78.845 Y9.543 E61.22590
G0 F10500 X78.845 Y11.670
G1 F780 X76.456 Y9.281 E61.32652
G0 F10500 X72.036 Y9.280
G1 F780 X68.508 Y12.808 E61.47512
G0 F10500 X68.508 Y15.475
G1 F780 X72.650 Y19.617 E61.64958
G0 F10500 X75.841 Y19.617
G1 F780 X78.845 Y16.614 E61.77609
G0 F10500 X78.845 Y18.741
G1 F780 X69.385 Y9.281 E62.17455
;LAYER:8
G0 F10500 X68.334 Y9.106 Z3.465
;TYPE:WALL-INNER
G1 F660 X79.021 Y9.106 E62.49284
G1 X79.021 Y19.793 E62.81114
G1 X68.334 Y19.793 E63.12943
G1 X68.334 Y9.106 E63.44773
G0 F10500 X67.834 Y8.606
;TYPE:WALL-OUTER
G1 F540 X79.521 Y8.606 E63.79580
G1 X79.521 Y20.293 E64.14388
G1 X67.834 Y20.293 E64.49196
G1 X67.834 Y8.606 E64.84004
G0 F10500 X68.184 Y8.866
G0 X69.385 Y9.281
;TYPE:FILL
G1 F780 X78.845 Y18.741 E65.23849
G0 F10500 X78.845 Y16.614
G1 F780 X75.841 Y19.617 E65.36500
G0 F10500 X72.650 Y19.617
G1 F780 X68.508 Y15.475 E65.53946
G0 F10500 X68.508 Y12.808
G1 F780 X72.036 Y9.280 E65.68806
G0 F10500 X76.456 Y9.281
G1 F780 X78.845 Y11.670 E65.78869
G0 F10500 X78.845 Y9.543
G1 F780 X68.770 Y19.617 E66.21303
;LAYER:9
G0 F10500 X68.334 Y19.793 Z3.845
;TYPE:WALL-INNER
G1 F660 X68.334 Y9.106 E66.53132
G1 X79.021 Y9.106 E66.84962
G1 X79.021 Y19.793 E67.16791
G1 X68.334 Y19.793 E67.48621
G0 F10500 X67.834 Y20.293
;TYPE:WALL-OUTER
G1 F540 X67.834 Y8.606 E67.83428
G1 X79.521 Y8.606 E68.18236
G1 X79.521 Y20.293 E68.53044
G1 X67.834 Y20.293 E68.87852
G0 F10500 X68.770 Y19.617
;TYPE:FILL
G1 F780 X78.845 Y9.543 E69.30286
G0 F10500 X78.845 Y11.670
G1 F780 X76.456 Y9.281 E69.40348
G0 F10500 X72.036 Y9.280
G1 F780 X68.508 Y12.808 E69.55208
G0 F10500 X68.508 Y15.475
G1 F780 X72.650 Y19.617 E69.72654
G0 F10500 X75.841 Y19.617
G1 F780 X78.845 Y16.614 E69.85305
G0 F10500 X78.845 Y18.741
G1 F780 X69.385 Y9.281 E70.25151
;LAYER:10
G0 F10500 X68.334 Y9.106 Z4.225
;TYPE:WALL-INNER
G1 F660 X79.021 Y9.106 E70.56980
G1 X79.021 Y19.793 E70.88810
G1 X68.334 Y19.793 E71.20639
G1 X68.334 Y9.106 E71.52469
G0 F10500 X67.834 Y8.606
;TYPE:WALL-OUTER
G1 F540 X79.521 Y8.606 E71.87277
G1 X79.521 Y20.293 E72.22084
G1 X67.834 Y20.293 E72.56892
G1 X67.834 Y8.606 E72.91700
G0 F10500 X68.184 Y8.866
G0 X69.385 Y9.281
;TYPE:FILL
G1 F780 X78.845 Y18.741 E73.31546
G0 F10500 X78.845 Y16.614
G1 F780 X75.841 Y19.617 E73.44196
G0 F10500 X72.650 Y19.617
G1 F780 X68.508 Y15.475 E73.61643
G0 F10500 X68.508 Y12.808
G1 F780 X72.036 Y9.280 E73.76503
G0 F10500 X76.456 Y9.281
G1 F780 X78.845 Y11.670 E73.86565
G0 F10500 X78.845 Y9.543
G1 F780 X68.770 Y19.617 E74.28999
;LAYER:11
G0 F10500 X68.334 Y19.793 Z4.605
;TYPE:WALL-INNER
G1 F660 X68.334 Y9.106 E74.60828
G1 X79.021 Y9.106 E74.92658
G1 X79.021 Y19.793 E75.24487
G1 X68.334 Y19.793 E75.56317
G0 F10500 X67.834 Y20.293
;TYPE:WALL-OUTER
G1 F540 X67.834 Y8.606 E75.91125
G1 X79.521 Y8.606 E76.25933
G1 X79.521 Y20.293 E76.60740
G1 X67.834 Y20.293 E76.95548
G0 F10500 X68.770 Y19.617
;TYPE:FILL
G1 F780 X78.845 Y9.543 E77.37982
G0 F10500 X78.845 Y11.670
G1 F780 X76.456 Y9.281 E77.48045
G0 F10500 X72.036 Y9.280
G1 F780 X68.508 Y12.808 E77.62904
G0 F10500 X68.508 Y15.475
G1 F780 X72.650 Y19.617 E77.80351
G0 F10500 X75.841 Y19.617
G1 F780 X78.845 Y16.614 E77.93001
G0 F10500 X78.845 Y18.741
G1 F780 X69.385 Y9.281 E78.32847
;LAYER:12
G0 F10500 X68.334 Y9.106 Z4.985
;TYPE:WALL-INNER
G1 F720 X79.021 Y9.106 E78.64676
G1 X79.021 Y19.793 E78.96506
G1 X68.334 Y19.793 E79.28335
G1 X68.334 Y9.106 E79.60165
G0 F10500 X67.834 Y8.606
;TYPE:WALL-OUTER
G1 F600 X79.521 Y8.606 E79.94973
G1 X79.521 Y20.293 E80.29781
G1 X67.834 Y20.293 E80.64588
G1 X67.834 Y8.606 E80.99396
G0 F10500 X68.184 Y8.866
G0 X72.819 Y12.715
;TYPE:FILL
G1 F840 X75.411 Y15.307 E81.10314
G0 F10500 X75.410 Y12.977
G1 F840 X72.203 Y16.184 E81.23822
G0 F10500 X73.164 Y15.535
;TYPE:SKIN
G1 F1020 X77.247 Y19.617 E81.41017
G0 F10500 X76.540 Y19.617
G1 F1020 X68.508 Y11.585 E81.74848
G0 F10500 X68.508 Y10.878
G1 F1020 X72.591 Y14.962 E81.92048
G0 F10500 X72.591 Y14.255
G1 F1020 X68.508 Y10.171 E82.09248
G0 F10500 X68.508 Y9.464
G1 F1020 X72.591 Y13.548 E82.26447
G0 F10500 X73.115 Y13.365
G1 F1020 X69.032 Y9.281 E82.43647
G0 F10500 X69.739 Y9.281
G1 F1020 X73.822 Y13.365 E82.60847
G0 F10500 X74.529 Y13.365
G1 F1020 X70.446 Y9.281 E82.78046
G0 F10500 X71.153 Y9.281
G1 F1020 X78.845 Y16.973 E83.10445
G0 F10500 X78.845 Y17.680
G1 F1020 X74.760 Y13.596 E83.27649
G0 F10500 X74.760 Y14.303
G1 F1020 X78.845 Y18.387 E83.44853
G0 F10500 X78.845 Y19.094
G1 F1020 X74.760 Y15.010 E83.62057
G0 F10500 X74.578 Y15.535
G1 F1020 X78.661 Y19.617 E83.79253
G0 F10500 X77.954 Y19.617
G1 F1020 X73.871 Y15.535 E83.96448
G0 F10500 X73.711 Y19.617
G1 F1020 X68.508 Y14.414 E84.18363
G0 F10500 X68.508 Y15.121
G1 F1020 X73.004 Y19.617 E84.37300
G0 F10500 X72.297 Y19.617
G1 F1020 X68.508 Y15.828 E84.53260
G0 F10500 X68.508 Y16.535
G1 F1020 X71.590 Y19.617 E84.66241
G0 F10500 X70.883 Y19.617
G1 F1020 X68.508 Y17.242 E84.76245
G0 F10500 X68.508 Y17.949
G1 F1020 X70.176 Y19.617 E84.83270
G0 F10500 X69.468 Y19.617
G1 F1020 X68.508 Y18.657 E84.87314
G0 F10500 X68.508 Y19.364
G1 F1020 X68.761 Y19.617 E84.88379
G0 F10500 X74.418 Y19.617
G1 F1020 X68.508 Y13.707 E85.13272
G0 F10500 X68.508 Y13.000
G1 F1020 X75.125 Y19.617 E85.41143
G0 F10500 X75.832 Y19.617
G1 F1020 X68.508 Y12.293 E85.71992
G0 F10500 X71.860 Y9.281
G1 F1020 X78.845 Y16.266 E86.01413
G0 F10500 X78.845 Y15.559
G1 F1020 X72.567 Y9.281 E86.27856
G0 F10500 X73.274 Y9.281
G1 F1020 X78.845 Y14.852 E86.51321
G0 F10500 X78.845 Y14.144
G1 F1020 X73.981 Y9.281 E86.71806
G0 F10500 X74.688 Y9.281
G1 F1020 X78.845 Y13.437 E86.89313
G0 F10500 X78.845 Y12.730
G1 F1020 X75.395 Y9.281 E87.03842
G0 F10500 X76.103 Y9.281
G1 F1020 X78.845 Y12.023 E87.15392
G0 F10500 X78.845 Y11.316
G1 F1020 X76.810 Y9.281 E87.23963
G0 F10500 X77.517 Y9.281
G1 F1020 X78.845 Y10.609 E87.29557
G0 F10500 X78.845 Y9.902
G1 F1020 X78.224 Y9.281 E87.32172
;LAYER:13
G0 F10500 X79.021 Y9.106 Z5.365
;TYPE:WALL-INNER
G1 F720 X79.021 Y19.793 E87.64002
G1 X68.334 Y19.793 E87.95831
G1 X68.334 Y9.106 E88.27661
G1 X79.021 Y9.106 E88.59490
G0 F10500 X79.521 Y8.606
;TYPE:WALL-OUTER
G1 F600 X79.521 Y20.293 E88.94298
G1 X67.834 Y20.293 E89.29106
G1 X67.834 Y8.606 E89.63914
G1 X79.521 Y8.606 E89.98722
G0 F10500 X79.171 Y8.866
G0 X75.410 Y12.977
;TYPE:FILL
G1 F840 X72.203 Y16.184 E90.12230
G0 F10500 X75.411 Y15.307
G1 F840 X72.819 Y12.715 E90.23147
G0 F10500 X73.255 Y13.365
;TYPE:SKIN
G1 F1020 X77.339 Y9.280 E90.40351
G0 F10500 X78.046 Y9.280
G1 F1020 X73.962 Y13.365 E90.57555
G0 F10500 X74.669 Y13.365
G1 F1020 X78.754 Y9.280 E90.74761
G0 F10500 X78.845 Y9.896
G1 F1020 X74.761 Y13.980 E90.91963
G0 F10500 X74.761 Y14.687
G1 F1020 X78.845 Y10.603 E91.09165
G0 F10500 X78.845 Y11.310
G1 F1020 X74.761 Y15.394 E91.26367
G0 F10500 X74.620 Y15.535
G1 F1020 X70.538 Y19.617 E91.43560
G0 F10500 X71.245 Y19.617
G1 F1020 X78.845 Y12.017 E91.75571
G0 F10500 X78.845 Y12.725
G1 F1020 X71.952 Y19.617 E92.04602
G0 F10500 X72.659 Y19.617
G1 F1020 X78.845 Y13.432 E92.30656
G0 F10500 X78.845 Y14.139
G1 F1020 X73.366 Y19.617 E92.53731
G0 F10500 X74.073 Y19.617
G1 F1020 X78.845 Y14.846 E92.73829
G0 F10500 X78.845 Y15.553
G1 F1020 X74.780 Y19.617 E92.90949
G0 F10500 X75.487 Y19.617
G1 F1020 X78.845 Y16.260 E93.05090
G0 F10500 X78.845 Y16.967
G1 F1020 X76.194 Y19.617 E93.16254
G0 F10500 X76.902 Y19.617
G1 F1020 X78.845 Y17.674 E93.24438
G0 F10500 X78.845 Y18.381
G1 F1020 X77.609 Y19.617 E93.29644
G0 F10500 X78.316 Y19.617
G1 F1020 X78.845 Y19.089 E93.31870
G0 F10500 X73.913 Y15.535
G1 F1020 X69.831 Y19.617 E93.49064
G0 F10500 X69.123 Y19.617
G1 F1020 X73.206 Y15.535 E93.66259
G0 F10500 X72.590 Y15.443
G1 F1020 X68.508 Y19.526 E93.83455
G0 F10500 X68.508 Y18.818
G1 F1020 X72.590 Y14.736 E94.00648
G0 F10500 X72.590 Y14.029
G1 F1020 X68.508 Y18.111 E94.17842
G0 F10500 X68.508 Y17.404
G1 F1020 X76.632 Y9.280 E94.52060
G0 F10500 X75.925 Y9.280
G1 F1020 X68.508 Y16.697 E94.83300
G0 F10500 X68.508 Y15.990
G1 F1020 X75.218 Y9.280 E95.11563
G0 F10500 X74.511 Y9.280
G1 F1020 X68.508 Y15.283 E95.36848
G0 F10500 X68.508 Y14.576
G1 F1020 X73.804 Y9.280 E95.59154
G0 F10500 X73.097 Y9.280
G1 F1020 X68.508 Y13.869 E95.78483
G0 F10500 X68.508 Y13.162
G1 F1020 X72.390 Y9.280 E95.94834
G0 F10500 X71.682 Y9.280
G1 F1020 X68.508 Y12.454 E96.08203
G0 F10500 X68.508 Y11.747
G1 F1020 X70.975 Y9.280 E96.18594
G0 F10500 X70.268 Y9.280
G1 F1020 X68.508 Y11.040 E96.26007
G0 F10500 X68.508 Y10.333
G1 F1020 X69.561 Y9.280 E96.30443
G0 F10500 X68.854 Y9.280
G1 F1020 X68.508 Y9.626 E96.31900
;LAYER:14
G0 F10500 X68.334 Y9.106 Z5.745
;TYPE:WALL-INNER
G1 F720 X79.021 Y9.106 E96.63729
G1 X79.021 Y19.793 E96.95559
G1 X68.334 Y19.793 E97.27388
G1 X68.334 Y9.106 E97.59218
G0 F10500 X67.834 Y8.606
;TYPE:WALL-OUTER
G1 F600 X79.521 Y8.606 E97.94026
G1 X79.521 Y20.293 E98.28834
G1 X67.834 Y20.293 E98.63641
G1 X67.834 Y8.606 E98.98449
G0 F10500 X68.184 Y8.866
G0 X72.819 Y12.715
;TYPE:FILL
G1 F840 X75.411 Y15.307 E99.09367
G0 F10500 X75.410 Y12.977
G1 F840 X72.203 Y16.184 E99.22875
G0 F10500 X73.164 Y15.535
;TYPE:SKIN
G1 F1020 X77.247 Y19.617 E99.40070
G0 F10500 X76.540 Y19.617
G1 F1020 X68.508 Y11.585 E99.73901
G0 F10500 X68.508 Y10.878
G1 F1020 X72.591 Y14.962 E99.91101
G0 F10500 X72.591 Y14.255
G1 F1020 X68.508 Y10.171 E100.08300
G0 F10500 X68.508 Y9.464
G1 F1020 X72.591 Y13.548 E100.25500
G0 F10500 X73.115 Y13.365
G1 F1020 X69.032 Y9.281 E100.42700
G0 F10500 X69.739 Y9.281
G1 F1020 X73.822 Y13.365 E100.59900
G0 F10500 X74.529 Y13.365
G1 F1020 X70.446 Y9.281 E100.77099
G0 F10500 X71.153 Y9.281
G1 F1020 X78.845 Y16.973 E101.09498
G0 F10500 X78.845 Y17.680
G1 F1020 X74.760 Y13.596 E101.26702
G0 F10500 X74.760 Y14.303
G1 F1020 X78.845 Y18.387 E101.43906
G0 F10500 X78.845 Y19.094
G1 F1020 X74.760 Y15.010 E101.61110
G0 F10500 X74.578 Y15.535
G1 F1020 X78.661 Y19.617 E101.78305
G0 F10500 X77.954 Y19.617
G1 F1020 X73.871 Y15.535 E101.95501
G0 F10500 X73.711 Y19.617
G1 F1020 X68.508 Y14.414 E102.17416
G0 F10500 X68.508 Y15.121
G1 F1020 X73.004 Y19.617 E102.36353
G0 F10500 X72.297 Y19.617
G1 F1020 X68.508 Y15.828 E102.52313
G0 F10500 X68.508 Y16.535
G1 F1020 X71.590 Y19.617 E102.65294
G0 F10500 X70.883 Y19.617
G1 F1020 X68.508 Y17.242 E102.75297
G0 F10500 X68.508 Y17.949
G1 F1020 X70.176 Y19.617 E102.82323
G0 F10500 X69.468 Y19.617
G1 F1020 X68.508 Y18.657 E102.86367
G0 F10500 X68.508 Y19.364
G1 F1020 X68.761 Y19.617 E102.87432
G0 F10500 X74.418 Y19.617
G1 F1020 X68.508 Y13.707 E103.12325
G0 F10500 X68.508 Y13.000
G1 F1020 X75.125 Y19.617 E103.40196
G0 F10500 X75.832 Y19.617
G1 F1020 X68.508 Y12.293 E103.71045
G0 F10500 X71.860 Y9.281
G1 F1020 X78.845 Y16.266 E104.00466
G0 F10500 X78.845 Y15.559
G1 F1020 X72.567 Y9.281 E104.26909
G0 F10500 X73.274 Y9.281
G1 F1020 X78.845 Y14.852 E104.50374
G0 F10500 X78.845 Y14.144
G1 F1020 X73.981 Y9.281 E104.70859
G0 F10500 X74.688 Y9.281
G1 F1020 X78.845 Y13.437 E104.88366
G0 F10500 X78.845 Y12.730
G1 F1020 X75.395 Y9.281 E105.02895
G0 F10500 X76.103 Y9.281
G1 F1020 X78.845 Y12.023 E105.14445
G0 F10500 X78.845 Y11.316
G1 F1020 X76.810 Y9.281 E105.23016
G0 F10500 X77.517 Y9.281
G1 F1020 X78.845 Y10.609 E105.28610
G0 F10500 X78.845 Y9.902
G1 F1020 X78.224 Y9.281 E105.31225
;LAYER:15
G1 F600 E103.81225
G1 Z5.845
G0 F10500 X74.837 Y13.290 Z6.125
;TYPE:WALL-INNER
G1 Z6.125
G1 F600 E105.31225
G1 F660 X74.837 Y15.610 E105.38135
G1 X72.517 Y15.610 E105.45045
G1 X72.517 Y13.290 E105.51955
G1 X74.837 Y13.290 E105.58864
G0 F10500 X75.337 Y12.790
;TYPE:WALL-OUTER
G1 F540 X75.337 Y16.110 E105.68752
G1 X72.017 Y16.110 E105.78640
G1 X72.017 Y12.790 E105.88528
G1 X75.337 Y12.790 E105.98417
G0 F10500 X74.661 Y13.727
;TYPE:FILL
G1 F780 X72.952 Y15.435 E106.05613
G0 F10500 X74.661 Y14.557
G1 F780 X73.569 Y13.465 E106.10212
;LAYER:16
G0 F10500 X72.517 Y13.290 Z6.505
;TYPE:WALL-INNER
G1 F660 X74.837 Y13.290 E106.17122
G1 X74.837 Y15.610 E106.24032
G1 X72.517 Y15.610 E106.30942
G1 X72.517 Y13.290 E106.37851
G0 F10500 X72.017 Y12.790
;TYPE:WALL-OUTER
G1 F540 X75.337 Y12.790 E106.47739
G1 X75.337 Y16.110 E106.57627
G1 X72.017 Y16.110 E106.67516
G1 X72.017 Y12.790 E106.77404
G0 F10500 X72.367 Y13.050
G0 X73.569 Y13.465
;TYPE:FILL
G1 F780 X74.661 Y14.557 E106.82003
G0 F10500 X74.661 Y13.727
G1 F780 X72.952 Y15.435 E106.89199
;LAYER:17
G0 F10500 X72.517 Y15.610 Z6.885
;TYPE:WALL-INNER
G1 F660 X72.517 Y13.290 E106.96109
G1 X74.837 Y13.290 E107.03019
G1 X74.837 Y15.610 E107.09929
G1 X72.517 Y15.610 E107.16838
G0 F10500 X72.017 Y16.110
;TYPE:WALL-OUTER
G1 F540 X72.017 Y12.790 E107.26726
G1 X75.337 Y12.790 E107.36614
G1 X75.337 Y16.110 E107.46503
G1 X72.017 Y16.110 E107.56391
G0 F10500 X72.952 Y15.435
;TYPE:FILL
G1 F780 X74.661 Y13.727 E107.63587
G0 F10500 X74.661 Y14.557
G1 F780 X73.569 Y13.465 E107.68186
;LAYER:18
G0 F10500 X72.517 Y13.290 Z7.265
;TYPE:WALL-INNER
G1 F660 X74.837 Y13.290 E107.75096
G1 X74.837 Y15.610 E107.82006
G1 X72.517 Y15.610 E107.88916
G1 X72.517 Y13.290 E107.95825
G0 F10500 X72.017 Y12.790
;TYPE:WALL-OUTER
G1 F540 X75.337 Y12.790 E108.05713
G1 X75.337 Y16.110 E108.15602
G1 X72.017 Y16.110 E108.25490
G1 X72.017 Y12.790 E108.35378
G0 F10500 X72.367 Y13.050
G0 X73.569 Y13.465
;TYPE:FILL
G1 F780 X74.661 Y14.557 E108.39977
G0 F10500 X74.661 Y13.727
G1 F780 X72.952 Y15.435 E108.47173
;LAYER:19
G0 F10500 X72.517 Y15.610 Z7.645
;TYPE:WALL-INNER
G1 F660 X72.517 Y13.290 E108.54083
G1 X74.837 Y13.290 E108.60993
G1 X74.837 Y15.610 E108.67903
G1 X72.517 Y15.610 E108.74812
G0 F10500 X72.017 Y16.110
;TYPE:WALL-OUTER
G1 F540 X72.017 Y12.790 E108.84700
G1 X75.337 Y12.790 E108.94589
G1 X75.337 Y16.110 E109.04477
G1 X72.017 Y16.110 E109.14365
G0 F10500 X72.952 Y15.435
;TYPE:FILL
G1 F780 X74.661 Y13.727 E109.21561
G0 F10500 X74.661 Y14.557
G1 F780 X73.569 Y13.465 E109.26160
;LAYER:20
G0 F10500 X72.517 Y13.290 Z8.025
;TYPE:WALL-INNER
G1 F660 X74.837 Y13.290 E109.33070
G1 X74.837 Y15.610 E109.39980
G1 X72.517 Y15.610 E109.46890
G1 X72.517 Y13.290 E109.53799
G0 F10500 X72.017 Y12.790
;TYPE:WALL-OUTER
G1 F540 X75.337 Y12.790 E109.63687
G1 X75.337 Y16.110 E109.73576
G1 X72.017 Y16.110 E109.83464
G1 X72.017 Y12.790 E109.93352
G0 F10500 X72.367 Y13.050
G0 X73.569 Y13.465
;TYPE:FILL
G1 F780 X74.661 Y14.557 E109.97951
G0 F10500 X74.661 Y13.727
G1 F780 X72.952 Y15.435 E110.05147
;LAYER:21
G0 F10500 X72.517 Y15.610 Z8.405
;TYPE:WALL-INNER
G1 F660 X72.517 Y13.290 E110.12057
G1 X74.837 Y13.290 E110.18967
G1 X74.837 Y15.610 E110.25877
G1 X72.517 Y15.610 E110.32786
G0 F10500 X72.017 Y16.110
;TYPE:WALL-OUTER
G1 F540 X72.017 Y12.790 E110.42675
G1 X75.337 Y12.790 E110.52563
G1 X75.337 Y16.110 E110.62451
G1 X72.017 Y16.110 E110.72339
G0 F10500 X72.952 Y15.435
;TYPE:FILL
G1 F780 X74.661 Y13.727 E110.79535
G0 F10500 X74.661 Y14.557
G1 F780 X73.569 Y13.465 E110.84134
;LAYER:22
G0 F10500 X72.517 Y13.290 Z8.785
;TYPE:WALL-INNER
G1 F660 X74.837 Y13.290 E110.91044
G1 X74.837 Y15.610 E110.97954
G1 X72.517 Y15.610 E111.04864
G1 X72.517 Y13.290 E111.11773
G0 F10500 X72.017 Y12.790
;TYPE:WALL-OUTER
G1 F540 X75.337 Y12.790 E111.21662
G1 X75.337 Y16.110 E111.31550
G1 X72.017 Y16.110 E111.41438
G1 X72.017 Y12.790 E111.51326
G0 F10500 X72.367 Y13.050
G0 X73.569 Y13.465
;TYPE:FILL
G1 F780 X74.661 Y14.557 E111.55925
G0 F10500 X74.661 Y13.727
G1 F780 X72.952 Y15.435 E111.63122
;LAYER:23
G0 F10500 X72.517 Y15.610 Z9.165
;TYPE:WALL-INNER
G1 F660 X72.517 Y13.290 E111.70031
G1 X74.837 Y13.290 E111.76941
G1 X74.837 Y15.610 E111.83851
G1 X72.517 Y15.610 E111.90760
G0 F10500 X72.017 Y16.110
;TYPE:WALL-OUTER
G1 F540 X72.017 Y12.790 E112.00649
G1 X75.337 Y12.790 E112.10537
G1 X75.337 Y16.110 E112.20425
G1 X72.017 Y16.110 E112.30313
G0 F10500 X72.952 Y15.435
;TYPE:FILL
G1 F780 X74.661 Y13.727 E112.37509
G0 F10500 X74.661 Y14.557
G1 F780 X73.569 Y13.465 E112.42109
;LAYER:24
G0 F10500 X72.517 Y13.290 Z9.545
;TYPE:WALL-INNER
G1 F660 X74.837 Y13.290 E112.49018
G1 X74.837 Y15.610 E112.55928
G1 X72.517 Y15.610 E112.62838
G1 X72.517 Y13.290 E112.69748
G0 F10500 X72.017 Y12.790
;TYPE:WALL-OUTER
G1 F540 X75.337 Y12.790 E112.79636
G1 X75.337 Y16.110 E112.89524
G1 X72.017 Y16.110 E112.99412
G1 X72.017 Y12.790 E113.09300
G0 F10500 X72.367 Y13.050
G0 X73.569 Y13.465
;TYPE:FILL
G1 F780 X74.661 Y14.557 E113.13899
G0 F10500 X74.661 Y13.727
G1 F780 X72.952 Y15.435 E113.21096
;LAYER:25
G0 F10500 X72.517 Y15.610 Z9.925
;TYPE:WALL-INNER
G1 F660 X72.517 Y13.290 E113.28005
G1 X74.837 Y13.290 E113.34915
G1 X74.837 Y15.610 E113.41825
G1 X72.517 Y15.610 E113.48735
G0 F10500 X72.017 Y16.110
;TYPE:WALL-OUTER
G1 F540 X72.017 Y12.790 E113.58623
G1 X75.337 Y12.790 E113.68511
G1 X75.337 Y16.110 E113.78399
G1 X72.017 Y16.110 E113.88287
G0 F10500 X72.952 Y15.435
;TYPE:FILL
G1 F780 X74.661 Y13.727 E113.95483
G0 F10500 X74.661 Y14.557
G1 F780 X73.569 Y13.465 E114.00083
;LAYER:26
G0 F10500 X72.517 Y13.290 Z10.305
;TYPE:WALL-INNER
G1 F660 X74.837 Y13.290 E114.06992
G1 X74.837 Y15.610 E114.13902
G1 X72.517 Y15.610 E114.20812
G1 X72.517 Y13.290 E114.27722
G0 F10500 X72.017 Y12.790
;TYPE:WALL-OUTER
G1 F540 X75.337 Y12.790 E114.37610
G1 X75.337 Y16.110 E114.47498
G1 X72.017 Y16.110 E114.57386
G1 X72.017 Y12.790 E114.67274
G0 F10500 X72.367 Y13.050
G0 X73.569 Y13.465
;TYPE:FILL
G1 F780 X74.661 Y14.557 E114.71873
G0 F10500 X74.661 Y13.727
G1 F780 X72.952 Y15.435 E114.79070
;LAYER:27
G0 F10500 X72.517 Y15.610 Z10.685
;TYPE:WALL-INNER
G1 F660 X72.517 Y13.290 E114.85979
G1 X74.837 Y13.290 E114.92889
G1 X74.837 Y15.610 E114.99799
G1 X72.517 Y15.610 E115.06709
G0 F10500 X72.017 Y16.110
;TYPE:WALL-OUTER
G1 F540 X72.017 Y12.790 E115.16597
G1 X75.337 Y12.790 E115.26485
G1 X75.337 Y16.110 E115.36373
G1 X72.017 Y16.110 E115.46261
G0 F10500 X72.952 Y15.435
;TYPE:FILL
G1 F780 X74.661 Y13.727 E115.53457
G0 F10500 X74.661 Y14.557
G1 F780 X73.569 Y13.465 E115.58057
;LAYER:28
G0 F10500 X72.517 Y13.290 Z11.065
;TYPE:WALL-INNER
G1 F660 X74.837 Y13.290 E115.64966
G1 X74.837 Y15.610 E115.71876
G1 X72.517 Y15.610 E115.78786
G1 X72.517 Y13.290 E115.85696
G0 F10500 X72.017 Y12.790
;TYPE:WALL-OUTER
G1 F540 X75.337 Y12.790 E115.95584
G1 X75.337 Y16.110 E116.05472
G1 X72.017 Y16.110 E116.15360
G1 X72.017 Y12.790 E116.25248
G0 F10500 X72.367 Y13.050
G0 X73.569 Y13.465
;TYPE:FILL
G1 F780 X74.661 Y14.557 E116.29847
G0 F10500 X74.661 Y13.727
G1 F780 X72.952 Y15.435 E116.37044
;LAYER:29
G0 F10500 X72.517 Y15.610 Z11.445
;TYPE:WALL-INNER
G1 F660 X72.517 Y13.290 E116.43953
G1 X74.837 Y13.290 E116.50863
G1 X74.837 Y15.610 E116.57773
G1 X72.517 Y15.610 E116.64683
G0 F10500 X72.017 Y16.110
;TYPE:WALL-OUTER
G1 F540 X72.017 Y12.790 E116.74571
G1 X75.337 Y12.790 E116.84459
G1 X75.337 Y16.110 E116.94347
G1 X72.017 Y16.110 E117.04235
G0 F10500 X72.952 Y15.435
;TYPE:FILL
G1 F780 X74.661 Y13.727 E117.11431
G0 F10500 X74.661 Y14.557
G1 F780 X73.569 Y13.465 E117.16031
;LAYER:30
G0 F10500 X72.517 Y13.290 Z11.825
;TYPE:WALL-INNER
G1 F660 X74.837 Y13.290 E117.22940
G1 X74.837 Y15.610 E117.29850
G1 X72.517 Y15.610 E117.36760
G1 X72.517 Y13.290 E117.43670
G0 F10500 X72.017 Y12.790
;TYPE:WALL-OUTER
G1 F540 X75.337 Y12.790 E117.53558
G1 X75.337 Y16.110 E117.63446
G1 X72.017 Y16.110 E117.73334
G1 X72.017 Y12.790 E117.83222
G0 F10500 X72.367 Y13.050
G0 X73.569 Y13.465
;TYPE:FILL
G1 F780 X74.661 Y14.557 E117.87822
G0 F10500 X74.661 Y13.727
G1 F780 X72.952 Y15.435 E117.95018
;LAYER:31
G0 F10500 X72.517 Y15.610 Z12.205
;TYPE:WALL-INNER
G1 F660 X72.517 Y13.290 E118.01928
G1 X74.837 Y13.290 E118.08837
G1 X74.837 Y15.610 E118.15747
G1 X72.517 Y15.610 E118.22657
G0 F10500 X72.017 Y16.110
;TYPE:WALL-OUTER
G1 F540 X72.017 Y12.790 E118.32545
G1 X75.337 Y12.790 E118.42433
G1 X75.337 Y16.110 E118.52321
G1 X72.017 Y16.110 E118.62209
G0 F10500 X72.952 Y15.435
;TYPE:FILL
G1 F780 X74.661 Y13.727 E118.69405
G0 F10500 X74.661 Y14.557
G1 F780 X73.569 Y13.465 E118.74005
;LAYER:32
G0 F10500 X72.517 Y13.290 Z12.585
;TYPE:WALL-INNER
G1 F660 X74.837 Y13.290 E118.80915
G1 X74.837 Y15.610 E118.87824
G1 X72.517 Y15.610 E118.94734
G1 X72.517 Y13.290 E119.01644
G0 F10500 X72.017 Y12.790
;TYPE:WALL-OUTER
G1 F540 X75.337 Y12.790 E119.11532
G1 X75.337 Y16.110 E119.21420
G1 X72.017 Y16.110 E119.31308
G1 X72.017 Y12.790 E119.41196
G0 F10500 X72.367 Y13.050
G0 X73.569 Y13.465
;TYPE:FILL
G1 F780 X74.661 Y14.557 E119.45796
G0 F10500 X74.661 Y13.727
G1 F780 X72.952 Y15.435 E119.52992
;LAYER:33
G0 F10500 X72.517 Y15.610 Z12.965
;TYPE:WALL-INNER
G1 F660 X72.517 Y13.290 E119.59902
G1 X74.837 Y13.290 E119.66811
G1 X74.837 Y15.610 E119.73721
G1 X72.517 Y15.610 E119.80631
G0 F10500 X72.017 Y16.110
;TYPE:WALL-OUTER
G1 F540 X72.017 Y12.790 E119.90519
G1 X75.337 Y12.790 E120.00407
G1 X75.337 Y16.110 E120.10295
G1 X72.017 Y16.110 E120.20183
G0 F10500 X72.952 Y15.435
;TYPE:FILL
G1 F780 X74.661 Y13.727 E120.27379
G0 F10500 X74.661 Y14.557
G1 F780 X73.569 Y13.465 E120.31979
;LAYER:34
G0 F10500 X72.517 Y13.290 Z13.345
;TYPE:WALL-INNER
G1 F660 X74.837 Y13.290 E120.38889
G1 X74.837 Y15.610 E120.45798
G1 X72.517 Y15.610 E120.52708
G1 X72.517 Y13.290 E120.59618
G0 F10500 X72.017 Y12.790
;TYPE:WALL-OUTER
G1 F540 X75.337 Y12.790 E120.69506
G1 X75.337 Y16.110 E120.79394
G1 X72.017 Y16.110 E120.89282
G1 X72.017 Y12.790 E120.99170
G0 F10500 X72.367 Y13.050
G0 X73.569 Y13.465
;TYPE:FILL
G1 F780 X74.661 Y14.557 E121.03770
G0 F10500 X74.661 Y13.727
G1 F780 X72.952 Y15.435 E121.10966
;LAYER:35
G0 F10500 X72.517 Y15.610 Z13.725
;TYPE:WALL-INNER
G1 F660 X72.517 Y13.290 E121.17876
G1 X74.837 Y13.290 E121.24785
G1 X74.837 Y15.610 E121.31695
G1 X72.517 Y15.610 E121.38605
G0 F10500 X72.017 Y16.110
;TYPE:WALL-OUTER
G1 F540 X72.017 Y12.790 E121.48493
G1 X75.337 Y12.790 E121.58381
G1 X75.337 Y16.110 E121.68269
G1 X72.017 Y16.110 E121.78157
G0 F10500 X72.952 Y15.435
;TYPE:FILL
G1 F780 X74.661 Y13.727 E121.85353
G0 F10500 X74.661 Y14.557
G1 F780 X73.569 Y13.465 E121.89953
;LAYER:36
G0 F10500 X72.517 Y13.290 Z14.105
;TYPE:WALL-INNER
G1 F660 X74.837 Y13.290 E121.96863
G1 X74.837 Y15.610 E122.03772
G1 X72.517 Y15.610 E122.10682
G1 X72.517 Y13.290 E122.17592
G0 F10500 X72.017 Y12.790
;TYPE:WALL-OUTER
G1 F540 X75.337 Y12.790 E122.27480
G1 X75.337 Y16.110 E122.37368
G1 X72.017 Y16.110 E122.47256
G1 X72.017 Y12.790 E122.57144
G0 F10500 X72.367 Y13.050
G0 X73.569 Y13.465
;TYPE:FILL
G1 F780 X74.661 Y14.557 E122.61744
G0 F10500 X74.661 Y13.727
G1 F780 X72.952 Y15.435 E122.68940
;LAYER:37
G0 F10500 X72.517 Y15.610 Z14.485
;TYPE:WALL-INNER
G1 F660 X72.517 Y13.290 E122.75850
G1 X74.837 Y13.290 E122.82759
G1 X74.837 Y15.610 E122.89669
G1 X72.517 Y15.610 E122.96579
G0 F10500 X72.017 Y16.110
;TYPE:WALL-OUTER
G1 F540 X72.017 Y12.790 E123.06467
G1 X75.337 Y12.790 E123.16355
G1 X75.337 Y16.110 E123.26243
G1 X72.017 Y16.110 E123.36131
G0 F10500 X72.952 Y15.435
;TYPE:FILL
G1 F780 X74.661 Y13.727 E123.43327
G0 F10500 X74.661 Y14.557
G1 F780 X73.569 Y13.465 E123.47927
;LAYER:38
G0 F10500 X72.517 Y13.290 Z14.865
;TYPE:WALL-INNER
G1 F660 X74.837 Y13.290 E123.54837
G1 X74.837 Y15.610 E123.61746
G1 X72.517 Y15.610 E123.68656
G1 X72.517 Y13.290 E123.75566
G0 F10500 X72.017 Y12.790
;TYPE:WALL-OUTER
G1 F540 X75.337 Y12.790 E123.85454
G1 X75.337 Y16.110 E123.95342
G1 X72.017 Y16.110 E124.05230
G1 X72.017 Y12.790 E124.15118
G0 F10500 X72.367 Y13.050
G0 X73.569 Y13.465
;TYPE:FILL
G1 F780 X74.661 Y14.557 E124.19718
G0 F10500 X74.661 Y13.727
G1 F780 X72.952 Y15.435 E124.26914
;LAYER:39
G0 F10500 X72.517 Y15.610 Z15.245
;TYPE:WALL-INNER
G1 F660 X72.517 Y13.290 E124.33824
G1 X74.837 Y13.290 E124.40734
G1 X74.837 Y15.610 E124.47643
G1 X72.517 Y15.610 E124.54553
G0 F10500 X72.017 Y16.110
;TYPE:WALL-OUTER
G1 F540 X72.017 Y12.790 E124.64441
G1 X75.337 Y12.790 E124.74329
G1 X75.337 Y16.110 E124.84217
G1 X72.017 Y16.110 E124.94105
G0 F10500 X72.952 Y15.435
;TYPE:FILL
G1 F780 X74.661 Y13.727 E125.01302
G0 F10500 X74.661 Y14.557
G1 F780 X73.569 Y13.465 E125.05901
;LAYER:40
G0 F10500 X72.517 Y13.290 Z15.625
;TYPE:WALL-INNER
G1 F660 X74.837 Y13.290 E125.12811
G1 X74.837 Y15.610 E125.19721
G1 X72.517 Y15.610 E125.26630
G1 X72.517 Y13.290 E125.33540
G0 F10500 X72.017 Y12.790
;TYPE:WALL-OUTER
G1 F540 X75.337 Y12.790 E125.43428
G1 X75.337 Y16.110 E125.53316
G1 X72.017 Y16.110 E125.63204
G1 X72.017 Y12.790 E125.73092
G0 F10500 X72.367 Y13.050
G0 X73.569 Y13.465
;TYPE:FILL
G1 F780 X74.661 Y14.557 E125.77692
G0 F10500 X74.661 Y13.727
G1 F780 X72.952 Y15.435 E125.84888
;LAYER:41
G0 F10500 X72.517 Y15.610 Z16.005
;TYPE:WALL-INNER
G1 F660 X72.517 Y13.290 E125.91798
G1 X74.837 Y13.290 E125.98708
G1 X74.837 Y15.610 E126.05617
G1 X72.517 Y15.610 E126.12527
G0 F10500 X72.017 Y16.110
;TYPE:WALL-OUTER
G1 F540 X72.017 Y12.790 E126.22415
G1 X75.337 Y12.790 E126.32303
G1 X75.337 Y16.110 E126.42191
G1 X72.017 Y16.110 E126.52079
G0 F10500 X72.952 Y15.435
;TYPE:FILL
G1 F780 X74.661 Y13.727 E126.59276
G0 F10500 X74.661 Y14.557
G1 F780 X73.569 Y13.465 E126.63875
;LAYER:42
G0 F10500 X72.517 Y13.290 Z16.385
;TYPE:WALL-INNER
G1 F660 X74.837 Y13.290 E126.70785
G1 X74.837 Y15.610 E126.77695
G1 X72.517 Y15.610 E126.84604
G1 X72.517 Y13.290 E126.91514
G0 F10500 X72.017 Y12.790
;TYPE:WALL-OUTER
G1 F540 X75.337 Y12.790 E127.01402
G1 X75.337 Y16.110 E127.11290
G1 X72.017 Y16.110 E127.21178
G1 X72.017 Y12.790 E127.31066
G0 F10500 X72.367 Y13.050
G0 X73.569 Y13.465
;TYPE:FILL
G1 F780 X74.661 Y14.557 E127.35666
G0 F10500 X74.661 Y13.727
G1 F780 X72.952 Y15.435 E127.42862
;LAYER:43
G0 F10500 X72.517 Y15.610 Z16.765
;TYPE:WALL-INNER
G1 F660 X72.517 Y13.290 E127.49772
G1 X74.837 Y13.290 E127.56682
G1 X74.837 Y15.610 E127.63591
G1 X72.517 Y15.610 E127.70501
G0 F10500 X72.017 Y16.110
;TYPE:WALL-OUTER
G1 F540 X72.017 Y12.790 E127.80389
G1 X75.337 Y12.790 E127.90277
G1 X75.337 Y16.110 E128.00165
G1 X72.017 Y16.110 E128.10053
G0 F10500 X72.952 Y15.435
;TYPE:FILL
G1 F780 X74.661 Y13.727 E128.17250
G0 F10500 X74.661 Y14.557
G1 F780 X73.569 Y13.465 E128.21849
;LAYER:44
G0 F10500 X72.517 Y13.290 Z17.145
;TYPE:WALL-INNER
G1 F660 X74.837 Y13.290 E128.28759
G1 X74.837 Y15.610 E128.35669
G1 X72.517 Y15.610 E128.42578
G1 X72.517 Y13.290 E128.49488
G0 F10500 X72.017 Y12.790
;TYPE:WALL-OUTER
G1 F540 X75.337 Y12.790 E128.59376
G1 X75.337 Y16.110 E128.69264
G1 X72.017 Y16.110 E128.79152
G1 X72.017 Y12.790 E128.89040
G0 F10500 X72.367 Y13.050
G0 X73.569 Y13.465
;TYPE:FILL
G1 F780 X74.661 Y14.557 E128.93640
G0 F10500 X74.661 Y13.727
G1 F780 X72.952 Y15.435 E129.00836
;LAYER:45
G0 F10500 X72.517 Y15.610 Z17.525
;TYPE:WALL-INNER
G1 F660 X72.517 Y13.290 E129.07746
G1 X74.837 Y13.290 E129.14656
G1 X74.837 Y15.610 E129.21565
G1 X72.517 Y15.610 E129.28475
G0 F10500 X72.017 Y16.110
;TYPE:WALL-OUTER
G1 F540 X72.017 Y12.790 E129.38363
G1 X75.337 Y12.790 E129.48251
G1 X75.337 Y16.110 E129.58139
G1 X72.017 Y16.110 E129.68028
G0 F10500 X72.952 Y15.435
;TYPE:FILL
G1 F780 X74.661 Y13.727 E129.75224
G0 F10500 X74.661 Y14.557
G1 F780 X73.569 Y13.465 E129.79823
;LAYER:46
G0 F10500 X72.517 Y13.290 Z17.905
;TYPE:WALL-INNER
G1 F660 X74.837 Y13.290 E129.86733
G1 X74.837 Y15.610 E129.93643
G1 X72.517 Y15.610 E130.00552
G1 X72.517 Y13.290 E130.07462
G0 F10500 X72.017 Y12.790
;TYPE:WALL-OUTER
G1 F540 X75.337 Y12.790 E130.17350
G1 X75.337 Y16.110 E130.27238
G1 X72.017 Y16.110 E130.37126
G1 X72.017 Y12.790 E130.47015
G0 F10500 X72.367 Y13.050
G0 X73.569 Y13.465
;TYPE:FILL
G1 F780 X74.661 Y14.557 E130.51614
G0 F10500 X74.661 Y13.727
G1 F780 X72.952 Y15.435 E130.58810
G1 F600 E129.08810
G1 Z18.005
G0 F10500 X73.173 Y17.249
;TYPE:WALL-OUTER
G1 Z17.905
G1 F600 E130.58810
G1 F540 X73.155 Y17.249 E130.58864
G1 X73.155 Y16.811 E130.60168
G1 X74.199 Y16.811 E130.63278
G1 X74.199 Y17.248 E130.64579
G1 X73.173 Y17.249 E130.67635
;LAYER:47
G0 F10500 X73.173 Y15.760 Z18.285
G0 X72.517 Y15.610
;TYPE:WALL-INNER
G1 F660 X72.517 Y13.290 E130.74545
G1 X74.837 Y13.290 E130.81455
G1 X74.837 Y15.610 E130.88364
G1 X72.517 Y15.610 E130.95274
G0 F10500 X72.017 Y16.110
;TYPE:WALL-OUTER
G1 F540 X72.017 Y12.790 E131.05162
G1 X75.337 Y12.790 E131.15050
G1 X75.337 Y16.110 E131.24938
G1 X72.017 Y16.110 E131.34826
G0 F10500 X72.952 Y15.435
;TYPE:FILL
G1 F780 X74.661 Y13.727 E131.42023
G0 F10500 X74.661 Y14.557
G1 F780 X73.569 Y13.465 E131.46622
G1 F600 E129.96622
G1 Z18.385
G0 F10500 X73.155 Y16.811
;TYPE:WALL-OUTER
G1 Z18.285
G1 F600 E131.46622
G1 F540 X74.199 Y16.811 E131.49732
G1 X74.199 Y17.812 E131.52713
G1 X73.155 Y17.812 E131.55822
G1 X73.155 Y16.811 E131.58804
;LAYER:48
G0 F10500 X72.517 Y15.610 Z18.665
;TYPE:WALL-INNER
G1 F660 X72.517 Y13.290 E131.65713
G1 X74.837 Y13.290 E131.72623
G1 X74.837 Y15.610 E131.79533
G1 X72.517 Y15.610 E131.86443
G0 F10500 X72.017 Y16.110
;TYPE:WALL-OUTER
G1 F540 X72.017 Y12.790 E131.96331
G1 X75.337 Y12.790 E132.06219
G1 X75.337 Y16.110 E132.16107
G1 X72.017 Y16.110 E132.25995
G0 F10500 X72.952 Y15.435
;TYPE:FILL
G1 F780 X74.661 Y13.727 E132.33191
G0 F10500 X74.661 Y14.557
G1 F780 X73.569 Y13.465 E132.37791
G1 F600 E130.87791
G1 Z18.765
G0 F10500 X73.655 Y17.311
;TYPE:WALL-INNER
G1 Z18.665
G1 F600 E132.37791
G1 F660 X73.699 Y17.311 E132.37922
G1 X73.699 Y17.876 E132.39604
G1 X73.655 Y17.876 E132.39735
G1 X73.655 Y17.311 E132.41418
G0 F10500 X73.155 Y16.811
;TYPE:WALL-OUTER
G1 F540 X74.199 Y16.811 E132.44528
G1 X74.199 Y18.375 E132.49186
G1 X73.155 Y18.375 E132.52295
G1 X73.155 Y16.811 E132.56953
;LAYER:49
G0 F10500 X72.517 Y15.610 Z19.045
;TYPE:WALL-INNER
G1 F660 X72.517 Y13.290 E132.63863
G1 X74.837 Y13.290 E132.70773
G1 X74.837 Y15.610 E132.77682
G1 X72.517 Y15.610 E132.84592
G0 F10500 X72.017 Y16.110
;TYPE:WALL-OUTER
G1 F540 X72.017 Y12.790 E132.94480
G1 X75.337 Y12.790 E133.04368
G1 X75.337 Y16.110 E133.14256
G1 X72.017 Y16.110 E133.24144
G0 F10500 X72.952 Y15.435
;TYPE:FILL
G1 F780 X74.661 Y13.727 E133.31341
G0 F10500 X74.661 Y14.557
G1 F780 X73.569 Y13.465 E133.35940
G1 F600 E131.85940
G1 Z19.145
G0 F10500 X73.655 Y17.311
;TYPE:WALL-INNER
G1 Z19.045
G1 F600 E133.35940
G1 F660 X73.699 Y17.311 E133.36071
G1 X73.699 Y18.440 E133.39434
G1 X73.655 Y18.440 E133.39565
G1 X73.655 Y17.311 E133.42927
G0 F10500 X73.155 Y16.811
;TYPE:WALL-OUTER
G1 F540 X74.199 Y16.811 E133.46037
G1 X74.199 Y18.939 E133.52375
G1 X73.155 Y18.939 E133.55484
G1 X73.155 Y16.811 E133.61822
;LAYER:50
G0 F10500 X72.517 Y15.610 Z19.425
;TYPE:WALL-INNER
G1 F660 X72.517 Y13.290 E133.68732
G1 X74.837 Y13.290 E133.75641
G1 X74.837 Y15.610 E133.82551
G1 X72.517 Y15.610 E133.89461
G0 F10500 X72.017 Y16.110
;TYPE:WALL-OUTER
G1 F540 X72.017 Y12.790 E133.99349
G1 X75.337 Y12.790 E134.09237
G1 X75.337 Y16.110 E134.19125
G1 X72.017 Y16.110 E134.29013
G0 F10500 X72.952 Y15.435
;TYPE:FILL
G1 F780 X74.661 Y13.727 E134.36209
G0 F10500 X74.661 Y14.557
G1 F780 X73.569 Y13.465 E134.40809
G1 F600 E132.90809
G1 Z19.525
G0 F10500 X73.655 Y17.311
;TYPE:WALL-INNER
G1 Z19.425
G1 F600 E134.40809
G1 F660 X73.699 Y17.311 E134.40940
G1 X73.699 Y19.004 E134.45982
G1 X73.655 Y19.004 E134.46113
G1 X73.655 Y17.311 E134.51156
G0 F10500 X73.155 Y16.811
;TYPE:WALL-OUTER
G1 F540 X74.199 Y16.811 E134.54265
G1 X74.199 Y19.503 E134.62283
G1 X73.155 Y19.503 E134.65392
G1 X73.155 Y16.811 E134.73410
;LAYER:51
G0 F10500 X72.517 Y15.610 Z19.805
;TYPE:WALL-INNER
G1 F660 X72.517 Y13.290 E134.80320
G1 X74.837 Y13.290 E134.87229
G1 X74.837 Y15.610 E134.94139
G1 X72.517 Y15.610 E135.01049
G0 F10500 X72.017 Y16.110
;TYPE:WALL-OUTER
G1 F540 X72.017 Y12.790 E135.10937
G1 X75.337 Y12.790 E135.20825
G1 X75.337 Y16.110 E135.30713
G1 X72.017 Y16.110 E135.40601
G0 F10500 X72.952 Y15.435
;TYPE:FILL
G1 F780 X74.661 Y13.727 E135.47797
G0 F10500 X74.661 Y14.557
G1 F780 X73.569 Y13.465 E135.52397
G1 F600 E134.02397
G1 Z19.905
G0 F10500 X73.655 Y17.311
;TYPE:WALL-INNER
G1 Z19.805
G1 F600 E135.52397
G1 F660 X73.699 Y17.311 E135.52528
G1 X73.699 Y19.567 E135.59247
G1 X73.655 Y19.567 E135.59378
G1 X73.655 Y17.311 E135.66097
G0 F10500 X73.155 Y16.811
;TYPE:WALL-OUTER
G1 F540 X74.199 Y16.811 E135.69207
G1 X74.199 Y20.066 E135.78901
G1 X73.155 Y20.066 E135.82011
G1 X73.155 Y16.811 E135.91705
;LAYER:52
G0 F10500 X72.517 Y15.610 Z20.185
;TYPE:WALL-INNER
G1 F660 X72.517 Y13.290 E135.98615
G1 X74.837 Y13.290 E136.05525
G1 X74.837 Y15.610 E136.12434
G1 X72.517 Y15.610 E136.19344
G0 F10500 X72.017 Y16.110
;TYPE:WALL-OUTER
G1 F540 X72.017 Y12.790 E136.29232
G1 X75.337 Y12.790 E136.39120
G1 X75.337 Y16.110 E136.49008
G1 X72.017 Y16.110 E136.58896
G0 F10500 X72.952 Y15.435
;TYPE:FILL
G1 F780 X74.661 Y13.727 E136.66093
G0 F10500 X74.661 Y14.557
G1 F780 X73.569 Y13.465 E136.70692
G1 F600 E135.20692
G1 Z20.285
G0 F10500 X73.655 Y17.311
;TYPE:WALL-INNER
G1 Z20.185
G1 F600 E136.70692
G1 F660 X73.699 Y17.311 E136.70823
G1 X73.699 Y20.131 E136.79222
G1 X73.655 Y20.131 E136.79353
G1 X73.655 Y17.311 E136.87752
G0 F10500 X73.155 Y16.811
;TYPE:WALL-OUTER
G1 F540 X74.199 Y16.811 E136.90861
G1 X74.199 Y20.630 E137.02236
G1 X73.155 Y20.630 E137.05345
G1 X73.155 Y16.811 E137.16719
;LAYER:53
G0 F10500 X72.517 Y15.610 Z20.565
;TYPE:WALL-INNER
G1 F660 X72.517 Y13.290 E137.23629
G1 X74.837 Y13.290 E137.30539
G1 X74.837 Y15.610 E137.37449
G1 X72.517 Y15.610 E137.44358
G0 F10500 X72.017 Y16.110
;TYPE:WALL-OUTER
G1 F540 X72.017 Y12.790 E137.54246
G1 X75.337 Y12.790 E137.64134
G1 X75.337 Y16.110 E137.74023
G1 X72.017 Y16.110 E137.83911
G0 F10500 X72.952 Y15.435
;TYPE:FILL
G1 F780 X74.661 Y13.727 E137.91107
G0 F10500 X74.661 Y14.557
G1 F780 X73.569 Y13.465 E137.95706
G1 F600 E136.45706
G1 Z20.665
G0 F10500 X73.655 Y17.311
;TYPE:WALL-INNER
G1 Z20.565
G1 F600 E137.95706
G1 F660 X73.699 Y17.311 E137.95837
G1 X73.699 Y20.695 E138.05916
G1 X73.655 Y20.695 E138.06047
G1 X73.655 Y17.311 E138.16126
G0 F10500 X73.155 Y16.811
;TYPE:WALL-OUTER
G1 F540 X74.199 Y16.811 E138.19235
G1 X74.199 Y21.195 E138.32292
G1 X73.155 Y21.194 E138.35402
G1 X73.155 Y16.811 E138.48456
;LAYER:54
G0 F10500 X72.517 Y15.610 Z20.945
;TYPE:WALL-INNER
G1 F660 X72.517 Y13.290 E138.55365
G1 X74.837 Y13.290 E138.62275
G1 X74.837 Y15.610 E138.69185
G1 X72.517 Y15.610 E138.76095
G0 F10500 X72.017 Y16.110
;TYPE:WALL-OUTER
G1 F540 X72.017 Y12.790 E138.85983
G1 X75.337 Y12.790 E138.95871
G1 X75.337 Y16.110 E139.05759
G1 X72.017 Y16.110 E139.15647
G0 F10500 X72.952 Y15.435
;TYPE:FILL
G1 F780 X74.661 Y13.727 E139.22843
G0 F10500 X74.661 Y14.557
G1 F780 X73.569 Y13.465 E139.27443
G1 F600 E137.77443
G1 Z21.045
G0 F10500 X73.655 Y17.311
;TYPE:WALL-INNER
G1 Z20.945
G1 F600 E139.27443
G1 F660 X73.699 Y17.311 E139.27574
G1 X73.699 Y21.240 E139.39276
G1 X73.655 Y21.240 E139.39407
G1 X73.655 Y17.311 E139.51109
G0 F10500 X73.155 Y16.811
;TYPE:WALL-OUTER
G1 F540 X74.199 Y16.811 E139.54218
G1 X74.199 Y21.740 E139.68898
G1 X73.155 Y21.740 E139.72008
G1 X73.155 Y16.811 E139.86688
;LAYER:55
G0 F10500 X72.517 Y15.610 Z21.325
;TYPE:WALL-INNER
G1 F660 X72.517 Y13.290 E139.93598
G1 X74.837 Y13.290 E140.00507
G1 X74.837 Y15.610 E140.07417
G1 X72.517 Y15.610 E140.14327
G0 F10500 X72.017 Y16.110
;TYPE:WALL-OUTER
G1 F540 X72.017 Y12.790 E140.24215
G1 X75.337 Y12.790 E140.34103
G1 X75.337 Y16.110 E140.43991
G1 X72.017 Y16.110 E140.53879
G0 F10500 X72.952 Y15.435
;TYPE:FILL
G1 F780 X74.661 Y13.727 E140.61075
G0 F10500 X74.661 Y14.557
G1 F780 X73.569 Y13.465 E140.65675
G1 F600 E139.15675
G1 Z21.425
G0 F10500 X73.655 Y17.311
;TYPE:WALL-INNER
G1 Z21.325
G1 F600 E140.65675
G1 F660 X73.699 Y17.311 E140.65806
G1 X73.699 Y21.240 E140.77508
G1 X73.655 Y21.240 E140.77639
G1 X73.655 Y17.311 E140.89341
G0 F10500 X73.155 Y16.811
;TYPE:WALL-OUTER
G1 F540 X74.199 Y16.811 E140.92450
G1 X74.199 Y21.740 E141.07130
G1 X73.155 Y21.740 E141.10240
G1 X73.155 Y16.811 E141.24920
;LAYER:56
G0 F10500 X72.517 Y15.610 Z21.705
;TYPE:WALL-INNER
G1 F660 X72.517 Y13.290 E141.31830
G1 X74.837 Y13.290 E141.38739
G1 X74.837 Y15.610 E141.45649
G1 X72.517 Y15.610 E141.52559
G0 F10500 X72.017 Y16.110
;TYPE:WALL-OUTER
G1 F540 X72.017 Y12.790 E141.62447
G1 X75.337 Y12.790 E141.72335
G1 X75.337 Y16.110 E141.82223
G1 X72.017 Y16.110 E141.92111
G0 F10500 X72.952 Y15.435
;TYPE:FILL
G1 F780 X74.661 Y13.727 E141.99307
G0 F10500 X74.661 Y14.557
G1 F780 X73.569 Y13.465 E142.03907
G1 F600 E140.53907
G1 Z21.805
G0 F10500 X73.655 Y17.311
;TYPE:WALL-INNER
G1 Z21.705
G1 F600 E142.03907
G1 F660 X73.699 Y17.311 E142.04038
G1 X73.699 Y20.718 E142.14185
G1 X73.655 Y20.718 E142.14316
G1 X73.655 Y17.311 E142.24463
G0 F10500 X73.155 Y16.811
;TYPE:WALL-OUTER
G1 F540 X74.199 Y16.811 E142.27573
G1 X74.199 Y21.218 E142.40698
G1 X73.155 Y21.218 E142.43808
G1 X73.155 Y16.811 E142.56933
;LAYER:57
G0 F10500 X72.517 Y15.610 Z22.085
;TYPE:WALL-INNER
G1 F660 X72.517 Y13.290 E142.63843
G1 X74.837 Y13.290 E142.70753
G1 X74.837 Y15.610 E142.77663
G1 X72.517 Y15.610 E142.84572
G0 F10500 X72.017 Y16.110
;TYPE:WALL-OUTER
G1 F540 X72.017 Y12.790 E142.94460
G1 X75.337 Y12.790 E143.04348
G1 X75.337 Y16.110 E143.14237
G1 X72.017 Y16.110 E143.24125
G0 F10500 X72.952 Y15.435
;TYPE:FILL
G1 F780 X74.661 Y13.727 E143.31321
G0 F10500 X74.661 Y14.557
G1 F780 X73.569 Y13.465 E143.35920
G1 F600 E141.85920
G1 Z22.185
G0 F10500 X73.655 Y17.311
;TYPE:WALL-INNER
G1 Z22.085
G1 F600 E143.35920
G1 F660 X73.699 Y17.311 E143.36051
G1 X73.699 Y20.154 E143.44519
G1 X73.655 Y20.154 E143.44650
G1 X73.655 Y17.311 E143.53117
G0 F10500 X73.155 Y16.811
;TYPE:WALL-OUTER
G1 F540 X74.199 Y16.811 E143.56227
G1 X74.199 Y20.654 E143.67672
G1 X73.155 Y20.655 E143.70782
G1 X73.155 Y16.811 E143.82231
;LAYER:58
G0 F10500 X72.517 Y15.610 Z22.465
;TYPE:WALL-INNER
G1 F660 X72.517 Y13.290 E143.89140
G1 X74.837 Y13.290 E143.96050
G1 X74.837 Y15.610 E144.02960
G1 X72.517 Y15.610 E144.09870
G0 F10500 X72.017 Y16.110
;TYPE:WALL-OUTER
G1 F540 X72.017 Y12.790 E144.19758
G1 X75.337 Y12.790 E144.29646
G1 X75.337 Y16.110 E144.39534
G1 X72.017 Y16.110 E144.49422
G0 F10500 X72.952 Y15.435
;TYPE:FILL
G1 F780 X74.661 Y13.727 E144.56618
G0 F10500 X74.661 Y14.557
G1 F780 X73.569 Y13.465 E144.61218
G1 F600 E143.11218
G1 Z22.565
G0 F10500 X73.655 Y17.311
;TYPE:WALL-INNER
G1 Z22.465
G1 F600 E144.61218
G1 F660 X73.699 Y17.311 E144.61349
G1 X73.699 Y19.590 E144.68136
G1 X73.655 Y19.590 E144.68267
G1 X73.655 Y17.311 E144.75055
G0 F10500 X73.155 Y16.811
;TYPE:WALL-OUTER
G1 F540 X74.199 Y16.811 E144.78164
G1 X74.199 Y20.090 E144.87930
G1 X73.155 Y20.091 E144.91040
G1 X73.155 Y16.811 E145.00809
;LAYER:59
G0 F10500 X72.517 Y15.610 Z22.845
;TYPE:WALL-INNER
G1 F660 X72.517 Y13.290 E145.07718
G1 X74.837 Y13.290 E145.14628
G1 X74.837 Y15.610 E145.21538
G1 X72.517 Y15.610 E145.28448
G0 F10500 X72.017 Y16.110
;TYPE:WALL-OUTER
G1 F540 X72.017 Y12.790 E145.38336
G1 X75.337 Y12.790 E145.48224
G1 X75.337 Y16.110 E145.58112
G1 X72.017 Y16.110 E145.68000
G0 F10500 X72.952 Y15.435
;TYPE:FILL
G1 F780 X74.661 Y13.727 E145.75196
G0 F10500 X74.661 Y14.557
G1 F780 X73.569 Y13.465 E145.79796
G1 F600 E144.29796
G1 Z22.945
G0 F10500 X73.655 Y17.311
;TYPE:WALL-INNER
G1 Z22.845
G1 F600 E145.79796
G1 F660 X73.699 Y17.311 E145.79927
G1 X73.699 Y19.027 E145.85038
G1 X73.655 Y19.027 E145.85169
G1 X73.655 Y17.311 E145.90279
G0 F10500 X73.155 Y16.811
;TYPE:WALL-OUTER
G1 F540 X74.199 Y16.811 E145.93389
G1 X74.199 Y19.527 E146.01478
G1 X73.155 Y19.528 E146.04587
G1 X73.155 Y16.811 E146.12679
;LAYER:60
G0 F10500 X72.517 Y15.610 Z23.225
;TYPE:WALL-INNER
G1 F660 X72.517 Y13.290 E146.19589
G1 X74.837 Y13.290 E146.26499
G1 X74.837 Y15.610 E146.33409
G1 X72.517 Y15.610 E146.40318
G0 F10500 X72.017 Y16.110
;TYPE:WALL-OUTER
G1 F540 X72.017 Y12.790 E146.50207
G1 X75.337 Y12.790 E146.60095
G1 X75.337 Y16.110 E146.69983
G1 X72.017 Y16.110 E146.79871
G0 F10500 X72.952 Y15.435
;TYPE:FILL
G1 F780 X74.661 Y13.727 E146.87067
G0 F10500 X74.661 Y14.557
G1 F780 X73.569 Y13.465 E146.91666
G1 F600 E145.41666
G1 Z23.325
G0 F10500 X73.655 Y17.311
;TYPE:WALL-INNER
G1 Z23.225
G1 F600 E146.91666
G1 F660 X73.699 Y17.311 E146.91798
G1 X73.699 Y18.463 E146.95229
G1 X73.655 Y18.464 E146.95360
G1 X73.655 Y17.311 E146.98794
G0 F10500 X73.155 Y16.811
;TYPE:WALL-OUTER
G1 F540 X74.199 Y16.811 E147.01903
G1 X74.199 Y18.963 E147.08312
G1 X73.155 Y18.964 E147.11422
G1 X73.155 Y16.811 E147.17834
;LAYER:61
G0 F10500 X72.517 Y15.610 Z23.605
;TYPE:WALL-INNER
G1 F660 X72.517 Y13.290 E147.24744
G1 X74.837 Y13.290 E147.31654
G1 X74.837 Y15.610 E147.38563
G1 X72.517 Y15.610 E147.45473
G0 F10500 X72.017 Y16.110
;TYPE:WALL-OUTER
G1 F540 X72.017 Y12.790 E147.55361
G1 X75.337 Y12.790 E147.65249
G1 X75.337 Y16.110 E147.75137
G1 X72.017 Y16.110 E147.85026
G0 F10500 X72.952 Y15.435
;TYPE:FILL
G1 F780 X74.661 Y13.727 E147.92222
G0 F10500 X74.661 Y14.557
G1 F780 X73.569 Y13.465 E147.96821
G1 F600 E146.46821
G1 Z23.705
G0 F10500 X73.655 Y17.311
;TYPE:WALL-INNER
G1 Z23.605
G1 F600 E147.96821
G1 F660 X73.699 Y17.311 E147.96952
G1 X73.699 Y17.900 E147.98707
G1 X73.655 Y17.901 E147.98838
G1 X73.655 Y17.311 E148.00595
G0 F10500 X73.155 Y16.811
;TYPE:WALL-OUTER
G1 F540 X74.199 Y16.811 E148.03704
G1 X74.199 Y18.400 E148.08437
G1 X73.155 Y18.401 E148.11546
G1 X73.155 Y16.811 E148.16282
;LAYER:62
G0 F10500 X72.517 Y15.610 Z23.985
;TYPE:WALL-INNER
G1 F660 X72.517 Y13.290 E148.23191
G1 X74.837 Y13.290 E148.30101
G1 X74.837 Y15.610 E148.37011
G1 X72.517 Y15.610 E148.43921
G0 F10500 X72.017 Y16.110
;TYPE:WALL-OUTER
G1 F540 X72.017 Y12.790 E148.53809
G1 X75.337 Y12.790 E148.63697
G1 X75.337 Y16.110 E148.73585
G1 X72.017 Y16.110 E148.83473
G0 F10500 X72.952 Y15.435
;TYPE:FILL
G1 F780 X74.661 Y13.727 E148.90669
G0 F10500 X74.661 Y14.557
G1 F780 X73.569 Y13.465 E148.95269
G1 F600 E147.45269
G1 Z24.085
G0 F10500 X73.655 Y17.311
;TYPE:WALL-INNER
G1 Z23.985
G1 F600 E148.95269
G1 F660 X73.699 Y17.311 E148.95400
G1 X73.699 Y17.336 E148.95474
G1 X73.655 Y17.337 E148.95605
G1 X73.655 Y17.311 E148.95683
G0 F10500 X73.155 Y16.811
;TYPE:WALL-OUTER
G1 F540 X74.199 Y16.811 E148.98792
G1 X74.199 Y17.836 E149.01845
G1 X73.155 Y17.837 E149.04954
G1 X73.155 Y16.811 E149.08010
;LAYER:63
G0 F10500 X72.517 Y15.610 Z24.365
;TYPE:WALL-INNER
G1 F660 X72.517 Y13.290 E149.14920
G1 X74.837 Y13.290 E149.21830
G1 X74.837 Y15.610 E149.28739
G1 X72.517 Y15.610 E149.35649
G0 F10500 X72.017 Y16.110
;TYPE:WALL-OUTER
G1 F540 X72.017 Y12.790 E149.45537
G1 X75.337 Y12.790 E149.55425
G1 X75.337 Y16.110 E149.65313
G1 X72.017 Y16.110 E149.75201
G0 F10500 X72.691 Y15.343
;TYPE:SKIN
G1 F960 X74.569 Y13.465 E149.83112
G0 F10500 X74.661 Y14.080
G1 F960 X73.306 Y15.435 E149.88819
G0 F10500 X74.013 Y15.435
G1 F960 X74.661 Y14.787 E149.91548
G0 F10500 X73.862 Y13.465
G1 F960 X72.691 Y14.636 E149.96481
G0 F10500 X72.691 Y13.929
G1 F960 X73.155 Y13.465 E149.98435
G1 F600 E148.48435
G1 Z24.465
G0 F10500 X73.155 Y16.811
;TYPE:WALL-OUTER
G1 Z24.365
G1 F600 E149.98435
G1 F540 X74.199 Y16.811 E150.01544
G1 X74.199 Y17.273 E150.02920
G1 X73.155 Y17.274 E150.06030
G1 X73.155 Y16.811 E150.07409
;LAYER:64
G0 F10500 X72.517 Y15.610 Z24.745
;TYPE:WALL-INNER
G1 F660 X72.517 Y13.290 E150.14318
G1 X74.837 Y13.290 E150.21228
G1 X74.837 Y15.610 E150.28138
G1 X72.517 Y15.610 E150.35048
G0 F10500 X72.017 Y16.110
;TYPE:WALL-OUTER
G1 F540 X72.017 Y12.790 E150.44936
G1 X75.337 Y12.790 E150.54824
G1 X75.337 Y16.110 E150.64712
G1 X72.017 Y16.110 E150.74600
G0 F10500 X73.064 Y15.435
;TYPE:SKIN
G1 F960 X72.691 Y15.062 E150.76171
G0 F10500 X72.691 Y14.354
G1 F960 X73.771 Y15.435 E150.80722
G0 F10500 X74.478 Y15.435
G1 F960 X72.691 Y13.647 E150.88251
G0 F10500 X73.215 Y13.465
G1 F960 X74.661 Y14.910 E150.94339
G0 F10500 X74.661 Y14.203
G1 F960 X73.923 Y13.465 E150.97448
;LAYER:65
G0 F10500 X74.837 Y13.290 Z25.125
;TYPE:WALL-INNER
G1 F660 X74.837 Y15.610 E151.04358
G1 X72.517 Y15.610 E151.11267
G1 X72.517 Y13.290 E151.18177
G1 X74.837 Y13.290 E151.25087
G0 F10500 X75.337 Y12.790
;TYPE:WALL-OUTER
G1 F540 X75.337 Y16.110 E151.34975
G1 X72.017 Y16.110 E151.44863
G1 X72.017 Y12.790 E151.54751
G1 X75.337 Y12.790 E151.64639
G0 F10500 X74.569 Y13.465
;TYPE:SKIN
G1 F960 X72.691 Y15.343 E151.72549
G0 F10500 X73.306 Y15.435
G1 F960 X74.661 Y14.080 E151.78257
G0 F10500 X74.661 Y14.787
G1 F960 X74.013 Y15.435 E151.80986
G0 F10500 X72.691 Y14.636
G1 F960 X73.862 Y13.465 E151.85918
G0 F10500 X73.155 Y13.465
G1 F960 X72.691 Y13.929 E151.87873
M107
G1 F600 E150.37873
G1 Z25.225
G0 F10500 X72.691 Y13.929 Z30.201
M400
M104 S0                                      ; hotend off
M140 S0                                      ; heated bed heater off (if you have it)
M107                                         ; fans off
G92 E5                                       ; set extruder to 5mm for retract on print end
G1 X5 Y5 Z158 E0 F10000                      ; move to cooling positioning
M190 R50                                     ; wait for bed to cool
M140 S0                                      ;
G1 X145 F1000                                ; move to cooling positioning
G1 Y175 F1000                                ; move to cooling positioning
M84                                          ; steppers off
G90                                          ; absolute positioning
;CURA_PROFILE_STRING:eNrtWltv28gVfhWE/oh53EVjlaTE2A7Bh03WNhaIF0Hsol6/ECNyJE3DG8ihZdnQf+93hheRMqXKbbpNdpUHxzw6tznXb2iFfCUybyHkfKFcYzQ+Gyx5GHpqIf0vschz1xxkQmXcVzKJPRHzaSjc26wQgzwJZeCFWr7NPpOQD0ScS7VyLWOQikxGQoFrKmZJJjwZE0upJE6enkLh5fJJwLo9SDMZKy9PhQhc26gelYighKsiE1Bov6Rabg/ruI846SPaDXEqgo61t8YgL9I0yZT7axKLQRpyhTNEHg8WIkdESnLF4wUFDz3xqLJCf/Y+UYvBUqbCU8lSZO4lD3PRIngPSVhEwjXtQZI8IQoLKcKgYkOMeCTgUyC5Dp9rjc7sl2Q6+wviuI846SPabeIsTJauaRgjo530Mhtmh8ajpIiVayJlLao+f/3R2+5nkYw9PDyIcFvKT6KpjOfuT2G4JSCjTjzhl9GRXCQpiOZgmiiVRK0qNEYTyx7o2jS8pQzUwptBJslcE/Rk+k/ho8pk/IV0DpIHkYU81e6TPntQOlqf/NSuLZTVXpHtQVnJ1fPEKFuCZ4JXJFIu41wooyKMq+fH+tke+EkS6uBUnYReoa6Z8brbgqrdvkhUWChjgYDpAFekOU/dMQyVT3XUQhHP1cK17FLVrICfTZfbmla6cNp68CL+SPnfODUDFb0gKP2auBAcTS9nqirTcgooJKI1FMpolRQdoSrCFLO6V9QqFe5HHCdvSDyeY7hMNjxaVpsfN43oPa5QvLnisU8j47ShP7XJqJM8lRkPabBUnsooxaiJkqCmTDGYOhFFifMZYsizuYxde1Q9a5Y85T5V6bimTnkuOiU3btFJRNcdir3ix3wRGaqwK2Sdbn+6EUUVlx9ymSHLHgazLqkWTSdTP+dFJU5llLtWl9pnspHoGJzJR/RVlkmUnlfEutlpISBdHq9Tuptl2oyvNg8ikqQi9qZS5X0M6HFaGA8Is5LKX1CgS7Y0LJALJAitNnfr1vUFhct7dE/MLdKKSGWqr5HpG6EUlOVui/YpS1BY6DIvxijnYeuja9RaJjEFTA+jvueDW6ra9wIuxSL7C8otU6O5TyXl3C5kzq7od7bgOZsKEbO5iGmViIChv3w5kz4CtWJYIUwtBPtYhE9YEuwaTTt03vNc+iyvPH7HPlImWdm079hz2NrUa/YPKALPc3dbr9klWgbk9hJeD53LasKzn6uxX7J0VwH4ftXrmN2ga8DRWs7r4ZVlsp3/HAYNGbx/4GEh8uHVubGPmU8xJwolWJrAQdQPDjy8PrP2ySAuTK+CAEFRyUYHNfTw2jRO9wlTothSqoWOOwYeS2YzuGmxC+Mwk7WrZNuAvYnBbp57UcPaQd4VCiBA8jglkxUp4ne273iLJBIMuaSTnLMbUr/TJ3jgh4JT1BjZZTwO2JJLNbwy2b1pG+ziZGywy1N7W7jwv8AXdncXRQgAq0vg3xmlY5BcJnJFcku+IlN3E5v9Zp5O2KVp2pbRrQeMfIQAnYza9zOO4GjvwHVpWobRY+XD519uf/nw08d3+pD3dMyy2skkNgz911LVWL8/GdnscmI0Sh1kOqXgOAzjI54LhiwlRETF8UAL21rY2i3cNWF0eLa4al1dll269nP9/rreGofoOjO+TV3nB+k6O0gXkE+/su9Cl2nuUPZ96DKbhjSoI82a1yn7Ng/pxqQn3bTIVgy7CV1dzcF8wQh1l+Nv9zzPuMwFe9Kj+A5OGXtG8aM2tTpwHKdZMq2n8fDaMibsZmzsEAEkafi574uQ1gYWC9w637chAFumolJuGb3aHfYZExp3bFp4MW4iwZYFGgoIs63DdGl3tJRbKymUXpF6xMOSuduhlAPXDa8nhrHHa0pQhpTNZpjaZTCfX1zA130rvrvYyBV7pxXi0aiKli7yoYVp6aIg9Irf3oWlWGWs2YNsyrEg9bIosc+he56o5Z5nQZHRbzOZYVdqzDYQcVCBRB0tCgOOswchbdcjwHGgAUvpzuGSQmPPGokgqlDCfpAztkoKoFSsaKl+3A+eXmoFeso38Mk+WG4bwdkAIZSz6kLPgK10nBlOW5cqVap9pjNIE8HYCT8JbhAuwh2Vwt8BliaWxGfbONDN7Voila8MfDnRJu0xttfkPu+hCnPxq6i6PpuwV+Q5VyJFrde5Nl4j24vwHfSRvnrhlkdNsh5oXG7VN6ibUPqIOafbTsBXa/qpMBye6aXI+n96QfqkC4/s4LNqPpVGm6sThl3QvjaV77nWUYu0LG3PW1J+kqu2FD1Dq67JXXOFOX+P/STS8nTTCQLqVzTvMm6mTcXL6PJO6mii9A3WPap61ZyzW7NPk/UfqTL+e6da905n5yXT6b9Rbuaas+sGuIECjm6du7/9Rj5FwBYYQ1imaa6Z7is0opnuX7Loi9cIY+q5/e5wXQmQyfrdMQvonCam3/B2x3Z1bpb0FkRvMkhamP714Nx5Z3WeRFayV6wBK98Bkm+XdOO62IJGTr3+TKO6Dgp6UaES/8vrrTA+5zLe2Dp57n8vvB7eGgcdulyg39Gxu4nHSClUuc9oDEeYPRwXUey4jx9+pmusEDEK1Dxlnyqe0WhESKGZhhfI+tWH6uXGRPdSf+ScZqlulnwlY75SZveScw7EElfn5kEbIhNoB/kgtnfdxQlCOd6/6ZwaMZR1Uk1azqaS0Bj9jYnRG2oNyMFRQrk3VFiwKjjuADlBfHqrQH2ZITcYN7qH/0qXj4sTm92dWBgL9KO/o+8J65UmCaTWHjXeiAcRYxmT2n23jdahdo2fN/BWO0qv3pnMNUSvfCeUvm+rOwfvcOc1G3t83NjHjf3n3NjWn3FjH2HKEaZswZTx/xOmkIx1hDZHaPP1oc3kCG2+KWhjfT1oc0RJvxtKGh+0Oydw+g8EGA6DhuM/1qGP0PAIDbeg4eR7g4YkMz7CySOc/LpwsvpeavtLgg1x8yfh8mu1HSZNaXFkAjvWFyM/f3AHSEI5Zi6qumwAazl8pkIt6auHdGi/yDId4rqEKQE60aA01DdsuRDxptM1mIiKUMk0bMZFlo+G5Vcc9Tcc8T/gja5yXUWk9PaH+McBYqK+Jf/4jBqwdu9fGWOHTg==

