;This Gcode has been generated specifically for the LulzBot Mini
;Basic settings: Layer height: 0.38 Walls: 1 Fill: 20
;Filament Diameter: 2.85
;Nozzle Size: 0.5
G21                          ; metric values
G90                          ; absolute positioning
M82                          ; set extruder to absolute mode
M107                         ; start with the fan off
G92 E0                       ; set extruder position to 0
M140 S60; get bed heating up
G28                          ; home all
M109 S140                    ; set to cleaning temp and wait
G1 Z150 E-30 F75             ; suck up XXmm of filament
M109 S140                    ; heat up rest of way
G1 X45 Y174 F11520           ; move behind scraper
G1 Z0  F1200                 ; CRITICAL: set Z to height of top of scraper
G1 X45 Y174 Z-.5 F4000       ; wiping ; plunge into wipe pad
G1 X55 Y172 Z-.5 F4000       ; wiping
G1 X45 Y174 Z0 F4000         ; wiping
G1 X55 Y172 F4000            ; wiping
G1 X45 Y174 F4000            ; wiping
G1 X55 Y172 F4000            ; wiping
G1 X45 Y174 F4000            ; wiping
G1 X55 Y172 F4000            ; wiping
G1 X60 Y174 F4000            ; wiping
G1 X80 Y172 F4000            ; wiping
G1 X60 Y174 F4000            ; wiping
G1 X80 Y172 F4000            ; wiping
G1 X60 Y174 F4000            ; wiping
G1 X90 Y172 F4000            ; wiping
G1 X80 Y174 F4000            ; wiping
G1 X100 Y172 F4000           ; wiping
G1 X80 Y174 F4000            ; wiping
G1 X100 Y172 F4000           ; wiping
G1 X80 Y174 F4000            ; wiping
G1 X100 Y172 F4000           ; wiping
G1 X110 Y174 F4000           ; wiping
G1 X100 Y172 F4000           ; wiping
G1 X110 Y174 F4000           ; wiping
G1 X100 Y172 F4000           ; wiping
G1 X110 Y174 F4000           ; wiping
G1 X115 Y172 Z-0.5 F1000     ; wipe slower and bury noz in cleanish area
G1 Z10                       ; raise z
G28 X0 Y0                    ; home x and y
M109 S140                    ; set to probing temp
M204 S300                    ; Set probing acceleration
G29                          ; Probe
M204 S2000                   ; Restore standard acceleration
G1 X5 Y15 Z10 F5000          ; get out the way
G4 S1                        ; pause
M400                         ; clear buffer
M109 S205    ; set extruder temp and wait
G4 S15                       ; wait for bed to temp up
G1 Z2 E0 F75                 ; extrude filament back into nozzle
M140 S60; get bed temping up during first layer

;Layer count: 47
;LAYER:0
M107
G0 F10500 X134.397 Y37.873 Z0.425
;TYPE:SKIRT
G1 F900 X150.970 Y37.873 E0.69007
G1 X150.970 Y54.446 E1.38013
G1 X134.397 Y54.446 E2.07020
G1 X134.397 Y37.873 E2.76026
G0 F10500 X135.022 Y38.498
G1 F900 X150.345 Y38.498 E3.39828
G1 X150.345 Y53.821 E4.03630
G1 X135.022 Y53.821 E4.67432
G1 X135.022 Y38.498 E5.31234
G0 F10500 X136.406 Y95.871
G1 F900 X152.979 Y95.871 E6.00240
G1 X152.979 Y112.444 E6.69247
G1 X136.406 Y112.444 E7.38253
G1 X136.406 Y95.871 E8.07260
G0 F10500 X137.031 Y96.496
G1 F900 X152.354 Y96.496 E8.71062
G1 X152.354 Y111.819 E9.34864
G1 X137.031 Y111.819 E9.98665
G1 X137.031 Y96.496 E10.62467
G1 F600 E9.12467
G1 Z0.525
G0 F10500 X139.271 Y49.572
;TYPE:WALL-INNER
G1 Z0.425
G1 F600 E10.62467
G1 F900 X139.271 Y42.747 E10.90885
G1 X146.096 Y42.747 E11.19303
G1 X146.096 Y49.572 E11.47721
G1 X139.271 Y49.572 E11.76139
G0 F10500 X138.646 Y50.197
;TYPE:WALL-OUTER
G1 F900 X138.646 Y42.122 E12.09762
G1 X146.721 Y42.122 E12.43384
G1 X146.721 Y50.197 E12.77007
G1 X138.646 Y50.197 E13.10629
G0 F10500 X138.969 Y49.784
G0 X139.950 Y49.353
;TYPE:SKIN
G1 F900 X139.488 Y48.891 E13.13350
G0 F10500 X139.488 Y48.007
G1 F900 X140.834 Y49.353 E13.21276
G0 F10500 X141.718 Y49.353
G1 F900 X139.488 Y47.123 E13.34407
G0 F10500 X139.488 Y46.239
G1 F900 X142.602 Y49.353 E13.52744
G0 F10500 X143.486 Y49.353
G1 F900 X139.488 Y45.355 E13.76286
G0 F10500 X139.488 Y44.472
G1 F900 X144.369 Y49.353 E14.05028
G0 F10500 X145.253 Y49.353
G1 F900 X139.488 Y43.588 E14.38975
G0 F10500 X139.750 Y42.965
G1 F900 X145.876 Y49.092 E14.75051
G0 F10500 X145.876 Y48.208
G1 F900 X140.634 Y42.965 E15.05921
G0 F10500 X141.518 Y42.965
G1 F900 X145.876 Y47.324 E15.31586
G0 F10500 X145.876 Y46.440
G1 F900 X142.402 Y42.965 E15.52046
G0 F10500 X143.285 Y42.965
G1 F900 X145.876 Y45.556 E15.67303
G0 F10500 X145.876 Y44.672
G1 F900 X144.169 Y42.965 E15.77355
G0 F10500 X145.053 Y42.965
G1 F900 X145.876 Y43.789 E15.82204
G1 F600 E14.32204
G1 Z0.525
G0 F10500 X148.105 Y100.745
;TYPE:WALL-INNER
G1 Z0.425
G1 F600 E15.82204
G1 F900 X148.105 Y107.570 E16.10622
G1 X141.280 Y107.570 E16.39040
G1 X141.280 Y100.745 E16.67458
G1 X148.105 Y100.745 E16.95876
G0 F10500 X148.730 Y100.120
;TYPE:WALL-OUTER
G1 F900 X148.730 Y108.195 E17.29498
G1 X140.655 Y108.195 E17.63121
G1 X140.655 Y100.120 E17.96743
G1 X148.730 Y100.120 E18.30366
G0 F10500 X148.317 Y100.443
G0 X147.885 Y101.481
;TYPE:SKIN
G1 F900 X147.367 Y100.964 E18.33413
G0 F10500 X146.483 Y100.964
G1 F900 X147.885 Y102.365 E18.41666
G0 F10500 X147.885 Y103.249
G1 F900 X145.599 Y100.964 E18.55124
G0 F10500 X144.715 Y100.964
G1 F900 X147.885 Y104.133 E18.73788
G0 F10500 X147.885 Y105.017
G1 F900 X143.831 Y100.964 E18.97657
G0 F10500 X142.947 Y100.964
G1 F900 X147.885 Y105.901 E19.26731
G0 F10500 X147.885 Y106.785
G1 F900 X142.064 Y100.964 E19.61008
G0 F10500 X141.498 Y101.282
G1 F900 X147.566 Y107.350 E19.96740
G0 F10500 X146.682 Y107.350
G1 F900 X141.498 Y102.166 E20.27266
G0 F10500 X141.498 Y103.050
G1 F900 X145.799 Y107.350 E20.52589
G0 F10500 X144.915 Y107.350
G1 F900 X141.498 Y103.934 E20.72707
G0 F10500 X141.498 Y104.817
G1 F900 X144.031 Y107.350 E20.87623
G0 F10500 X143.147 Y107.350
G1 F900 X141.498 Y105.701 E20.97333
G0 F10500 X141.498 Y106.585
G1 F900 X142.263 Y107.350 E21.01838
;LAYER:1
M106 S219
G1 F600 E19.51838
G1 Z0.525
G0 F10500 X139.084 Y49.759 Z0.805
;TYPE:WALL-INNER
G1 Z0.805
G1 F600 E21.01838
G1 F840 X139.084 Y42.560 E21.23279
G1 X146.283 Y42.560 E21.44720
G1 X146.283 Y49.759 E21.66161
G1 X139.084 Y49.759 E21.87602
G0 F10500 X138.584 Y50.259
;TYPE:WALL-OUTER
G1 F780 X138.584 Y42.060 E22.12021
G1 X146.783 Y42.060 E22.36441
G1 X146.783 Y50.259 E22.60860
G1 X138.584 Y50.259 E22.85279
G0 F10500 X139.566 Y49.584
;TYPE:SKIN
G1 F1020 X146.107 Y43.043 E23.12830
G0 F10500 X145.708 Y42.735
G1 F1020 X139.258 Y49.185 E23.39997
G0 F10500 X139.258 Y48.478
G1 F1020 X145.001 Y42.735 E23.64187
G0 F10500 X144.294 Y42.735
G1 F1020 X139.258 Y47.771 E23.85399
G0 F10500 X139.258 Y47.064
G1 F1020 X143.587 Y42.735 E24.03632
G0 F10500 X142.880 Y42.735
G1 F1020 X139.258 Y46.357 E24.18888
G0 F10500 X139.258 Y45.650
G1 F1020 X142.173 Y42.735 E24.31166
G0 F10500 X141.465 Y42.735
G1 F1020 X139.258 Y44.942 E24.40462
G0 F10500 X139.258 Y44.235
G1 F1020 X140.758 Y42.735 E24.46780
G0 F10500 X140.051 Y42.735
G1 F1020 X139.258 Y43.528 E24.50120
G0 F10500 X139.258 Y42.821
G1 F1020 X139.344 Y42.735 E24.50483
G0 F10500 X146.107 Y43.750
G1 F1020 X140.273 Y49.584 E24.75055
G0 F10500 X140.980 Y49.584
G1 F1020 X146.107 Y44.457 E24.96650
G0 F10500 X146.107 Y45.165
G1 F1020 X141.687 Y49.584 E25.15265
G0 F10500 X142.395 Y49.584
G1 F1020 X146.107 Y45.872 E25.30900
G0 F10500 X146.107 Y46.579
G1 F1020 X143.102 Y49.584 E25.43557
G0 F10500 X143.809 Y49.584
G1 F1020 X146.107 Y47.286 E25.53237
G0 F10500 X146.107 Y47.993
G1 F1020 X144.516 Y49.584 E25.59938
G0 F10500 X145.223 Y49.584
G1 F1020 X146.107 Y48.700 E25.63661
G0 F10500 X146.107 Y49.407
G1 F1020 X145.930 Y49.584 E25.64407
G1 F600 E24.14407
G1 Z0.905
G0 F10500 X148.292 Y100.558
;TYPE:WALL-INNER
G1 Z0.805
G1 F600 E25.64407
G1 F840 X148.292 Y107.757 E25.85848
G1 X141.093 Y107.757 E26.07289
G1 X141.093 Y100.558 E26.28730
G1 X148.292 Y100.558 E26.50171
G0 F10500 X148.792 Y100.058
;TYPE:WALL-OUTER
G1 F780 X148.792 Y108.257 E26.74590
G1 X140.593 Y108.257 E26.99010
G1 X140.593 Y100.058 E27.23429
G1 X148.792 Y100.058 E27.47849
G0 F10500 X147.815 Y100.733
;TYPE:SKIN
G1 F1020 X141.267 Y107.280 E27.75427
G0 F10500 X141.673 Y107.582
G1 F1020 X148.116 Y101.138 E28.02567
G0 F10500 X148.116 Y101.846
G1 F1020 X142.380 Y107.582 E28.26727
G0 F10500 X143.087 Y107.582
G1 F1020 X148.116 Y102.553 E28.47909
G0 F10500 X148.116 Y103.260
G1 F1020 X143.794 Y107.582 E28.66113
G0 F10500 X144.501 Y107.582
G1 F1020 X148.116 Y103.967 E28.81340
G0 F10500 X148.116 Y104.674
G1 F1020 X145.208 Y107.582 E28.93588
G0 F10500 X145.915 Y107.582
G1 F1020 X148.116 Y105.381 E29.02859
G0 F10500 X148.116 Y106.088
G1 F1020 X146.622 Y107.582 E29.09152
G0 F10500 X147.329 Y107.582
G1 F1020 X148.116 Y106.795 E29.12466
G0 F10500 X148.116 Y107.502
G1 F1020 X148.037 Y107.582 E29.12801
G0 F10500 X141.267 Y106.573
G1 F1020 X147.107 Y100.733 E29.37399
G0 F10500 X146.400 Y100.733
G1 F1020 X141.267 Y105.866 E29.59020
G0 F10500 X141.267 Y105.159
G1 F1020 X145.693 Y100.733 E29.77662
G0 F10500 X144.986 Y100.733
G1 F1020 X141.267 Y104.452 E29.93326
G0 F10500 X141.267 Y103.745
G1 F1020 X144.279 Y100.733 E30.06013
G0 F10500 X143.572 Y100.733
G1 F1020 X141.267 Y103.038 E30.15722
G0 F10500 X141.267 Y102.331
G1 F1020 X142.865 Y100.733 E30.22453
G0 F10500 X142.158 Y100.733
G1 F1020 X141.267 Y101.623 E30.26203
G0 F10500 X141.267 Y100.916
G1 F1020 X141.451 Y100.733 E30.26976
;LAYER:2
M106 S244
G1 F600 E28.76976
G1 Z0.905
G0 F10500 X139.084 Y49.759 Z1.185
;TYPE:WALL-INNER
G1 Z1.185
G1 F600 E30.26976
G1 F780 X139.084 Y42.560 E30.48417
G1 X146.283 Y42.560 E30.69858
G1 X146.283 Y49.759 E30.91299
G1 X139.084 Y49.759 E31.12740
G0 F10500 X138.584 Y50.259
;TYPE:WALL-OUTER
G1 F720 X138.584 Y42.060 E31.37160
G1 X146.783 Y42.060 E31.61579
G1 X146.783 Y50.259 E31.85999
G1 X138.584 Y50.259 E32.10418
G0 F10500 X139.740 Y49.584
;TYPE:SKIN
G1 F1080 X139.258 Y49.102 E32.12448
G0 F10500 X139.258 Y48.395
G1 F1080 X140.447 Y49.584 E32.17456
G0 F10500 X141.154 Y49.584
G1 F1080 X139.258 Y47.687 E32.25444
G0 F10500 X139.258 Y46.980
G1 F1080 X141.861 Y49.584 E32.36410
G0 F10500 X142.568 Y49.584
G1 F1080 X139.258 Y46.273 E32.50354
G0 F10500 X139.258 Y45.566
G1 F1080 X143.276 Y49.584 E32.67278
G0 F10500 X143.983 Y49.584
G1 F1080 X139.258 Y44.859 E32.87180
G0 F10500 X139.258 Y44.152
G1 F1080 X144.690 Y49.584 E33.10059
G0 F10500 X145.397 Y49.584
G1 F1080 X139.258 Y43.445 E33.35917
G0 F10500 X139.258 Y42.738
G1 F1080 X146.104 Y49.584 E33.64752
G0 F10500 X146.107 Y48.880
G1 F1080 X139.962 Y42.735 E33.90635
G0 F10500 X140.669 Y42.735
G1 F1080 X146.107 Y48.173 E34.13540
G0 F10500 X146.107 Y47.465
G1 F1080 X141.376 Y42.735 E34.33465
G0 F10500 X142.083 Y42.735
G1 F1080 X146.107 Y46.758 E34.50412
G0 F10500 X146.107 Y46.051
G1 F1080 X142.791 Y42.735 E34.64379
G0 F10500 X143.498 Y42.735
G1 F1080 X146.107 Y45.344 E34.75368
G0 F10500 X146.107 Y44.637
G1 F1080 X144.205 Y42.735 E34.83379
G0 F10500 X144.912 Y42.735
G1 F1080 X146.107 Y43.930 E34.88413
G0 F10500 X146.107 Y43.223
G1 F1080 X145.619 Y42.735 E34.90468
G1 F600 E33.40468
G1 Z1.285
G0 F10500 X148.292 Y100.558
;TYPE:WALL-INNER
G1 Z1.185
G1 F600 E34.90468
G1 F780 X148.292 Y107.757 E35.11909
G1 X141.093 Y107.757 E35.33350
G1 X141.093 Y100.558 E35.54791
G1 X148.292 Y100.558 E35.76232
G0 F10500 X148.792 Y100.058
;TYPE:WALL-OUTER
G1 F720 X148.792 Y108.257 E36.00652
G1 X140.593 Y108.257 E36.25071
G1 X140.593 Y100.058 E36.49490
G1 X148.792 Y100.058 E36.73910
G0 F10500 X148.116 Y101.093
;TYPE:SKIN
G1 F1080 X147.755 Y100.733 E36.75428
G0 F10500 X147.048 Y100.733
G1 F1080 X148.116 Y101.800 E36.79925
G0 F10500 X148.116 Y102.507
G1 F1080 X146.341 Y100.733 E36.87399
G0 F10500 X145.634 Y100.733
G1 F1080 X148.116 Y103.214 E36.97851
G0 F10500 X148.116 Y103.922
G1 F1080 X144.927 Y100.733 E37.11283
G0 F10500 X144.220 Y100.733
G1 F1080 X148.116 Y104.629 E37.27693
G0 F10500 X148.116 Y105.336
G1 F1080 X143.512 Y100.733 E37.47083
G0 F10500 X142.805 Y100.733
G1 F1080 X148.116 Y106.043 E37.69451
G0 F10500 X148.116 Y106.750
G1 F1080 X142.098 Y100.733 E37.94796
G0 F10500 X141.391 Y100.733
G1 F1080 X148.116 Y107.457 E38.23120
G0 F10500 X147.533 Y107.582
G1 F1080 X141.267 Y101.315 E38.49515
G0 F10500 X141.267 Y102.022
G1 F1080 X146.826 Y107.582 E38.72931
G0 F10500 X146.119 Y107.582
G1 F1080 X141.267 Y102.729 E38.93370
G0 F10500 X141.267 Y103.436
G1 F1080 X145.412 Y107.582 E39.10831
G0 F10500 X144.705 Y107.582
G1 F1080 X141.267 Y104.144 E39.25312
G0 F10500 X141.267 Y104.851
G1 F1080 X143.998 Y107.582 E39.36815
G0 F10500 X143.290 Y107.582
G1 F1080 X141.267 Y105.558 E39.45338
G0 F10500 X141.267 Y106.265
G1 F1080 X142.583 Y107.582 E39.50883
G0 F10500 X141.876 Y107.582
G1 F1080 X141.267 Y106.972 E39.53450
;LAYER:3
M106 S255
G1 F600 E38.03450
G1 Z1.285
G0 F10500 X139.084 Y49.759 Z1.565
;TYPE:WALL-INNER
G1 Z1.565
G1 F600 E39.53450
G1 F660 X139.084 Y42.560 E39.74891
G1 X146.283 Y42.560 E39.96332
G1 X146.283 Y49.759 E40.17773
G1 X139.084 Y49.759 E40.39214
G0 F10500 X138.584 Y50.259
;TYPE:WALL-OUTER
G1 F600 X138.584 Y42.060 E40.63634
G1 X146.783 Y42.060 E40.88053
G1 X146.783 Y50.259 E41.12473
G1 X138.584 Y50.259 E41.36892
G0 F10500 X138.844 Y49.909
G0 X139.258 Y48.124
;TYPE:FILL
G1 F780 X144.647 Y42.735 E41.59590
G0 F10500 X145.265 Y42.735
G1 F780 X146.107 Y43.576 E41.63135
G0 F10500 X146.107 Y48.347
G1 F780 X144.869 Y49.584 E41.68347
G0 F10500 X145.043 Y49.584
G1 F780 X139.258 Y43.798 E41.92716
G1 F600 E40.42716
G1 Z1.665
G0 F10500 X141.093 Y100.558
;TYPE:WALL-INNER
G1 Z1.565
G1 F600 E41.92716
G1 F660 X148.292 Y100.558 E42.14157
G1 X148.292 Y107.757 E42.35598
G1 X141.093 Y107.757 E42.57039
G1 X141.093 Y100.558 E42.78480
G0 F10500 X140.593 Y100.058
;TYPE:WALL-OUTER
G1 F600 X148.792 Y100.058 E43.02899
G1 X148.792 Y108.257 E43.27319
G1 X140.593 Y108.257 E43.51738
G1 X140.593 Y100.058 E43.76158
G0 F10500 X140.943 Y100.318
G0 X141.267 Y102.376
;TYPE:FILL
G1 F780 X146.472 Y107.582 E43.98083
G0 F10500 X143.440 Y107.582
G1 F780 X148.116 Y102.906 E44.17778
G0 F10500 X148.116 Y102.154
G1 F780 X146.694 Y100.733 E44.23766
G0 F10500 X143.218 Y100.733
G1 F780 X141.267 Y102.684 E44.31983
;LAYER:4
G1 F600 E42.81983
G1 Z1.665
G0 F10500 X139.084 Y49.759 Z1.945
;TYPE:WALL-INNER
G1 Z1.945
G1 F600 E44.31983
G1 F660 X139.084 Y42.560 E44.53425
G1 X146.283 Y42.560 E44.74866
G1 X146.283 Y49.759 E44.96307
G1 X139.084 Y49.759 E45.17748
G0 F10500 X138.584 Y50.259
;TYPE:WALL-OUTER
G1 F540 X138.584 Y42.060 E45.42167
G1 X146.783 Y42.060 E45.66586
G1 X146.783 Y50.259 E45.91006
G1 X138.584 Y50.259 E46.15425
G0 F10500 X138.844 Y49.909
G0 X139.258 Y48.124
;TYPE:FILL
G1 F780 X144.647 Y42.735 E46.38124
G0 F10500 X145.265 Y42.735
G1 F780 X146.107 Y43.576 E46.41668
G0 F10500 X146.107 Y48.347
G1 F780 X144.869 Y49.584 E46.46881
G0 F10500 X145.043 Y49.584
G1 F780 X139.258 Y43.798 E46.71249
G1 F600 E45.21249
G1 Z2.045
G0 F10500 X141.093 Y100.558
;TYPE:WALL-INNER
G1 Z1.945
G1 F600 E46.71249
G1 F660 X148.292 Y100.558 E46.92690
G1 X148.292 Y107.757 E47.14131
G1 X141.093 Y107.757 E47.35572
G1 X141.093 Y100.558 E47.57013
G0 F10500 X140.593 Y100.058
;TYPE:WALL-OUTER
G1 F540 X148.792 Y100.058 E47.81433
G1 X148.792 Y108.257 E48.05852
G1 X140.593 Y108.257 E48.30272
G1 X140.593 Y100.058 E48.54691
G0 F10500 X140.943 Y100.318
G0 X141.267 Y102.376
;TYPE:FILL
G1 F780 X146.472 Y107.582 E48.76616
G0 F10500 X143.440 Y107.582
G1 F780 X148.116 Y102.906 E48.96312
G0 F10500 X148.116 Y102.154
G1 F780 X146.694 Y100.733 E49.02299
G0 F10500 X143.218 Y100.733
G1 F780 X141.267 Y102.684 E49.10517
;LAYER:5
G1 F600 E47.60517
G1 Z2.045
G0 F10500 X139.084 Y49.759 Z2.325
;TYPE:WALL-INNER
G1 Z2.325
G1 F600 E49.10517
G1 F660 X139.084 Y42.560 E49.31958
G1 X146.283 Y42.560 E49.53399
G1 X146.283 Y49.759 E49.74840
G1 X139.084 Y49.759 E49.96281
G0 F10500 X138.584 Y50.259
;TYPE:WALL-OUTER
G1 F540 X138.584 Y42.060 E50.20700
G1 X146.783 Y42.060 E50.45120
G1 X146.783 Y50.259 E50.69539
G1 X138.584 Y50.259 E50.93959
G0 F10500 X138.844 Y49.909
G0 X139.258 Y48.124
;TYPE:FILL
G1 F780 X144.647 Y42.735 E51.16657
G0 F10500 X145.265 Y42.735
G1 F780 X146.107 Y43.576 E51.20202
G0 F10500 X146.107 Y48.347
G1 F780 X144.869 Y49.584 E51.25414
G0 F10500 X145.043 Y49.584
G1 F780 X139.258 Y43.798 E51.49782
G1 F600 E49.99782
G1 Z2.425
G0 F10500 X141.093 Y100.558
;TYPE:WALL-INNER
G1 Z2.325
G1 F600 E51.49782
G1 F660 X148.292 Y100.558 E51.71224
G1 X148.292 Y107.757 E51.92665
G1 X141.093 Y107.757 E52.14106
G1 X141.093 Y100.558 E52.35547
G0 F10500 X140.593 Y100.058
;TYPE:WALL-OUTER
G1 F540 X148.792 Y100.058 E52.59966
G1 X148.792 Y108.257 E52.84385
G1 X140.593 Y108.257 E53.08805
G1 X140.593 Y100.058 E53.33224
G0 F10500 X140.943 Y100.318
G0 X141.267 Y102.376
;TYPE:FILL
G1 F780 X146.472 Y107.582 E53.55150
G0 F10500 X143.440 Y107.582
G1 F780 X148.116 Y102.906 E53.74845
G0 F10500 X148.116 Y102.154
G1 F780 X146.694 Y100.733 E53.80833
G0 F10500 X143.218 Y100.733
G1 F780 X141.267 Y102.684 E53.89050
;LAYER:6
G1 F600 E52.39050
G1 Z2.425
G0 F10500 X139.084 Y49.759 Z2.705
;TYPE:WALL-INNER
G1 Z2.705
G1 F600 E53.89050
G1 F660 X139.084 Y42.560 E54.10491
G1 X146.283 Y42.560 E54.31932
G1 X146.283 Y49.759 E54.53373
G1 X139.084 Y49.759 E54.74814
G0 F10500 X138.584 Y50.259
;TYPE:WALL-OUTER
G1 F540 X138.584 Y42.060 E54.99234
G1 X146.783 Y42.060 E55.23653
G1 X146.783 Y50.259 E55.48073
G1 X138.584 Y50.259 E55.72492
G0 F10500 X138.844 Y49.909
G0 X139.258 Y48.124
;TYPE:FILL
G1 F780 X144.647 Y42.735 E55.95190
G0 F10500 X145.265 Y42.735
G1 F780 X146.107 Y43.576 E55.98735
G0 F10500 X146.107 Y48.347
G1 F780 X144.869 Y49.584 E56.03947
G0 F10500 X145.043 Y49.584
G1 F780 X139.258 Y43.798 E56.28316
G1 F600 E54.78316
G1 Z2.805
G0 F10500 X141.093 Y100.558
;TYPE:WALL-INNER
G1 Z2.705
G1 F600 E56.28316
G1 F660 X148.292 Y100.558 E56.49757
G1 X148.292 Y107.757 E56.71198
G1 X141.093 Y107.757 E56.92639
G1 X141.093 Y100.558 E57.14080
G0 F10500 X140.593 Y100.058
;TYPE:WALL-OUTER
G1 F540 X148.792 Y100.058 E57.38499
G1 X148.792 Y108.257 E57.62919
G1 X140.593 Y108.257 E57.87338
G1 X140.593 Y100.058 E58.11758
G0 F10500 X140.943 Y100.318
G0 X141.267 Y102.376
;TYPE:FILL
G1 F780 X146.472 Y107.582 E58.33683
G0 F10500 X143.440 Y107.582
G1 F780 X148.116 Y102.906 E58.53379
G0 F10500 X148.116 Y102.154
G1 F780 X146.694 Y100.733 E58.59366
G0 F10500 X143.218 Y100.733
G1 F780 X141.267 Y102.684 E58.67584
;LAYER:7
G1 F600 E57.17584
G1 Z2.805
G0 F10500 X139.084 Y49.759 Z3.085
;TYPE:WALL-INNER
G1 Z3.085
G1 F600 E58.67584
G1 F780 X139.084 Y42.560 E58.89025
G1 X146.283 Y42.560 E59.10466
G1 X146.283 Y49.759 E59.31907
G1 X139.084 Y49.759 E59.53348
G0 F10500 X138.584 Y50.259
;TYPE:WALL-OUTER
G1 F660 X138.584 Y42.060 E59.77767
G1 X146.783 Y42.060 E60.02187
G1 X146.783 Y50.259 E60.26606
G1 X138.584 Y50.259 E60.51025
G0 F10500 X138.844 Y49.909
G0 X142.807 Y47.347
;TYPE:FILL
G1 F900 X141.494 Y46.034 E60.56556
G0 F10500 X141.494 Y45.888
G1 F900 X142.411 Y44.971 E60.60418
G0 F10500 X142.822 Y45.621
;TYPE:SKIN
G1 F1140 X145.708 Y42.735 E60.72574
G0 F10500 X146.107 Y43.043
G1 F1140 X143.220 Y45.930 E60.84734
G0 F10500 X143.220 Y46.637
G1 F1140 X146.107 Y43.750 E60.96894
G0 F10500 X146.107 Y44.457
G1 F1140 X140.980 Y49.584 E61.18489
G0 F10500 X141.687 Y49.584
G1 F1140 X146.107 Y45.165 E61.37104
G0 F10500 X146.107 Y45.872
G1 F1140 X142.395 Y49.584 E61.52739
G0 F10500 X143.102 Y49.584
G1 F1140 X146.107 Y46.579 E61.65396
G0 F10500 X146.107 Y47.286
G1 F1140 X143.809 Y49.584 E61.75075
G0 F10500 X144.516 Y49.584
G1 F1140 X146.107 Y47.993 E61.81777
G0 F10500 X146.107 Y48.700
G1 F1140 X145.223 Y49.584 E61.85500
G0 F10500 X145.930 Y49.584
G1 F1140 X146.107 Y49.407 E61.86245
G0 F10500 X143.160 Y46.698
G1 F1140 X140.273 Y49.584 E61.98403
G0 F10500 X139.566 Y49.584
G1 F1140 X142.453 Y46.698 E62.10561
G0 F10500 X142.144 Y46.299
G1 F1140 X139.258 Y49.185 E62.22717
G0 F10500 X139.258 Y48.478
G1 F1140 X145.001 Y42.735 E62.46907
G0 F10500 X144.294 Y42.735
G1 F1140 X139.258 Y47.771 E62.68118
G0 F10500 X139.258 Y47.064
G1 F1140 X143.587 Y42.735 E62.86352
G0 F10500 X142.880 Y42.735
G1 F1140 X139.258 Y46.357 E63.01608
G0 F10500 X139.258 Y45.650
G1 F1140 X142.173 Y42.735 E63.13886
G0 F10500 X141.465 Y42.735
G1 F1140 X139.258 Y44.942 E63.23182
G0 F10500 X139.258 Y44.235
G1 F1140 X140.758 Y42.735 E63.29500
G0 F10500 X140.051 Y42.735
G1 F1140 X139.258 Y43.528 E63.32840
G0 F10500 X139.258 Y42.821
G1 F1140 X139.344 Y42.735 E63.33202
G1 F600 E61.83202
G1 Z3.185
G0 F10500 X141.093 Y100.558
;TYPE:WALL-INNER
G1 Z3.085
G1 F600 E63.33202
G1 F780 X148.292 Y100.558 E63.54643
G1 X148.292 Y107.757 E63.76084
G1 X141.093 Y107.757 E63.97526
G1 X141.093 Y100.558 E64.18967
G0 F10500 X140.593 Y100.058
;TYPE:WALL-OUTER
G1 F660 X148.792 Y100.058 E64.43386
G1 X148.792 Y108.257 E64.67805
G1 X140.593 Y108.257 E64.92225
G1 X140.593 Y100.058 E65.16644
G0 F10500 X140.943 Y100.318
G0 X143.503 Y104.612
;TYPE:FILL
G1 F900 X144.237 Y105.346 E65.19736
G0 F10500 X145.676 Y105.346
G1 F900 X145.880 Y105.142 E65.20595
G0 F10500 X145.230 Y104.024
;TYPE:SKIN
G1 F1140 X148.116 Y101.138 E65.32751
G0 F10500 X147.815 Y100.733
G1 F1140 X144.929 Y103.618 E65.44905
G0 F10500 X144.222 Y103.618
G1 F1140 X147.107 Y100.733 E65.57056
G0 F10500 X146.400 Y100.733
G1 F1140 X141.267 Y105.866 E65.78677
G0 F10500 X141.267 Y106.573
G1 F1140 X144.152 Y103.688 E65.90828
G0 F10500 X144.152 Y104.395
G1 F1140 X141.267 Y107.280 E66.02980
G0 F10500 X141.673 Y107.582
G1 F1140 X144.559 Y104.695 E66.15138
G0 F10500 X144.501 Y107.582
G1 F1140 X148.116 Y103.967 E66.30364
G0 F10500 X148.116 Y104.674
G1 F1140 X145.208 Y107.582 E66.42613
G0 F10500 X145.915 Y107.582
G1 F1140 X148.116 Y105.381 E66.51883
G0 F10500 X148.116 Y106.088
G1 F1140 X146.622 Y107.582 E66.58176
G0 F10500 X147.329 Y107.582
G1 F1140 X148.116 Y106.795 E66.61491
G0 F10500 X148.116 Y107.502
G1 F1140 X148.037 Y107.582 E66.61826
G0 F10500 X143.794 Y107.582
G1 F1140 X148.116 Y103.260 E66.80030
G0 F10500 X148.116 Y102.553
G1 F1140 X143.087 Y107.582 E67.01212
G0 F10500 X142.380 Y107.582
G1 F1140 X148.116 Y101.846 E67.25372
G0 F10500 X145.693 Y100.733
G1 F1140 X141.267 Y105.159 E67.44015
G0 F10500 X141.267 Y104.452
G1 F1140 X144.986 Y100.733 E67.59679
G0 F10500 X144.279 Y100.733
G1 F1140 X141.267 Y103.745 E67.72366
G0 F10500 X141.267 Y103.038
G1 F1140 X143.572 Y100.733 E67.82074
G0 F10500 X142.865 Y100.733
G1 F1140 X141.267 Y102.331 E67.88805
G0 F10500 X141.267 Y101.623
G1 F1140 X142.158 Y100.733 E67.92556
G0 F10500 X141.451 Y100.733
G1 F1140 X141.267 Y100.916 E67.93329
;LAYER:8
G1 F600 E66.43329
G1 Z3.185
G0 F10500 X139.084 Y49.759 Z3.465
;TYPE:WALL-INNER
G1 Z3.465
G1 F600 E67.93329
G1 F780 X139.084 Y42.560 E68.14770
G1 X146.283 Y42.560 E68.36211
G1 X146.283 Y49.759 E68.57652
G1 X139.084 Y49.759 E68.79093
G0 F10500 X138.584 Y50.259
;TYPE:WALL-OUTER
G1 F660 X138.584 Y42.060 E69.03512
G1 X146.783 Y42.060 E69.27932
G1 X146.783 Y50.259 E69.52351
G1 X138.584 Y50.259 E69.76771
G0 F10500 X138.844 Y49.909
G0 X142.807 Y47.347
;TYPE:FILL
G1 F900 X141.494 Y46.034 E69.82301
G0 F10500 X141.494 Y45.888
G1 F900 X142.411 Y44.971 E69.86163
G0 F10500 X142.144 Y45.624
;TYPE:SKIN
G1 F1140 X139.258 Y42.738 E69.98319
G0 F10500 X139.962 Y42.735
G1 F1140 X142.849 Y45.621 E70.10477
G0 F10500 X143.220 Y45.993
G1 F1140 X146.107 Y48.880 E70.22637
G0 F10500 X146.104 Y49.584
G1 F1140 X143.218 Y46.698 E70.34793
G0 F10500 X142.511 Y46.698
G1 F1140 X145.397 Y49.584 E70.46949
G0 F10500 X144.690 Y49.584
G1 F1140 X139.258 Y44.152 E70.69829
G0 F10500 X139.258 Y44.859
G1 F1140 X143.983 Y49.584 E70.89730
G0 F10500 X143.276 Y49.584
G1 F1140 X139.258 Y45.566 E71.06654
G0 F10500 X139.258 Y46.273
G1 F1140 X142.568 Y49.584 E71.20598
G0 F10500 X141.861 Y49.584
G1 F1140 X139.258 Y46.980 E71.31564
G0 F10500 X139.258 Y47.687
G1 F1140 X141.154 Y49.584 E71.39552
G0 F10500 X140.447 Y49.584
G1 F1140 X139.258 Y48.395 E71.44560
G0 F10500 X139.258 Y49.102
G1 F1140 X139.740 Y49.584 E71.46590
G0 F10500 X142.144 Y46.331
G1 F1140 X139.258 Y43.445 E71.58746
G0 F10500 X140.669 Y42.735
G1 F1140 X146.107 Y48.173 E71.81651
G0 F10500 X146.107 Y47.465
G1 F1140 X141.376 Y42.735 E72.01576
G0 F10500 X142.083 Y42.735
G1 F1140 X146.107 Y46.758 E72.18523
G0 F10500 X146.107 Y46.051
G1 F1140 X142.791 Y42.735 E72.32490
G0 F10500 X143.498 Y42.735
G1 F1140 X146.107 Y45.344 E72.43479
G0 F10500 X146.107 Y44.637
G1 F1140 X144.205 Y42.735 E72.51490
G0 F10500 X144.912 Y42.735
G1 F1140 X146.107 Y43.930 E72.56524
G0 F10500 X146.107 Y43.223
G1 F1140 X145.619 Y42.735 E72.58579
G1 F600 E71.08579
G1 Z3.565
G0 F10500 X148.292 Y100.558
;TYPE:WALL-INNER
G1 Z3.465
G1 F600 E72.58579
G1 F780 X148.292 Y107.757 E72.80020
G1 X141.093 Y107.757 E73.01461
G1 X141.093 Y100.558 E73.22902
G1 X148.292 Y100.558 E73.44343
G0 F10500 X148.792 Y100.058
;TYPE:WALL-OUTER
G1 F660 X148.792 Y108.257 E73.68763
G1 X140.593 Y108.257 E73.93182
G1 X140.593 Y100.058 E74.17601
G1 X148.792 Y100.058 E74.42021
G0 F10500 X148.442 Y100.318
G0 X145.880 Y105.142
;TYPE:FILL
G1 F900 X145.676 Y105.346 E74.42880
G0 F10500 X144.237 Y105.346
G1 F900 X143.503 Y104.612 E74.45972
G0 F10500 X144.153 Y104.202
;TYPE:SKIN
G1 F1140 X141.267 Y101.315 E74.58130
G0 F10500 X141.391 Y100.733
G1 F1140 X144.277 Y103.618 E74.70283
G0 F10500 X144.984 Y103.618
G1 F1140 X142.098 Y100.733 E74.82437
G0 F10500 X142.805 Y100.733
G1 F1140 X148.116 Y106.043 E75.04805
G0 F10500 X148.116 Y106.750
G1 F1140 X145.230 Y103.864 E75.16961
G0 F10500 X145.230 Y104.571
G1 F1140 X148.116 Y107.457 E75.29117
G0 F10500 X147.533 Y107.582
G1 F1140 X144.647 Y104.696 E75.41273
G0 F10500 X144.705 Y107.582
G1 F1140 X141.267 Y104.144 E75.55753
G0 F10500 X141.267 Y104.851
G1 F1140 X143.998 Y107.582 E75.67256
G0 F10500 X143.290 Y107.582
G1 F1140 X141.267 Y105.558 E75.75779
G0 F10500 X141.267 Y106.265
G1 F1140 X142.583 Y107.582 E75.81325
G0 F10500 X141.876 Y107.582
G1 F1140 X141.267 Y106.972 E75.83892
G0 F10500 X141.267 Y103.436
G1 F1140 X145.412 Y107.582 E76.01353
G0 F10500 X146.119 Y107.582
G1 F1140 X141.267 Y102.729 E76.21791
G0 F10500 X141.267 Y102.022
G1 F1140 X146.826 Y107.582 E76.45208
G0 F10500 X148.116 Y105.336
G1 F1140 X143.512 Y100.733 E76.64598
G0 F10500 X144.220 Y100.733
G1 F1140 X148.116 Y104.629 E76.81008
G0 F10500 X148.116 Y103.922
G1 F1140 X144.927 Y100.733 E76.94440
G0 F10500 X145.634 Y100.733
G1 F1140 X148.116 Y103.214 E77.04892
G0 F10500 X148.116 Y102.507
G1 F1140 X146.341 Y100.733 E77.12366
G0 F10500 X147.048 Y100.733
G1 F1140 X148.116 Y101.800 E77.16863
G0 F10500 X148.116 Y101.093
G1 F1140 X147.755 Y100.733 E77.18381
;LAYER:9
G1 F600 E75.68381
G1 Z3.565
G0 F10500 X146.283 Y49.759 Z3.845
;TYPE:WALL-INNER
G1 Z3.845
G1 F600 E77.18381
G1 F780 X139.084 Y49.759 E77.39822
G1 X139.084 Y42.560 E77.61263
G1 X146.283 Y42.560 E77.82704
G1 X146.283 Y49.759 E78.04145
G0 F10500 X146.783 Y50.259
;TYPE:WALL-OUTER
G1 F660 X138.584 Y50.259 E78.28565
G1 X138.584 Y42.060 E78.52984
G1 X146.783 Y42.060 E78.77404
G1 X146.783 Y50.259 E79.01823
G0 F10500 X146.433 Y49.999
G0 X142.807 Y47.347
;TYPE:FILL
G1 F900 X141.494 Y46.034 E79.07353
G0 F10500 X141.494 Y45.888
G1 F900 X142.411 Y44.971 E79.11216
G0 F10500 X142.822 Y45.621
;TYPE:SKIN
G1 F1140 X145.708 Y42.735 E79.23372
G0 F10500 X146.107 Y43.043
G1 F1140 X143.220 Y45.930 E79.35532
G0 F10500 X143.220 Y46.637
G1 F1140 X146.107 Y43.750 E79.47692
G0 F10500 X146.107 Y44.457
G1 F1140 X140.980 Y49.584 E79.69287
G0 F10500 X141.687 Y49.584
G1 F1140 X146.107 Y45.165 E79.87902
G0 F10500 X146.107 Y45.872
G1 F1140 X142.395 Y49.584 E80.03537
G0 F10500 X143.102 Y49.584
G1 F1140 X146.107 Y46.579 E80.16194
G0 F10500 X146.107 Y47.286
G1 F1140 X143.809 Y49.584 E80.25873
G0 F10500 X144.516 Y49.584
G1 F1140 X146.107 Y47.993 E80.32574
G0 F10500 X146.107 Y48.700
G1 F1140 X145.223 Y49.584 E80.36298
G0 F10500 X145.930 Y49.584
G1 F1140 X146.107 Y49.407 E80.37043
G0 F10500 X143.160 Y46.698
G1 F1140 X140.273 Y49.584 E80.49201
G0 F10500 X139.566 Y49.584
G1 F1140 X142.453 Y46.698 E80.61359
G0 F10500 X142.144 Y46.299
G1 F1140 X139.258 Y49.185 E80.73515
G0 F10500 X139.258 Y48.478
G1 F1140 X145.001 Y42.735 E80.97704
G0 F10500 X144.294 Y42.735
G1 F1140 X139.258 Y47.771 E81.18916
G0 F10500 X139.258 Y47.064
G1 F1140 X143.587 Y42.735 E81.37150
G0 F10500 X142.880 Y42.735
G1 F1140 X139.258 Y46.357 E81.52406
G0 F10500 X139.258 Y45.650
G1 F1140 X142.173 Y42.735 E81.64684
G0 F10500 X141.465 Y42.735
G1 F1140 X139.258 Y44.942 E81.73980
G0 F10500 X139.258 Y44.235
G1 F1140 X140.758 Y42.735 E81.80298
G0 F10500 X140.051 Y42.735
G1 F1140 X139.258 Y43.528 E81.83638
G0 F10500 X139.258 Y42.821
G1 F1140 X139.344 Y42.735 E81.84000
G1 F600 E80.34000
G1 Z3.945
G0 F10500 X141.093 Y100.558
;TYPE:WALL-INNER
G1 Z3.845
G1 F600 E81.84000
G1 F780 X148.292 Y100.558 E82.05441
G1 X148.292 Y107.757 E82.26882
G1 X141.093 Y107.757 E82.48323
G1 X141.093 Y100.558 E82.69764
G0 F10500 X140.593 Y100.058
;TYPE:WALL-OUTER
G1 F660 X148.792 Y100.058 E82.94184
G1 X148.792 Y108.257 E83.18603
G1 X140.593 Y108.257 E83.43022
G1 X140.593 Y100.058 E83.67442
G0 F10500 X140.943 Y100.318
G0 X143.503 Y104.612
;TYPE:FILL
G1 F900 X144.237 Y105.346 E83.70533
G0 F10500 X145.676 Y105.346
G1 F900 X145.880 Y105.142 E83.71393
G0 F10500 X145.230 Y104.024
;TYPE:SKIN
G1 F1140 X148.116 Y101.138 E83.83548
G0 F10500 X147.815 Y100.733
G1 F1140 X144.929 Y103.618 E83.95702
G0 F10500 X144.222 Y103.618
G1 F1140 X147.107 Y100.733 E84.07854
G0 F10500 X146.400 Y100.733
G1 F1140 X141.267 Y105.866 E84.29474
G0 F10500 X141.267 Y106.573
G1 F1140 X144.152 Y103.688 E84.41626
G0 F10500 X144.152 Y104.395
G1 F1140 X141.267 Y107.280 E84.53777
G0 F10500 X141.673 Y107.582
G1 F1140 X144.559 Y104.695 E84.65935
G0 F10500 X144.501 Y107.582
G1 F1140 X148.116 Y103.967 E84.81162
G0 F10500 X148.116 Y104.674
G1 F1140 X145.208 Y107.582 E84.93410
G0 F10500 X145.915 Y107.582
G1 F1140 X148.116 Y105.381 E85.02681
G0 F10500 X148.116 Y106.088
G1 F1140 X146.622 Y107.582 E85.08974
G0 F10500 X147.329 Y107.582
G1 F1140 X148.116 Y106.795 E85.12288
G0 F10500 X148.116 Y107.502
G1 F1140 X148.037 Y107.582 E85.12623
G0 F10500 X143.794 Y107.582
G1 F1140 X148.116 Y103.260 E85.30828
G0 F10500 X148.116 Y102.553
G1 F1140 X143.087 Y107.582 E85.52010
G0 F10500 X142.380 Y107.582
G1 F1140 X148.116 Y101.846 E85.76170
G0 F10500 X145.693 Y100.733
G1 F1140 X141.267 Y105.159 E85.94812
G0 F10500 X141.267 Y104.452
G1 F1140 X144.986 Y100.733 E86.10477
G0 F10500 X144.279 Y100.733
G1 F1140 X141.267 Y103.745 E86.23163
G0 F10500 X141.267 Y103.038
G1 F1140 X143.572 Y100.733 E86.32872
G0 F10500 X142.865 Y100.733
G1 F1140 X141.267 Y102.331 E86.39603
G0 F10500 X141.267 Y101.623
G1 F1140 X142.158 Y100.733 E86.43353
G0 F10500 X141.451 Y100.733
G1 F1140 X141.267 Y100.916 E86.44126
;LAYER:10
G1 F600 E84.94126
G1 Z3.945
G0 F10500 X142.070 Y46.773 Z4.225
;TYPE:WALL-INNER
G1 Z4.225
G1 F600 E86.44126
G1 F660 X142.070 Y45.547 E86.47778
G1 X143.297 Y45.547 E86.51432
G1 X143.297 Y46.773 E86.55084
G1 X142.070 Y46.773 E86.58738
G0 F10500 X141.570 Y47.273
;TYPE:WALL-OUTER
G1 F540 X141.570 Y45.047 E86.65368
G1 X143.797 Y45.047 E86.72001
G1 X143.797 Y47.273 E86.78630
G1 X141.570 Y47.273 E86.85263
G0 F10500 X141.830 Y46.923
G0 X142.820 Y46.023
G1 F600 E85.35263
G1 Z4.325
G0 F10500 X144.079 Y103.544
;TYPE:WALL-INNER
G1 Z4.225
G1 F600 E86.85263
G1 F660 X145.306 Y103.544 E86.88918
G1 X145.306 Y104.771 E86.92572
G1 X144.079 Y104.771 E86.96226
G1 X144.079 Y103.544 E86.99881
G0 F10500 X143.579 Y103.044
;TYPE:WALL-OUTER
G1 F540 X145.806 Y103.044 E87.06514
G1 X145.806 Y105.271 E87.13146
G1 X143.579 Y105.271 E87.19779
G1 X143.579 Y103.044 E87.26412
G0 F10500 X143.929 Y103.304
G0 X144.829 Y104.294
;LAYER:11
G1 F600 E85.76412
G1 Z4.325
G0 F10500 X143.297 Y46.773 Z4.605
;TYPE:WALL-INNER
G1 Z4.605
G1 F600 E87.26412
G1 F660 X142.070 Y46.773 E87.30066
G1 X142.070 Y45.547 E87.33718
G1 X143.297 Y45.547 E87.37372
G1 X143.297 Y46.773 E87.41024
G0 F10500 X143.797 Y47.273
;TYPE:WALL-OUTER
G1 F540 X141.570 Y47.273 E87.47656
G1 X141.570 Y45.047 E87.54286
G1 X143.797 Y45.047 E87.60919
G1 X143.797 Y47.273 E87.67549
G0 F10500 X143.447 Y47.013
G0 X142.547 Y46.023
G1 F600 E86.17549
G1 Z4.705
G0 F10500 X144.079 Y103.544
;TYPE:WALL-INNER
G1 Z4.605
G1 F600 E87.67549
G1 F660 X145.306 Y103.544 E87.71203
G1 X145.306 Y104.771 E87.74858
G1 X144.079 Y104.771 E87.78512
G1 X144.079 Y103.544 E87.82166
G0 F10500 X143.579 Y103.044
;TYPE:WALL-OUTER
G1 F540 X145.806 Y103.044 E87.88799
G1 X145.806 Y105.271 E87.95432
G1 X143.579 Y105.271 E88.02065
G1 X143.579 Y103.044 E88.08697
G0 F10500 X143.929 Y103.304
G0 X144.829 Y104.294
;LAYER:12
G1 F600 E86.58697
G1 Z4.705
G0 F10500 X143.297 Y46.773 Z4.985
;TYPE:WALL-INNER
G1 Z4.985
G1 F600 E88.08697
G1 F660 X142.070 Y46.773 E88.12352
G1 X142.070 Y45.547 E88.16003
G1 X143.297 Y45.547 E88.19658
G1 X143.297 Y46.773 E88.23309
G0 F10500 X143.797 Y47.273
;TYPE:WALL-OUTER
G1 F540 X141.570 Y47.273 E88.29942
G1 X141.570 Y45.047 E88.36572
G1 X143.797 Y45.047 E88.43204
G1 X143.797 Y47.273 E88.49834
G0 F10500 X143.447 Y47.013
G0 X142.547 Y46.023
G1 F600 E86.99834
G1 Z5.085
G0 F10500 X144.079 Y103.544
;TYPE:WALL-INNER
G1 Z4.985
G1 F600 E88.49834
G1 F660 X145.306 Y103.544 E88.53489
G1 X145.306 Y104.771 E88.57143
G1 X144.079 Y104.771 E88.60797
G1 X144.079 Y103.544 E88.64452
G0 F10500 X143.579 Y103.044
;TYPE:WALL-OUTER
G1 F540 X145.806 Y103.044 E88.71085
G1 X145.806 Y105.271 E88.77717
G1 X143.579 Y105.271 E88.84350
G1 X143.579 Y103.044 E88.90983
G0 F10500 X143.929 Y103.304
G0 X144.829 Y104.294
;LAYER:13
G1 F600 E87.40983
G1 Z5.085
G0 F10500 X143.297 Y46.773 Z5.365
;TYPE:WALL-INNER
G1 Z5.365
G1 F600 E88.90983
G1 F660 X142.070 Y46.773 E88.94637
G1 X142.070 Y45.547 E88.98289
G1 X143.297 Y45.547 E89.01943
G1 X143.297 Y46.773 E89.05595
G0 F10500 X143.797 Y47.273
;TYPE:WALL-OUTER
G1 F540 X141.570 Y47.273 E89.12227
G1 X141.570 Y45.047 E89.18857
G1 X143.797 Y45.047 E89.25490
G1 X143.797 Y47.273 E89.32120
G0 F10500 X143.447 Y47.013
G0 X142.547 Y46.023
G1 F600 E87.82120
G1 Z5.465
G0 F10500 X144.079 Y103.544
;TYPE:WALL-INNER
G1 Z5.365
G1 F600 E89.32120
G1 F660 X145.306 Y103.544 E89.35774
G1 X145.306 Y104.771 E89.39429
G1 X144.079 Y104.771 E89.43083
G1 X144.079 Y103.544 E89.46737
G0 F10500 X143.579 Y103.044
;TYPE:WALL-OUTER
G1 F540 X145.806 Y103.044 E89.53370
G1 X145.806 Y105.271 E89.60003
G1 X143.579 Y105.271 E89.66636
G1 X143.579 Y103.044 E89.73268
G0 F10500 X143.929 Y103.304
G0 X144.829 Y104.294
;LAYER:14
G1 F600 E88.23268
G1 Z5.465
G0 F10500 X143.297 Y46.773 Z5.745
;TYPE:WALL-INNER
G1 Z5.745
G1 F600 E89.73268
G1 F660 X142.070 Y46.773 E89.76923
G1 X142.070 Y45.547 E89.80574
G1 X143.297 Y45.547 E89.84229
G1 X143.297 Y46.773 E89.87880
G0 F10500 X143.797 Y47.273
;TYPE:WALL-OUTER
G1 F540 X141.570 Y47.273 E89.94513
G1 X141.570 Y45.047 E90.01143
G1 X143.797 Y45.047 E90.07775
G1 X143.797 Y47.273 E90.14405
G0 F10500 X143.447 Y47.013
G0 X142.547 Y46.023
G1 F600 E88.64405
G1 Z5.845
G0 F10500 X144.079 Y103.544
;TYPE:WALL-INNER
G1 Z5.745
G1 F600 E90.14405
G1 F660 X145.306 Y103.544 E90.18060
G1 X145.306 Y104.771 E90.21714
G1 X144.079 Y104.771 E90.25369
G1 X144.079 Y103.544 E90.29023
G0 F10500 X143.579 Y103.044
;TYPE:WALL-OUTER
G1 F540 X145.806 Y103.044 E90.35656
G1 X145.806 Y105.271 E90.42288
G1 X143.579 Y105.271 E90.48921
G1 X143.579 Y103.044 E90.55554
G0 F10500 X143.929 Y103.304
G0 X144.829 Y104.294
;LAYER:15
G1 F600 E89.05554
G1 Z5.845
G0 F10500 X143.297 Y46.773 Z6.125
;TYPE:WALL-INNER
G1 Z6.125
G1 F600 E90.55554
G1 F660 X142.070 Y46.773 E90.59208
G1 X142.070 Y45.547 E90.62860
G1 X143.297 Y45.547 E90.66514
G1 X143.297 Y46.773 E90.70166
G0 F10500 X143.797 Y47.273
;TYPE:WALL-OUTER
G1 F540 X141.570 Y47.273 E90.76798
G1 X141.570 Y45.047 E90.83428
G1 X143.797 Y45.047 E90.90061
G1 X143.797 Y47.273 E90.96691
G0 F10500 X143.447 Y47.013
G0 X142.547 Y46.023
G1 F600 E89.46691
G1 Z6.225
G0 F10500 X144.079 Y103.544
;TYPE:WALL-INNER
G1 Z6.125
G1 F600 E90.96691
G1 F660 X145.306 Y103.544 E91.00345
G1 X145.306 Y104.771 E91.04000
G1 X144.079 Y104.771 E91.07654
G1 X144.079 Y103.544 E91.11308
G0 F10500 X143.579 Y103.044
;TYPE:WALL-OUTER
G1 F540 X145.806 Y103.044 E91.17941
G1 X145.806 Y105.271 E91.24574
G1 X143.579 Y105.271 E91.31207
G1 X143.579 Y103.044 E91.37839
G0 F10500 X143.929 Y103.304
G0 X144.829 Y104.294
;LAYER:16
G1 F600 E89.87839
G1 Z6.225
G0 F10500 X143.297 Y46.773 Z6.505
;TYPE:WALL-INNER
G1 Z6.505
G1 F600 E91.37839
G1 F660 X142.070 Y46.773 E91.41494
G1 X142.070 Y45.547 E91.45145
G1 X143.297 Y45.547 E91.48800
G1 X143.297 Y46.773 E91.52451
G0 F10500 X143.797 Y47.273
;TYPE:WALL-OUTER
G1 F540 X141.570 Y47.273 E91.59084
G1 X141.570 Y45.047 E91.65714
G1 X143.797 Y45.047 E91.72347
G1 X143.797 Y47.273 E91.78976
G0 F10500 X143.447 Y47.013
G0 X142.547 Y46.023
G1 F600 E90.28976
G1 Z6.605
G0 F10500 X144.079 Y103.544
;TYPE:WALL-INNER
G1 Z6.505
G1 F600 E91.78976
G1 F660 X145.306 Y103.544 E91.82631
G1 X145.306 Y104.771 E91.86285
G1 X144.079 Y104.771 E91.89940
G1 X144.079 Y103.544 E91.93594
G0 F10500 X143.579 Y103.044
;TYPE:WALL-OUTER
G1 F540 X145.806 Y103.044 E92.00227
G1 X145.806 Y105.271 E92.06860
G1 X143.579 Y105.271 E92.13492
G1 X143.579 Y103.044 E92.20125
G0 F10500 X143.929 Y103.304
G0 X144.829 Y104.294
;LAYER:17
G1 F600 E90.70125
G1 Z6.605
G0 F10500 X143.297 Y46.773 Z6.885
;TYPE:WALL-INNER
G1 Z6.885
G1 F600 E92.20125
G1 F660 X142.070 Y46.773 E92.23779
G1 X142.070 Y45.547 E92.27431
G1 X143.297 Y45.547 E92.31085
G1 X143.297 Y46.773 E92.34737
G0 F10500 X143.797 Y47.273
;TYPE:WALL-OUTER
G1 F540 X141.570 Y47.273 E92.41370
G1 X141.570 Y45.047 E92.47999
G1 X143.797 Y45.047 E92.54632
G1 X143.797 Y47.273 E92.61262
G0 F10500 X143.447 Y47.013
G0 X142.547 Y46.023
G1 F600 E91.11262
G1 Z6.985
G0 F10500 X144.079 Y103.544
;TYPE:WALL-INNER
G1 Z6.885
G1 F600 E92.61262
G1 F660 X145.306 Y103.544 E92.64916
G1 X145.306 Y104.771 E92.68571
G1 X144.079 Y104.771 E92.72225
G1 X144.079 Y103.544 E92.75880
G0 F10500 X143.579 Y103.044
;TYPE:WALL-OUTER
G1 F540 X145.806 Y103.044 E92.82512
G1 X145.806 Y105.271 E92.89145
G1 X143.579 Y105.271 E92.95778
G1 X143.579 Y103.044 E93.02411
G0 F10500 X143.929 Y103.304
G0 X144.829 Y104.294
;LAYER:18
G1 F600 E91.52411
G1 Z6.985
G0 F10500 X143.297 Y46.773 Z7.265
;TYPE:WALL-INNER
G1 Z7.265
G1 F600 E93.02411
G1 F660 X142.070 Y46.773 E93.06065
G1 X142.070 Y45.547 E93.09716
G1 X143.297 Y45.547 E93.13371
G1 X143.297 Y46.773 E93.17022
G0 F10500 X143.797 Y47.273
;TYPE:WALL-OUTER
G1 F540 X141.570 Y47.273 E93.23655
G1 X141.570 Y45.047 E93.30285
G1 X143.797 Y45.047 E93.36918
G1 X143.797 Y47.273 E93.43547
G0 F10500 X143.447 Y47.013
G0 X142.547 Y46.023
G1 F600 E91.93547
G1 Z7.365
G0 F10500 X144.079 Y103.544
;TYPE:WALL-INNER
G1 Z7.265
G1 F600 E93.43547
G1 F660 X145.306 Y103.544 E93.47202
G1 X145.306 Y104.771 E93.50856
G1 X144.079 Y104.771 E93.54511
G1 X144.079 Y103.544 E93.58165
G0 F10500 X143.579 Y103.044
;TYPE:WALL-OUTER
G1 F540 X145.806 Y103.044 E93.64798
G1 X145.806 Y105.271 E93.71431
G1 X143.579 Y105.271 E93.78063
G1 X143.579 Y103.044 E93.84696
G0 F10500 X143.929 Y103.304
G0 X144.829 Y104.294
;LAYER:19
G1 F600 E92.34696
G1 Z7.365
G0 F10500 X143.297 Y46.773 Z7.645
;TYPE:WALL-INNER
G1 Z7.645
G1 F600 E93.84696
G1 F660 X142.070 Y46.773 E93.88350
G1 X142.070 Y45.547 E93.92002
G1 X143.297 Y45.547 E93.95656
G1 X143.297 Y46.773 E93.99308
G0 F10500 X143.797 Y47.273
;TYPE:WALL-OUTER
G1 F540 X141.570 Y47.273 E94.05941
G1 X141.570 Y45.047 E94.12570
G1 X143.797 Y45.047 E94.19203
G1 X143.797 Y47.273 E94.25833
G0 F10500 X143.447 Y47.013
G0 X142.547 Y46.023
G1 F600 E92.75833
G1 Z7.745
G0 F10500 X144.079 Y103.544
;TYPE:WALL-INNER
G1 Z7.645
G1 F600 E94.25833
G1 F660 X145.306 Y103.544 E94.29487
G1 X145.306 Y104.771 E94.33142
G1 X144.079 Y104.771 E94.36796
G1 X144.079 Y103.544 E94.40451
G0 F10500 X143.579 Y103.044
;TYPE:WALL-OUTER
G1 F540 X145.806 Y103.044 E94.47083
G1 X145.806 Y105.271 E94.53716
G1 X143.579 Y105.271 E94.60349
G1 X143.579 Y103.044 E94.66982
G0 F10500 X143.929 Y103.304
G0 X144.829 Y104.294
;LAYER:20
G1 F600 E93.16982
G1 Z7.745
G0 F10500 X143.297 Y46.773 Z8.025
;TYPE:WALL-INNER
G1 Z8.025
G1 F600 E94.66982
G1 F660 X142.070 Y46.773 E94.70636
G1 X142.070 Y45.547 E94.74287
G1 X143.297 Y45.547 E94.77942
G1 X143.297 Y46.773 E94.81593
G0 F10500 X143.797 Y47.273
;TYPE:WALL-OUTER
G1 F540 X141.570 Y47.273 E94.88226
G1 X141.570 Y45.047 E94.94856
G1 X143.797 Y45.047 E95.01489
G1 X143.797 Y47.273 E95.08118
G0 F10500 X143.447 Y47.013
G0 X142.547 Y46.023
G1 F600 E93.58118
G1 Z8.125
G0 F10500 X144.079 Y103.544
;TYPE:WALL-INNER
G1 Z8.025
G1 F600 E95.08118
G1 F660 X145.306 Y103.544 E95.11773
G1 X145.306 Y104.771 E95.15427
G1 X144.079 Y104.771 E95.19082
G1 X144.079 Y103.544 E95.22736
G0 F10500 X143.579 Y103.044
;TYPE:WALL-OUTER
G1 F540 X145.806 Y103.044 E95.29369
G1 X145.806 Y105.271 E95.36002
G1 X143.579 Y105.271 E95.42634
G1 X143.579 Y103.044 E95.49267
G0 F10500 X143.929 Y103.304
G0 X144.829 Y104.294
;LAYER:21
G1 F600 E93.99267
G1 Z8.125
G0 F10500 X143.297 Y46.773 Z8.405
;TYPE:WALL-INNER
G1 Z8.405
G1 F600 E95.49267
G1 F660 X142.070 Y46.773 E95.52922
G1 X142.070 Y45.547 E95.56573
G1 X143.297 Y45.547 E95.60227
G1 X143.297 Y46.773 E95.63879
G0 F10500 X143.797 Y47.273
;TYPE:WALL-OUTER
G1 F540 X141.570 Y47.273 E95.70512
G1 X141.570 Y45.047 E95.77141
G1 X143.797 Y45.047 E95.83774
G1 X143.797 Y47.273 E95.90404
G0 F10500 X143.447 Y47.013
G0 X142.547 Y46.023
G1 F600 E94.40404
G1 Z8.505
G0 F10500 X144.079 Y103.544
;TYPE:WALL-INNER
G1 Z8.405
G1 F600 E95.90404
G1 F660 X145.306 Y103.544 E95.94058
G1 X145.306 Y104.771 E95.97713
G1 X144.079 Y104.771 E96.01367
G1 X144.079 Y103.544 E96.05022
G0 F10500 X143.579 Y103.044
;TYPE:WALL-OUTER
G1 F540 X145.806 Y103.044 E96.11654
G1 X145.806 Y105.271 E96.18287
G1 X143.579 Y105.271 E96.24920
G1 X143.579 Y103.044 E96.31553
G0 F10500 X143.929 Y103.304
G0 X144.829 Y104.294
;LAYER:22
G1 F600 E94.81553
G1 Z8.505
G0 F10500 X143.297 Y46.773 Z8.785
;TYPE:WALL-INNER
G1 Z8.785
G1 F600 E96.31553
G1 F660 X142.070 Y46.773 E96.35207
G1 X142.070 Y45.547 E96.38859
G1 X143.297 Y45.547 E96.42513
G1 X143.297 Y46.773 E96.46164
G0 F10500 X143.797 Y47.273
;TYPE:WALL-OUTER
G1 F540 X141.570 Y47.273 E96.52797
G1 X141.570 Y45.047 E96.59427
G1 X143.797 Y45.047 E96.66060
G1 X143.797 Y47.273 E96.72689
G0 F10500 X143.447 Y47.013
G0 X142.547 Y46.023
G1 F600 E95.22689
G1 Z8.885
G0 F10500 X144.079 Y103.544
;TYPE:WALL-INNER
G1 Z8.785
G1 F600 E96.72689
G1 F660 X145.306 Y103.544 E96.76344
G1 X145.306 Y104.771 E96.79998
G1 X144.079 Y104.771 E96.83653
G1 X144.079 Y103.544 E96.87307
G0 F10500 X143.579 Y103.044
;TYPE:WALL-OUTER
G1 F540 X145.806 Y103.044 E96.93940
G1 X145.806 Y105.271 E97.00573
G1 X143.579 Y105.271 E97.07205
G1 X143.579 Y103.044 E97.13838
G0 F10500 X143.929 Y103.304
G0 X144.829 Y104.294
;LAYER:23
G1 F600 E95.63838
G1 Z8.885
G0 F10500 X143.297 Y46.773 Z9.165
;TYPE:WALL-INNER
G1 Z9.165
G1 F600 E97.13838
G1 F660 X142.070 Y46.773 E97.17493
G1 X142.070 Y45.547 E97.21144
G1 X143.297 Y45.547 E97.24798
G1 X143.297 Y46.773 E97.28450
G0 F10500 X143.797 Y47.273
;TYPE:WALL-OUTER
G1 F540 X141.570 Y47.273 E97.35083
G1 X141.570 Y45.047 E97.41712
G1 X143.797 Y45.047 E97.48345
G1 X143.797 Y47.273 E97.54975
G0 F10500 X143.447 Y47.013
G0 X142.547 Y46.023
G1 F600 E96.04975
G1 Z9.265
G0 F10500 X144.079 Y103.544
;TYPE:WALL-INNER
G1 Z9.165
G1 F600 E97.54975
G1 F660 X145.306 Y103.544 E97.58629
G1 X145.306 Y104.771 E97.62284
G1 X144.079 Y104.771 E97.65938
G1 X144.079 Y103.544 E97.69593
G0 F10500 X143.579 Y103.044
;TYPE:WALL-OUTER
G1 F540 X145.806 Y103.044 E97.76225
G1 X145.806 Y105.271 E97.82858
G1 X143.579 Y105.271 E97.89491
G1 X143.579 Y103.044 E97.96124
G0 F10500 X143.929 Y103.304
G0 X144.829 Y104.294
;LAYER:24
G1 F600 E96.46124
G1 Z9.265
G0 F10500 X143.297 Y46.773 Z9.545
;TYPE:WALL-INNER
G1 Z9.545
G1 F600 E97.96124
G1 F660 X142.070 Y46.773 E97.99778
G1 X142.070 Y45.547 E98.03430
G1 X143.297 Y45.547 E98.07084
G1 X143.297 Y46.773 E98.10735
G0 F10500 X143.797 Y47.273
;TYPE:WALL-OUTER
G1 F540 X141.570 Y47.273 E98.17368
G1 X141.570 Y45.047 E98.23998
G1 X143.797 Y45.047 E98.30631
G1 X143.797 Y47.273 E98.37261
G0 F10500 X143.447 Y47.013
G0 X142.547 Y46.023
G1 F600 E96.87261
G1 Z9.645
G0 F10500 X144.079 Y103.544
;TYPE:WALL-INNER
G1 Z9.545
G1 F600 E98.37261
G1 F660 X145.306 Y103.544 E98.40915
G1 X145.306 Y104.771 E98.44569
G1 X144.079 Y104.771 E98.48224
G1 X144.079 Y103.544 E98.51878
G0 F10500 X143.579 Y103.044
;TYPE:WALL-OUTER
G1 F540 X145.806 Y103.044 E98.58511
G1 X145.806 Y105.271 E98.65144
G1 X143.579 Y105.271 E98.71776
G1 X143.579 Y103.044 E98.78409
G0 F10500 X143.929 Y103.304
G0 X144.829 Y104.294
;LAYER:25
G1 F600 E97.28409
G1 Z9.645
G0 F10500 X143.297 Y46.773 Z9.925
;TYPE:WALL-INNER
G1 Z9.925
G1 F600 E98.78409
G1 F660 X142.070 Y46.773 E98.82064
G1 X142.070 Y45.547 E98.85715
G1 X143.297 Y45.547 E98.89370
G1 X143.297 Y46.773 E98.93021
G0 F10500 X143.797 Y47.273
;TYPE:WALL-OUTER
G1 F540 X141.570 Y47.273 E98.99654
G1 X141.570 Y45.047 E99.06283
G1 X143.797 Y45.047 E99.12916
G1 X143.797 Y47.273 E99.19546
G0 F10500 X143.447 Y47.013
G0 X142.547 Y46.023
G1 F600 E97.69546
G1 Z10.025
G0 F10500 X144.079 Y103.544
;TYPE:WALL-INNER
G1 Z9.925
G1 F600 E99.19546
G1 F660 X145.306 Y103.544 E99.23200
G1 X145.306 Y104.771 E99.26855
G1 X144.079 Y104.771 E99.30509
G1 X144.079 Y103.544 E99.34164
G0 F10500 X143.579 Y103.044
;TYPE:WALL-OUTER
G1 F540 X145.806 Y103.044 E99.40796
G1 X145.806 Y105.271 E99.47429
G1 X143.579 Y105.271 E99.54062
G1 X143.579 Y103.044 E99.60695
G0 F10500 X143.929 Y103.304
G0 X144.829 Y104.294
;LAYER:26
G1 F600 E98.10695
G1 Z10.025
G0 F10500 X143.297 Y46.773 Z10.305
;TYPE:WALL-INNER
G1 Z10.305
G1 F600 E99.60695
G1 F660 X142.070 Y46.773 E99.64349
G1 X142.070 Y45.547 E99.68001
G1 X143.297 Y45.547 E99.71655
G1 X143.297 Y46.773 E99.75306
G0 F10500 X143.797 Y47.273
;TYPE:WALL-OUTER
G1 F540 X141.570 Y47.273 E99.81939
G1 X141.570 Y45.047 E99.88569
G1 X143.797 Y45.047 E99.95202
G1 X143.797 Y47.273 E100.01832
G0 F10500 X143.447 Y47.013
G0 X142.547 Y46.023
G1 F600 E98.51832
G1 Z10.405
G0 F10500 X144.079 Y103.544
;TYPE:WALL-INNER
G1 Z10.305
G1 F600 E100.01832
G1 F660 X145.306 Y103.544 E100.05486
G1 X145.306 Y104.771 E100.09140
G1 X144.079 Y104.771 E100.12795
G1 X144.079 Y103.544 E100.16449
G0 F10500 X143.579 Y103.044
;TYPE:WALL-OUTER
G1 F540 X145.806 Y103.044 E100.23082
G1 X145.806 Y105.271 E100.29715
G1 X143.579 Y105.271 E100.36348
G1 X143.579 Y103.044 E100.42980
G0 F10500 X143.929 Y103.304
G0 X144.829 Y104.294
;LAYER:27
G1 F600 E98.92980
G1 Z10.405
G0 F10500 X143.297 Y46.773 Z10.685
;TYPE:WALL-INNER
G1 Z10.685
G1 F600 E100.42980
G1 F660 X142.070 Y46.773 E100.46635
G1 X142.070 Y45.547 E100.50286
G1 X143.297 Y45.547 E100.53941
G1 X143.297 Y46.773 E100.57592
G0 F10500 X143.797 Y47.273
;TYPE:WALL-OUTER
G1 F540 X141.570 Y47.273 E100.64225
G1 X141.570 Y45.047 E100.70855
G1 X143.797 Y45.047 E100.77487
G1 X143.797 Y47.273 E100.84117
G0 F10500 X143.447 Y47.013
G0 X142.547 Y46.023
G1 F600 E99.34117
G1 Z10.785
G0 F10500 X144.079 Y103.544
;TYPE:WALL-INNER
G1 Z10.685
G1 F600 E100.84117
G1 F660 X145.306 Y103.544 E100.87772
G1 X145.306 Y104.771 E100.91426
G1 X144.079 Y104.771 E100.95080
G1 X144.079 Y103.544 E100.98735
G0 F10500 X143.579 Y103.044
;TYPE:WALL-OUTER
G1 F540 X145.806 Y103.044 E101.05368
G1 X145.806 Y105.271 E101.12000
G1 X143.579 Y105.271 E101.18633
G1 X143.579 Y103.044 E101.25266
G0 F10500 X143.929 Y103.304
G0 X144.829 Y104.294
;LAYER:28
G1 F600 E99.75266
G1 Z10.785
G0 F10500 X143.297 Y46.773 Z11.065
;TYPE:WALL-INNER
G1 Z11.065
G1 F600 E101.25266
G1 F660 X142.070 Y46.773 E101.28920
G1 X142.070 Y45.547 E101.32572
G1 X143.297 Y45.547 E101.36226
G1 X143.297 Y46.773 E101.39878
G0 F10500 X143.797 Y47.273
;TYPE:WALL-OUTER
G1 F540 X141.570 Y47.273 E101.46510
G1 X141.570 Y45.047 E101.53140
G1 X143.797 Y45.047 E101.59773
G1 X143.797 Y47.273 E101.66403
G0 F10500 X143.447 Y47.013
G0 X142.547 Y46.023
G1 F600 E100.16403
G1 Z11.165
G0 F10500 X144.079 Y103.544
;TYPE:WALL-INNER
G1 Z11.065
G1 F600 E101.66403
G1 F660 X145.306 Y103.544 E101.70057
G1 X145.306 Y104.771 E101.73711
G1 X144.079 Y104.771 E101.77366
G1 X144.079 Y103.544 E101.81020
G0 F10500 X143.579 Y103.044
;TYPE:WALL-OUTER
G1 F540 X145.806 Y103.044 E101.87653
G1 X145.806 Y105.271 E101.94286
G1 X143.579 Y105.271 E102.00919
G1 X143.579 Y103.044 E102.07551
G0 F10500 X143.929 Y103.304
G0 X144.829 Y104.294
;LAYER:29
G1 F600 E100.57551
G1 Z11.165
G0 F10500 X143.297 Y46.773 Z11.445
;TYPE:WALL-INNER
G1 Z11.445
G1 F600 E102.07551
G1 F660 X142.070 Y46.773 E102.11206
G1 X142.070 Y45.547 E102.14857
G1 X143.297 Y45.547 E102.18512
G1 X143.297 Y46.773 E102.22163
G0 F10500 X143.797 Y47.273
;TYPE:WALL-OUTER
G1 F540 X141.570 Y47.273 E102.28796
G1 X141.570 Y45.047 E102.35426
G1 X143.797 Y45.047 E102.42058
G1 X143.797 Y47.273 E102.48688
G0 F10500 X143.447 Y47.013
G0 X142.547 Y46.023
G1 F600 E100.98688
G1 Z11.545
G0 F10500 X144.079 Y103.544
;TYPE:WALL-INNER
G1 Z11.445
G1 F600 E102.48688
G1 F660 X145.306 Y103.544 E102.52343
G1 X145.306 Y104.771 E102.55997
G1 X144.079 Y104.771 E102.59651
G1 X144.079 Y103.544 E102.63306
G0 F10500 X143.579 Y103.044
;TYPE:WALL-OUTER
G1 F540 X145.806 Y103.044 E102.69939
G1 X145.806 Y105.271 E102.76571
G1 X143.579 Y105.271 E102.83204
G1 X143.579 Y103.044 E102.89837
G0 F10500 X143.929 Y103.304
G0 X144.829 Y104.294
;LAYER:30
G1 F600 E101.39837
G1 Z11.545
G0 F10500 X143.297 Y46.773 Z11.825
;TYPE:WALL-INNER
G1 Z11.825
G1 F600 E102.89837
G1 F660 X142.070 Y46.773 E102.93491
G1 X142.070 Y45.547 E102.97143
G1 X143.297 Y45.547 E103.00797
G1 X143.297 Y46.773 E103.04449
G0 F10500 X143.797 Y47.273
;TYPE:WALL-OUTER
G1 F540 X141.570 Y47.273 E103.11081
G1 X141.570 Y45.047 E103.17711
G1 X143.797 Y45.047 E103.24344
G1 X143.797 Y47.273 E103.30974
G0 F10500 X143.447 Y47.013
G0 X142.547 Y46.023
G1 F600 E101.80974
G1 Z11.925
G0 F10500 X144.079 Y103.544
;TYPE:WALL-INNER
G1 Z11.825
G1 F600 E103.30974
G1 F660 X145.306 Y103.544 E103.34628
G1 X145.306 Y104.771 E103.38282
G1 X144.079 Y104.771 E103.41937
G1 X144.079 Y103.544 E103.45591
G0 F10500 X143.579 Y103.044
;TYPE:WALL-OUTER
G1 F540 X145.806 Y103.044 E103.52224
G1 X145.806 Y105.271 E103.58857
G1 X143.579 Y105.271 E103.65490
G1 X143.579 Y103.044 E103.72122
G0 F10500 X143.929 Y103.304
G0 X144.829 Y104.294
;LAYER:31
G1 F600 E102.22122
G1 Z11.925
G0 F10500 X143.297 Y46.773 Z12.205
;TYPE:WALL-INNER
G1 Z12.205
G1 F600 E103.72122
G1 F660 X142.070 Y46.773 E103.75777
G1 X142.070 Y45.547 E103.79428
G1 X143.297 Y45.547 E103.83083
G1 X143.297 Y46.773 E103.86734
G0 F10500 X143.797 Y47.273
;TYPE:WALL-OUTER
G1 F540 X141.570 Y47.273 E103.93367
G1 X141.570 Y45.047 E103.99997
G1 X143.797 Y45.047 E104.06629
G1 X143.797 Y47.273 E104.13259
G0 F10500 X143.447 Y47.013
G0 X142.547 Y46.023
G1 F600 E102.63259
G1 Z12.305
G0 F10500 X144.079 Y103.544
;TYPE:WALL-INNER
G1 Z12.205
G1 F600 E104.13259
G1 F660 X145.306 Y103.544 E104.16914
G1 X145.306 Y104.771 E104.20568
G1 X144.079 Y104.771 E104.24222
G1 X144.079 Y103.544 E104.27877
G0 F10500 X143.579 Y103.044
;TYPE:WALL-OUTER
G1 F540 X145.806 Y103.044 E104.34510
G1 X145.806 Y105.271 E104.41142
G1 X143.579 Y105.271 E104.47775
G1 X143.579 Y103.044 E104.54408
G0 F10500 X143.929 Y103.304
G0 X144.829 Y104.294
;LAYER:32
G1 F600 E103.04408
G1 Z12.305
G0 F10500 X143.297 Y46.773 Z12.585
;TYPE:WALL-INNER
G1 Z12.585
G1 F600 E104.54408
G1 F660 X142.070 Y46.773 E104.58062
G1 X142.070 Y45.547 E104.61714
G1 X143.297 Y45.547 E104.65368
G1 X143.297 Y46.773 E104.69020
G0 F10500 X143.797 Y47.273
;TYPE:WALL-OUTER
G1 F540 X141.570 Y47.273 E104.75652
G1 X141.570 Y45.047 E104.82282
G1 X143.797 Y45.047 E104.88915
G1 X143.797 Y47.273 E104.95545
G0 F10500 X143.447 Y47.013
G0 X142.547 Y46.023
G1 F600 E103.45545
G1 Z12.685
G0 F10500 X144.079 Y103.544
;TYPE:WALL-INNER
G1 Z12.585
G1 F600 E104.95545
G1 F660 X145.306 Y103.544 E104.99199
G1 X145.306 Y104.771 E105.02854
G1 X144.079 Y104.771 E105.06508
G1 X144.079 Y103.544 E105.10162
G0 F10500 X143.579 Y103.044
;TYPE:WALL-OUTER
G1 F540 X145.806 Y103.044 E105.16795
G1 X145.806 Y105.271 E105.23428
G1 X143.579 Y105.271 E105.30061
G1 X143.579 Y103.044 E105.36693
G0 F10500 X143.929 Y103.304
G0 X144.829 Y104.294
;LAYER:33
G1 F600 E103.86693
G1 Z12.685
G0 F10500 X143.297 Y46.773 Z12.965
;TYPE:WALL-INNER
G1 Z12.965
G1 F600 E105.36693
G1 F660 X142.070 Y46.773 E105.40348
G1 X142.070 Y45.547 E105.43999
G1 X143.297 Y45.547 E105.47654
G1 X143.297 Y46.773 E105.51305
G0 F10500 X143.797 Y47.273
;TYPE:WALL-OUTER
G1 F540 X141.570 Y47.273 E105.57938
G1 X141.570 Y45.047 E105.64568
G1 X143.797 Y45.047 E105.71200
G1 X143.797 Y47.273 E105.77830
G0 F10500 X143.447 Y47.013
G0 X142.547 Y46.023
G1 F600 E104.27830
G1 Z13.065
G0 F10500 X142.382 Y47.917
G1 Z12.965
G1 F600 E105.77830
G1 F540 X142.985 Y47.917 E105.79626
G1 X142.985 Y48.278 E105.80701
G1 X142.382 Y48.279 E105.82497
G1 X142.382 Y47.917 E105.83575
G1 F600 E104.33575
G1 Z13.065
G0 F10500 X144.079 Y103.544
;TYPE:WALL-INNER
G1 Z12.965
G1 F600 E105.83575
G1 F660 X145.306 Y103.544 E105.87230
G1 X145.306 Y104.771 E105.90884
G1 X144.079 Y104.771 E105.94539
G1 X144.079 Y103.544 E105.98193
G0 F10500 X143.579 Y103.044
;TYPE:WALL-OUTER
G1 F540 X145.806 Y103.044 E106.04826
G1 X145.806 Y105.271 E106.11459
G1 X143.579 Y105.271 E106.18091
G1 X143.579 Y103.044 E106.24724
G0 F10500 X143.929 Y103.304
G0 X144.829 Y104.294
G1 F600 E104.74724
G1 Z13.065
G0 F10500 X144.994 Y105.914
G1 Z12.965
G1 F600 E106.24724
G1 F540 X144.994 Y106.276 E106.25802
G1 X144.391 Y106.277 E106.27598
G1 X144.391 Y105.914 E106.28679
G1 X144.994 Y105.914 E106.30475
;LAYER:34
G1 F600 E104.80475
G1 Z13.065
G0 F10500 X143.297 Y46.773 Z13.345
;TYPE:WALL-INNER
G1 Z13.345
G1 F600 E106.30475
G1 F660 X142.070 Y46.773 E106.34130
G1 X142.070 Y45.547 E106.37781
G1 X143.297 Y45.547 E106.41436
G1 X143.297 Y46.773 E106.45087
G0 F10500 X143.797 Y47.273
;TYPE:WALL-OUTER
G1 F540 X141.570 Y47.273 E106.51720
G1 X141.570 Y45.047 E106.58350
G1 X143.797 Y45.047 E106.64982
G1 X143.797 Y47.273 E106.71612
G0 F10500 X143.447 Y47.013
G0 X142.547 Y46.023
G1 F600 E105.21612
G1 Z13.445
G0 F10500 X142.382 Y47.917
G1 Z13.345
G1 F600 E106.71612
G1 F540 X142.985 Y47.917 E106.73408
G1 X142.985 Y48.842 E106.76163
G1 X142.382 Y48.842 E106.77959
G1 X142.382 Y47.917 E106.80714
G1 F600 E105.30714
G1 Z13.445
G0 F10500 X144.079 Y103.544
;TYPE:WALL-INNER
G1 Z13.345
G1 F600 E106.80714
G1 F660 X145.306 Y103.544 E106.84368
G1 X145.306 Y104.771 E106.88023
G1 X144.079 Y104.771 E106.91677
G1 X144.079 Y103.544 E106.95332
G0 F10500 X143.579 Y103.044
;TYPE:WALL-OUTER
G1 F540 X145.806 Y103.044 E107.01964
G1 X145.806 Y105.271 E107.08597
G1 X143.579 Y105.271 E107.15230
G1 X143.579 Y103.044 E107.21863
G0 F10500 X143.929 Y103.304
G0 X144.829 Y104.294
G0 X144.734 Y106.264
G0 X144.644 Y106.174
G0 X144.994 Y105.914
G1 F540 X144.994 Y106.840 E107.24621
G1 X144.391 Y106.840 E107.26417
G1 X144.391 Y105.914 E107.29174
G1 X144.994 Y105.914 E107.30970
G0 F10500 X144.818 Y106.204
;TYPE:FILL
G1 F780 X144.565 Y106.457 E107.32036
;LAYER:35
G1 F600 E105.82036
G1 Z13.445
G0 F10500 X143.297 Y46.773 Z13.725
;TYPE:WALL-INNER
G1 Z13.725
G1 F600 E107.32036
G1 F660 X142.070 Y46.773 E107.35690
G1 X142.070 Y45.547 E107.39342
G1 X143.297 Y45.547 E107.42996
G1 X143.297 Y46.773 E107.46648
G0 F10500 X143.797 Y47.273
;TYPE:WALL-OUTER
G1 F540 X141.570 Y47.273 E107.53281
G1 X141.570 Y45.047 E107.59910
G1 X143.797 Y45.047 E107.66543
G1 X143.797 Y47.273 E107.73173
G0 F10500 X143.447 Y47.013
G0 X142.547 Y46.023
G1 F600 E106.23173
G1 Z13.825
G0 F10500 X142.382 Y47.917
G1 Z13.725
G1 F600 E107.73173
G1 F540 X142.985 Y47.917 E107.74969
G1 X142.985 Y49.406 E107.79404
G1 X142.382 Y49.406 E107.81199
G1 X142.382 Y47.917 E107.85634
G1 F600 E106.35634
G1 Z13.825
G0 F10500 X144.079 Y103.544
;TYPE:WALL-INNER
G1 Z13.725
G1 F600 E107.85634
G1 F660 X145.306 Y103.544 E107.89289
G1 X145.306 Y104.771 E107.92943
G1 X144.079 Y104.771 E107.96598
G1 X144.079 Y103.544 E108.00252
G0 F10500 X143.579 Y103.044
;TYPE:WALL-OUTER
G1 F540 X145.806 Y103.044 E108.06885
G1 X145.806 Y105.271 E108.13517
G1 X143.579 Y105.271 E108.20150
G1 X143.579 Y103.044 E108.26783
G0 F10500 X143.929 Y103.304
G0 X144.829 Y104.294
G0 X144.734 Y106.264
G0 X144.994 Y105.914
G1 F540 X144.994 Y107.403 E108.31218
G1 X144.391 Y107.403 E108.33014
G1 X144.391 Y105.914 E108.37448
G1 X144.994 Y105.914 E108.39244
G0 F10500 X144.818 Y106.204
;TYPE:FILL
G1 F780 X144.565 Y106.457 E108.40310
;LAYER:36
G1 F600 E106.90310
G1 Z13.825
G0 F10500 X143.297 Y46.773 Z14.105
;TYPE:WALL-INNER
G1 Z14.105
G1 F600 E108.40310
G1 F660 X142.070 Y46.773 E108.43964
G1 X142.070 Y45.547 E108.47616
G1 X143.297 Y45.547 E108.51270
G1 X143.297 Y46.773 E108.54922
G0 F10500 X143.797 Y47.273
;TYPE:WALL-OUTER
G1 F540 X141.570 Y47.273 E108.61554
G1 X141.570 Y45.047 E108.68184
G1 X143.797 Y45.047 E108.74817
G1 X143.797 Y47.273 E108.81447
G0 F10500 X143.447 Y47.013
G0 X142.547 Y46.023
G1 F600 E107.31447
G1 Z14.205
G0 F10500 X142.382 Y47.917
G1 Z14.105
G1 F600 E108.81447
G1 F540 X142.985 Y47.917 E108.83243
G1 X142.985 Y49.971 E108.89360
G1 X142.382 Y49.970 E108.91156
G1 X142.382 Y47.917 E108.97271
G1 F600 E107.47271
G1 Z14.205
G0 F10500 X144.079 Y103.544
;TYPE:WALL-INNER
G1 Z14.105
G1 F600 E108.97271
G1 F660 X145.306 Y103.544 E109.00925
G1 X145.306 Y104.771 E109.04580
G1 X144.079 Y104.771 E109.08234
G1 X144.079 Y103.544 E109.11888
G0 F10500 X143.579 Y103.044
;TYPE:WALL-OUTER
G1 F540 X145.806 Y103.044 E109.18521
G1 X145.806 Y105.271 E109.25154
G1 X143.579 Y105.271 E109.31787
G1 X143.579 Y103.044 E109.38419
G0 F10500 X143.929 Y103.304
G0 X144.829 Y104.294
G0 X144.734 Y106.264
G0 X144.644 Y106.174
G0 X144.994 Y105.914
G1 F540 X144.994 Y107.968 E109.44537
G1 X144.391 Y107.967 E109.46333
G1 X144.391 Y105.914 E109.52447
G1 X144.994 Y105.914 E109.54243
G0 F10500 X144.818 Y106.204
;TYPE:FILL
G1 F780 X144.565 Y106.457 E109.55309
;LAYER:37
G1 F600 E108.05309
G1 Z14.205
G0 F10500 X143.297 Y46.773 Z14.485
;TYPE:WALL-INNER
G1 Z14.485
G1 F600 E109.55309
G1 F660 X142.070 Y46.773 E109.58963
G1 X142.070 Y45.547 E109.62615
G1 X143.297 Y45.547 E109.66269
G1 X143.297 Y46.773 E109.69921
G0 F10500 X143.797 Y47.273
;TYPE:WALL-OUTER
G1 F540 X141.570 Y47.273 E109.76553
G1 X141.570 Y45.047 E109.83183
G1 X143.797 Y45.047 E109.89816
G1 X143.797 Y47.273 E109.96446
G0 F10500 X143.447 Y47.013
G0 X142.547 Y46.023
G1 F600 E108.46446
G1 Z14.585
G0 F10500 X142.382 Y47.917
G1 Z14.485
G1 F600 E109.96446
G1 F540 X142.985 Y47.917 E109.98242
G1 X142.985 Y50.534 E110.06036
G1 X142.382 Y50.533 E110.07832
G1 X142.382 Y47.917 E110.15623
G1 F600 E108.65623
G1 Z14.585
G0 F10500 X144.079 Y103.544
;TYPE:WALL-INNER
G1 Z14.485
G1 F600 E110.15623
G1 F660 X145.306 Y103.544 E110.19278
G1 X145.306 Y104.771 E110.22932
G1 X144.079 Y104.771 E110.26587
G1 X144.079 Y103.544 E110.30241
G0 F10500 X143.579 Y103.044
;TYPE:WALL-OUTER
G1 F540 X145.806 Y103.044 E110.36874
G1 X145.806 Y105.271 E110.43506
G1 X143.579 Y105.271 E110.50139
G1 X143.579 Y103.044 E110.56772
G0 F10500 X143.929 Y103.304
G0 X144.829 Y104.294
G0 X144.734 Y106.264
G0 X144.644 Y106.174
G0 X144.994 Y105.914
G1 F540 X144.994 Y108.532 E110.64569
G1 X144.391 Y108.531 E110.66365
G1 X144.391 Y105.914 E110.74160
G1 X144.994 Y105.914 E110.75955
G0 F10500 X144.818 Y106.204
;TYPE:FILL
G1 F780 X144.565 Y106.457 E110.77021
;LAYER:38
G1 F600 E109.27021
G1 Z14.585
G0 F10500 X143.297 Y46.773 Z14.865
;TYPE:WALL-INNER
G1 Z14.865
G1 F600 E110.77021
G1 F660 X142.070 Y46.773 E110.80676
G1 X142.070 Y45.547 E110.84327
G1 X143.297 Y45.547 E110.87981
G1 X143.297 Y46.773 E110.91633
G0 F10500 X143.797 Y47.273
;TYPE:WALL-OUTER
G1 F540 X141.570 Y47.273 E110.98266
G1 X141.570 Y45.047 E111.04895
G1 X143.797 Y45.047 E111.11528
G1 X143.797 Y47.273 E111.18158
G0 F10500 X143.447 Y47.013
G0 X142.547 Y46.023
G1 F600 E109.68158
G1 Z14.965
G0 F10500 X142.382 Y47.917
G1 Z14.865
G1 F600 E111.18158
G1 F540 X142.985 Y47.917 E111.19954
G1 X142.985 Y51.098 E111.29428
G1 X142.382 Y51.097 E111.31224
G1 X142.382 Y47.917 E111.40695
G1 F600 E109.90695
G1 Z14.965
G0 F10500 X144.079 Y103.544
;TYPE:WALL-INNER
G1 Z14.865
G1 F600 E111.40695
G1 F660 X145.306 Y103.544 E111.44349
G1 X145.306 Y104.771 E111.48004
G1 X144.079 Y104.771 E111.51658
G1 X144.079 Y103.544 E111.55313
G0 F10500 X143.579 Y103.044
;TYPE:WALL-OUTER
G1 F540 X145.806 Y103.044 E111.61945
G1 X145.806 Y105.271 E111.68578
G1 X143.579 Y105.271 E111.75211
G1 X143.579 Y103.044 E111.81844
G0 F10500 X143.929 Y103.304
G0 X144.829 Y104.294
G0 X144.734 Y106.264
G0 X144.644 Y106.174
G0 X144.994 Y105.914
G1 F540 X144.994 Y109.096 E111.91321
G1 X144.391 Y109.095 E111.93117
G1 X144.391 Y105.914 E112.02591
G1 X144.994 Y105.914 E112.04387
G0 F10500 X144.818 Y106.204
;TYPE:FILL
G1 F780 X144.565 Y106.457 E112.05452
;LAYER:39
G1 F600 E110.55452
G1 Z14.965
G0 F10500 X143.297 Y46.773 Z15.245
;TYPE:WALL-INNER
G1 Z15.245
G1 F600 E112.05452
G1 F660 X142.070 Y46.773 E112.09107
G1 X142.070 Y45.547 E112.12758
G1 X143.297 Y45.547 E112.16413
G1 X143.297 Y46.773 E112.20064
G0 F10500 X143.797 Y47.273
;TYPE:WALL-OUTER
G1 F540 X141.570 Y47.273 E112.26697
G1 X141.570 Y45.047 E112.33327
G1 X143.797 Y45.047 E112.39959
G1 X143.797 Y47.273 E112.46589
G0 F10500 X143.447 Y47.013
G0 X142.547 Y46.023
G1 F600 E110.96589
G1 Z15.345
G0 F10500 X142.382 Y47.917
G1 Z15.245
G1 F600 E112.46589
G1 F540 X142.985 Y47.917 E112.48385
G1 X142.985 Y51.292 E112.58437
G1 X142.382 Y51.292 E112.60233
G1 X142.382 Y47.917 E112.70285
G1 F600 E111.20285
G1 Z15.345
G0 F10500 X144.079 Y103.544
;TYPE:WALL-INNER
G1 Z15.245
G1 F600 E112.70285
G1 F660 X145.306 Y103.544 E112.73939
G1 X145.306 Y104.771 E112.77594
G1 X144.079 Y104.771 E112.81248
G1 X144.079 Y103.544 E112.84903
G0 F10500 X143.579 Y103.044
;TYPE:WALL-OUTER
G1 F540 X145.806 Y103.044 E112.91535
G1 X145.806 Y105.271 E112.98168
G1 X143.579 Y105.271 E113.04801
G1 X143.579 Y103.044 E113.11434
G0 F10500 X143.929 Y103.304
G0 X144.829 Y104.294
G0 X144.734 Y106.264
G0 X144.644 Y106.174
G0 X144.994 Y105.914
G1 F540 X144.994 Y109.290 E113.21488
G1 X144.391 Y109.290 E113.23284
G1 X144.391 Y105.914 E113.33339
G1 X144.994 Y105.914 E113.35135
G0 F10500 X144.818 Y106.204
;TYPE:FILL
G1 F780 X144.565 Y106.457 E113.36201
;LAYER:40
G1 F600 E111.86201
G1 Z15.345
G0 F10500 X143.297 Y46.773 Z15.625
;TYPE:WALL-INNER
G1 Z15.625
G1 F600 E113.36201
G1 F660 X142.070 Y46.773 E113.39855
G1 X142.070 Y45.547 E113.43507
G1 X143.297 Y45.547 E113.47161
G1 X143.297 Y46.773 E113.50813
G0 F10500 X143.797 Y47.273
;TYPE:WALL-OUTER
G1 F540 X141.570 Y47.273 E113.57445
G1 X141.570 Y45.047 E113.64075
G1 X143.797 Y45.047 E113.70708
G1 X143.797 Y47.273 E113.77338
G0 F10500 X143.447 Y47.013
G0 X142.547 Y46.023
G1 F600 E112.27338
G1 Z15.725
G0 F10500 X142.382 Y47.917
G1 Z15.625
G1 F600 E113.77338
G1 F540 X142.985 Y47.917 E113.79134
G1 X142.985 Y50.804 E113.87732
G1 X142.382 Y50.804 E113.89528
G1 X142.382 Y47.917 E113.98126
G1 F600 E112.48126
G1 Z15.725
G0 F10500 X144.079 Y103.544
;TYPE:WALL-INNER
G1 Z15.625
G1 F600 E113.98126
G1 F660 X145.306 Y103.544 E114.01781
G1 X145.306 Y104.771 E114.05435
G1 X144.079 Y104.771 E114.09090
G1 X144.079 Y103.544 E114.12744
G0 F10500 X143.579 Y103.044
;TYPE:WALL-OUTER
G1 F540 X145.806 Y103.044 E114.19377
G1 X145.806 Y105.271 E114.26010
G1 X143.579 Y105.271 E114.32642
G1 X143.579 Y103.044 E114.39275
G0 F10500 X143.929 Y103.304
G0 X144.829 Y104.294
G0 X144.734 Y106.264
G0 X144.644 Y106.174
G0 X144.994 Y105.914
G1 F540 X144.994 Y108.801 E114.47874
G1 X144.391 Y108.801 E114.49670
G1 X144.391 Y105.914 E114.58268
G1 X144.994 Y105.914 E114.60064
G0 F10500 X144.818 Y106.204
;TYPE:FILL
G1 F780 X144.565 Y106.457 E114.61130
;LAYER:41
G1 F600 E113.11130
G1 Z15.725
G0 F10500 X143.297 Y46.773 Z16.005
;TYPE:WALL-INNER
G1 Z16.005
G1 F600 E114.61130
G1 F660 X142.070 Y46.773 E114.64784
G1 X142.070 Y45.547 E114.68435
G1 X143.297 Y45.547 E114.72090
G1 X143.297 Y46.773 E114.75741
G0 F10500 X143.797 Y47.273
;TYPE:WALL-OUTER
G1 F540 X141.570 Y47.273 E114.82374
G1 X141.570 Y45.047 E114.89004
G1 X143.797 Y45.047 E114.95637
G1 X143.797 Y47.273 E115.02266
G0 F10500 X143.447 Y47.013
G0 X142.547 Y46.023
G1 F600 E113.52266
G1 Z16.105
G0 F10500 X142.382 Y47.917
G1 Z16.005
G1 F600 E115.02266
G1 F540 X142.985 Y47.917 E115.04062
G1 X142.985 Y50.240 E115.10981
G1 X142.382 Y50.241 E115.12777
G1 X142.382 Y47.917 E115.19699
G1 F600 E113.69699
G1 Z16.105
G0 F10500 X144.079 Y103.544
;TYPE:WALL-INNER
G1 Z16.005
G1 F600 E115.19699
G1 F660 X145.306 Y103.544 E115.23353
G1 X145.306 Y104.771 E115.27007
G1 X144.079 Y104.771 E115.30662
G1 X144.079 Y103.544 E115.34316
G0 F10500 X143.579 Y103.044
;TYPE:WALL-OUTER
G1 F540 X145.806 Y103.044 E115.40949
G1 X145.806 Y105.271 E115.47582
G1 X143.579 Y105.271 E115.54215
G1 X143.579 Y103.044 E115.60847
G0 F10500 X143.929 Y103.304
G0 X144.829 Y104.294
G0 X144.734 Y106.264
G0 X144.644 Y106.174
G0 X144.994 Y105.914
G1 F540 X144.994 Y108.238 E115.67769
G1 X144.391 Y108.239 E115.69565
G1 X144.391 Y105.914 E115.76490
G1 X144.994 Y105.914 E115.78286
G0 F10500 X144.818 Y106.204
;TYPE:FILL
G1 F780 X144.565 Y106.457 E115.79351
;LAYER:42
G1 F600 E114.29351
G1 Z16.105
G0 F10500 X143.297 Y46.773 Z16.385
;TYPE:WALL-INNER
G1 Z16.385
G1 F600 E115.79351
G1 F660 X142.070 Y46.773 E115.83006
G1 X142.070 Y45.547 E115.86657
G1 X143.297 Y45.547 E115.90311
G1 X143.297 Y46.773 E115.93963
G0 F10500 X143.797 Y47.273
;TYPE:WALL-OUTER
G1 F540 X141.570 Y47.273 E116.00596
G1 X141.570 Y45.047 E116.07225
G1 X143.797 Y45.047 E116.13858
G1 X143.797 Y47.273 E116.20488
G0 F10500 X143.447 Y47.013
G0 X142.547 Y46.023
G1 F600 E114.70488
G1 Z16.485
G0 F10500 X142.382 Y47.917
G1 Z16.385
G1 F600 E116.20488
G1 F540 X142.985 Y47.917 E116.22284
G1 X142.985 Y49.677 E116.27526
G1 X142.382 Y49.678 E116.29322
G1 X142.382 Y47.917 E116.34567
G1 F600 E114.84567
G1 Z16.485
G0 F10500 X144.079 Y103.544
;TYPE:WALL-INNER
G1 Z16.385
G1 F600 E116.34567
G1 F660 X145.306 Y103.544 E116.38221
G1 X145.306 Y104.771 E116.41875
G1 X144.079 Y104.771 E116.45530
G1 X144.079 Y103.544 E116.49184
G0 F10500 X143.579 Y103.044
;TYPE:WALL-OUTER
G1 F540 X145.806 Y103.044 E116.55817
G1 X145.806 Y105.271 E116.62450
G1 X143.579 Y105.271 E116.69083
G1 X143.579 Y103.044 E116.75715
G0 F10500 X143.929 Y103.304
G0 X144.829 Y104.294
G0 X144.734 Y106.264
G0 X144.644 Y106.174
G0 X144.994 Y105.914
G1 F540 X144.994 Y107.674 E116.80957
G1 X144.391 Y107.675 E116.82753
G1 X144.391 Y105.914 E116.87998
G1 X144.994 Y105.914 E116.89794
G0 F10500 X144.818 Y106.204
;TYPE:FILL
G1 F780 X144.565 Y106.457 E116.90860
;LAYER:43
G1 F600 E115.40860
G1 Z16.485
G0 F10500 X143.297 Y46.773 Z16.765
;TYPE:WALL-INNER
G1 Z16.765
G1 F600 E116.90860
G1 F660 X142.070 Y46.773 E116.94514
G1 X142.070 Y45.547 E116.98165
G1 X143.297 Y45.547 E117.01820
G1 X143.297 Y46.773 E117.05471
G0 F10500 X143.797 Y47.273
;TYPE:WALL-OUTER
G1 F540 X141.570 Y47.273 E117.12104
G1 X141.570 Y45.047 E117.18734
G1 X143.797 Y45.047 E117.25367
G1 X143.797 Y47.273 E117.31996
G0 F10500 X143.447 Y47.013
G0 X142.547 Y46.023
G1 F600 E115.81996
G1 Z16.865
G0 F10500 X142.382 Y47.917
G1 Z16.765
G1 F600 E117.31996
G1 F540 X142.985 Y47.917 E117.33792
G1 X142.985 Y49.113 E117.37354
G1 X142.382 Y49.114 E117.39150
G1 X142.382 Y47.917 E117.42715
G1 F600 E115.92715
G1 Z16.865
G0 F10500 X144.079 Y103.544
;TYPE:WALL-INNER
G1 Z16.765
G1 F600 E117.42715
G1 F660 X145.306 Y103.544 E117.46370
G1 X145.306 Y104.771 E117.50024
G1 X144.079 Y104.771 E117.53679
G1 X144.079 Y103.544 E117.57333
G0 F10500 X143.579 Y103.044
;TYPE:WALL-OUTER
G1 F540 X145.806 Y103.044 E117.63966
G1 X145.806 Y105.271 E117.70599
G1 X143.579 Y105.271 E117.77231
G1 X143.579 Y103.044 E117.83864
G0 F10500 X143.929 Y103.304
G0 X144.829 Y104.294
G0 X144.734 Y106.264
G0 X144.644 Y106.174
G0 X144.994 Y105.914
G1 F540 X144.994 Y107.110 E117.87426
G1 X144.391 Y107.111 E117.89222
G1 X144.391 Y105.914 E117.92787
G1 X144.994 Y105.914 E117.94583
G0 F10500 X144.818 Y106.204
;TYPE:FILL
G1 F780 X144.565 Y106.457 E117.95649
;LAYER:44
G1 F600 E116.45649
G1 Z16.865
G0 F10500 X143.297 Y46.773 Z17.145
;TYPE:WALL-INNER
G1 Z17.145
G1 F600 E117.95649
G1 F660 X142.070 Y46.773 E117.99303
G1 X142.070 Y45.547 E118.02955
G1 X143.297 Y45.547 E118.06609
G1 X143.297 Y46.773 E118.10261
G0 F10500 X143.797 Y47.273
;TYPE:WALL-OUTER
G1 F540 X141.570 Y47.273 E118.16893
G1 X141.570 Y45.047 E118.23523
G1 X143.797 Y45.047 E118.30156
G1 X143.797 Y47.273 E118.36786
G0 F10500 X143.118 Y46.598
;TYPE:SKIN
G1 F960 X142.244 Y45.724 E118.40467
G0 F10500 X142.948 Y45.721
G1 F960 X142.766 Y46.246 E118.41192
G1 X142.244 Y46.431 E118.42841
G0 F10500 X142.382 Y47.917
;TYPE:WALL-OUTER
G1 F540 X142.985 Y47.917 E118.44637
G1 X142.985 Y48.549 E118.46519
G1 X142.382 Y48.550 E118.48315
G1 X142.382 Y47.917 E118.50201
G1 F600 E117.00201
G1 Z17.245
G0 F10500 X144.079 Y103.544
;TYPE:WALL-INNER
G1 Z17.145
G1 F600 E118.50201
G1 F660 X145.306 Y103.544 E118.53855
G1 X145.306 Y104.771 E118.57509
G1 X144.079 Y104.771 E118.61164
G1 X144.079 Y103.544 E118.64818
G0 F10500 X143.579 Y103.044
;TYPE:WALL-OUTER
G1 F540 X145.806 Y103.044 E118.71451
G1 X145.806 Y105.271 E118.78084
G1 X143.579 Y105.271 E118.84717
G1 X143.579 Y103.044 E118.91349
G0 F10500 X144.377 Y103.719
;TYPE:SKIN
G1 F960 X145.130 Y104.471 E118.94519
G0 F10500 X144.547 Y104.595
G1 F960 X144.253 Y104.301 E118.95757
G0 F10500 X144.651 Y106.264
G0 X144.741 Y106.174
G0 X144.391 Y105.914
;TYPE:WALL-OUTER
G1 F540 X144.994 Y105.914 E118.97553
G1 X144.994 Y106.547 E118.99438
G1 X144.391 Y106.548 E119.01234
G1 X144.391 Y105.914 E119.03123
G0 F10500 X144.818 Y106.204
;TYPE:FILL
G1 F780 X144.649 Y106.373 E119.03834
;LAYER:45
G1 F600 E117.53834
G1 Z17.245
G0 F10500 X143.297 Y46.773 Z17.525
;TYPE:WALL-INNER
G1 Z17.525
G1 F600 E119.03834
G1 F660 X142.070 Y46.773 E119.07489
G1 X142.070 Y45.547 E119.11140
G1 X143.297 Y45.547 E119.14795
G1 X143.297 Y46.773 E119.18446
G0 F10500 X143.797 Y47.273
;TYPE:WALL-OUTER
G1 F540 X141.570 Y47.273 E119.25079
G1 X141.570 Y45.047 E119.31709
G1 X143.797 Y45.047 E119.38342
G1 X143.797 Y47.273 E119.44971
G0 F10500 X143.121 Y46.029
;TYPE:SKIN
G1 F960 X142.398 Y46.398 E119.47365
G1 X142.722 Y45.721 E119.49600
G1 F600 E117.99600
G1 Z17.625
G0 F10500 X142.985 Y47.917
;TYPE:WALL-OUTER
G1 Z17.525
G1 F600 E119.49600
G1 F540 X142.985 Y47.986 E119.49806
G1 X142.382 Y47.987 E119.51602
G1 X142.382 Y47.917 E119.51810
G1 X142.985 Y47.917 E119.53606
G1 F600 E118.03606
G1 Z17.625
G0 F10500 X144.079 Y103.544
;TYPE:WALL-INNER
G1 Z17.525
G1 F600 E119.53606
G1 F660 X145.306 Y103.544 E119.57260
G1 X145.306 Y104.771 E119.60915
G1 X144.079 Y104.771 E119.64569
G1 X144.079 Y103.544 E119.68224
G0 F10500 X143.579 Y103.044
;TYPE:WALL-OUTER
G1 F540 X145.806 Y103.044 E119.74856
G1 X145.806 Y105.271 E119.81489
G1 X143.579 Y105.271 E119.88122
G1 X143.579 Y103.044 E119.94755
G0 F10500 X144.828 Y103.719
;TYPE:SKIN
G1 F960 X144.456 Y104.444 E119.97177
G1 X145.130 Y104.125 E119.99398
G1 F600 E118.49398
G1 Z17.625
G0 F10500 X144.994 Y105.914
;TYPE:WALL-OUTER
G1 Z17.525
G1 F600 E119.99398
G1 F540 X144.994 Y105.983 E119.99603
G1 X144.391 Y105.984 E120.01399
G1 X144.391 Y105.914 E120.01608
G1 X144.994 Y105.914 E120.03403
;LAYER:46
G1 F600 E118.53403
G1 Z17.625
G0 F10500 X143.297 Y46.773 Z17.905
;TYPE:WALL-INNER
G1 Z17.905
G1 F600 E120.03403
G1 F660 X142.070 Y46.773 E120.07058
G1 X142.070 Y45.547 E120.10709
G1 X143.297 Y45.547 E120.14364
G1 X143.297 Y46.773 E120.18015
G0 F10500 X143.797 Y47.273
;TYPE:WALL-OUTER
G1 F540 X141.570 Y47.273 E120.24648
G1 X141.570 Y45.047 E120.31278
G1 X143.797 Y45.047 E120.37911
G1 X143.797 Y47.273 E120.44540
G0 F10500 X143.118 Y46.598
;TYPE:SKIN
G1 F960 X142.244 Y45.724 E120.48222
G0 F10500 X142.948 Y45.721
G1 F960 X142.766 Y46.246 E120.48946
G1 X142.244 Y46.431 E120.50596
G1 F600 E119.00596
G1 Z18.005
G0 F10500 X144.079 Y103.544
;TYPE:WALL-INNER
G1 Z17.905
G1 F600 E120.50596
G1 F660 X145.306 Y103.544 E120.54250
G1 X145.306 Y104.771 E120.57905
G1 X144.079 Y104.771 E120.61559
G1 X144.079 Y103.544 E120.65214
G0 F10500 X143.579 Y103.044
;TYPE:WALL-OUTER
G1 F540 X145.806 Y103.044 E120.71846
G1 X145.806 Y105.271 E120.78479
G1 X143.579 Y105.271 E120.85112
G1 X143.579 Y103.044 E120.91745
G0 F10500 X144.377 Y103.719
;TYPE:SKIN
G1 F960 X145.130 Y104.471 E120.94914
G0 F10500 X144.547 Y104.595
G1 F960 X144.253 Y104.301 E120.96152
M107
G1 F600 E119.46152
G1 Z18.005
G0 F10500 X144.253 Y104.301 Z22.988
M400
M104 S0                                      ; hotend off
M140 S0                                      ; heated bed heater off (if you have it)
M107                                         ; fans off
G92 E5                                       ; set extruder to 5mm for retract on print end
G1 X5 Y5 Z158 E0 F10000                      ; move to cooling positioning
M190 R50                                     ; wait for bed to cool
M140 S0                                      ;
G1 X145 F1000                                ; move to cooling positioning
G1 Y175 F1000                                ; move to cooling positioning
M84                                          ; steppers off
G90                                          ; absolute positioning
;CURA_PROFILE_STRING:eNrtWltv28gVfhWE/oh53EVjlaTE2A7Bh03WNhaIF0Hsol6/ECNyJE3DG8ihZdnQf+93hheRMqXKbbpNdpUHxzw6tznXb2iFfCUybyHkfKFcYzQ+Gyx5GHpqIf0vschz1xxkQmXcVzKJPRHzaSjc26wQgzwJZeCFWr7NPpOQD0ScS7VyLWOQikxGQoFrKmZJJjwZE0upJE6enkLh5fJJwLo9SDMZKy9PhQhc26gelYighKsiE1Bov6Rabg/ruI846SPaDXEqgo61t8YgL9I0yZT7axKLQRpyhTNEHg8WIkdESnLF4wUFDz3xqLJCf/Y+UYvBUqbCU8lSZO4lD3PRIngPSVhEwjXtQZI8IQoLKcKgYkOMeCTgUyC5Dp9rjc7sl2Q6+wviuI846SPabeIsTJauaRgjo530Mhtmh8ajpIiVayJlLao+f/3R2+5nkYw9PDyIcFvKT6KpjOfuT2G4JSCjTjzhl9GRXCQpiOZgmiiVRK0qNEYTyx7o2jS8pQzUwptBJslcE/Rk+k/ho8pk/IV0DpIHkYU81e6TPntQOlqf/NSuLZTVXpHtQVnJ1fPEKFuCZ4JXJFIu41wooyKMq+fH+tke+EkS6uBUnYReoa6Z8brbgqrdvkhUWChjgYDpAFekOU/dMQyVT3XUQhHP1cK17FLVrICfTZfbmla6cNp68CL+SPnfODUDFb0gKP2auBAcTS9nqirTcgooJKI1FMpolRQdoSrCFLO6V9QqFe5HHCdvSDyeY7hMNjxaVpsfN43oPa5QvLnisU8j47ShP7XJqJM8lRkPabBUnsooxaiJkqCmTDGYOhFFifMZYsizuYxde1Q9a5Y85T5V6bimTnkuOiU3btFJRNcdir3ix3wRGaqwK2Sdbn+6EUUVlx9ymSHLHgazLqkWTSdTP+dFJU5llLtWl9pnspHoGJzJR/RVlkmUnlfEutlpISBdHq9Tuptl2oyvNg8ikqQi9qZS5X0M6HFaGA8Is5LKX1CgS7Y0LJALJAitNnfr1vUFhct7dE/MLdKKSGWqr5HpG6EUlOVui/YpS1BY6DIvxijnYeuja9RaJjEFTA+jvueDW6ra9wIuxSL7C8otU6O5TyXl3C5kzq7od7bgOZsKEbO5iGmViIChv3w5kz4CtWJYIUwtBPtYhE9YEuwaTTt03vNc+iyvPH7HPlImWdm079hz2NrUa/YPKALPc3dbr9klWgbk9hJeD53LasKzn6uxX7J0VwH4ftXrmN2ga8DRWs7r4ZVlsp3/HAYNGbx/4GEh8uHVubGPmU8xJwolWJrAQdQPDjy8PrP2ySAuTK+CAEFRyUYHNfTw2jRO9wlTothSqoWOOwYeS2YzuGmxC+Mwk7WrZNuAvYnBbp57UcPaQd4VCiBA8jglkxUp4ne273iLJBIMuaSTnLMbUr/TJ3jgh4JT1BjZZTwO2JJLNbwy2b1pG+ziZGywy1N7W7jwv8AXdncXRQgAq0vg3xmlY5BcJnJFcku+IlN3E5v9Zp5O2KVp2pbRrQeMfIQAnYza9zOO4GjvwHVpWobRY+XD519uf/nw08d3+pD3dMyy2skkNgz911LVWL8/GdnscmI0Sh1kOqXgOAzjI54LhiwlRETF8UAL21rY2i3cNWF0eLa4al1dll269nP9/rreGofoOjO+TV3nB+k6O0gXkE+/su9Cl2nuUPZ96DKbhjSoI82a1yn7Ng/pxqQn3bTIVgy7CV1dzcF8wQh1l+Nv9zzPuMwFe9Kj+A5OGXtG8aM2tTpwHKdZMq2n8fDaMibsZmzsEAEkafi574uQ1gYWC9w637chAFumolJuGb3aHfYZExp3bFp4MW4iwZYFGgoIs63DdGl3tJRbKymUXpF6xMOSuduhlAPXDa8nhrHHa0pQhpTNZpjaZTCfX1zA130rvrvYyBV7pxXi0aiKli7yoYVp6aIg9Irf3oWlWGWs2YNsyrEg9bIosc+he56o5Z5nQZHRbzOZYVdqzDYQcVCBRB0tCgOOswchbdcjwHGgAUvpzuGSQmPPGokgqlDCfpAztkoKoFSsaKl+3A+eXmoFeso38Mk+WG4bwdkAIZSz6kLPgK10nBlOW5cqVap9pjNIE8HYCT8JbhAuwh2Vwt8BliaWxGfbONDN7Voila8MfDnRJu0xttfkPu+hCnPxq6i6PpuwV+Q5VyJFrde5Nl4j24vwHfSRvnrhlkdNsh5oXG7VN6ibUPqIOafbTsBXa/qpMBye6aXI+n96QfqkC4/s4LNqPpVGm6sThl3QvjaV77nWUYu0LG3PW1J+kqu2FD1Dq67JXXOFOX+P/STS8nTTCQLqVzTvMm6mTcXL6PJO6mii9A3WPap61ZyzW7NPk/UfqTL+e6da905n5yXT6b9Rbuaas+sGuIECjm6du7/9Rj5FwBYYQ1imaa6Z7is0opnuX7Loi9cIY+q5/e5wXQmQyfrdMQvonCam3/B2x3Z1bpb0FkRvMkhamP714Nx5Z3WeRFayV6wBK98Bkm+XdOO62IJGTr3+TKO6Dgp6UaES/8vrrTA+5zLe2Dp57n8vvB7eGgcdulyg39Gxu4nHSClUuc9oDEeYPRwXUey4jx9+pmusEDEK1Dxlnyqe0WhESKGZhhfI+tWH6uXGRPdSf+ScZqlulnwlY75SZveScw7EElfn5kEbIhNoB/kgtnfdxQlCOd6/6ZwaMZR1Uk1azqaS0Bj9jYnRG2oNyMFRQrk3VFiwKjjuADlBfHqrQH2ZITcYN7qH/0qXj4sTm92dWBgL9KO/o+8J65UmCaTWHjXeiAcRYxmT2n23jdahdo2fN/BWO0qv3pnMNUSvfCeUvm+rOwfvcOc1G3t83NjHjf3n3NjWn3FjH2HKEaZswZTx/xOmkIx1hDZHaPP1oc3kCG2+KWhjfT1oc0RJvxtKGh+0Oydw+g8EGA6DhuM/1qGP0PAIDbeg4eR7g4YkMz7CySOc/LpwsvpeavtLgg1x8yfh8mu1HSZNaXFkAjvWFyM/f3AHSEI5Zi6qumwAazl8pkIt6auHdGi/yDId4rqEKQE60aA01DdsuRDxptM1mIiKUMk0bMZFlo+G5Vcc9Tcc8T/gja5yXUWk9PaH+McBYqK+Jf/4jBqwdu9fGWOHTg==

