;This Gcode has been generated specifically for the LulzBot Mini
;Basic settings: Layer height: 0.38 Walls: 1 Fill: 0
;Filament Diameter: 2.85
;Nozzle Size: 0.5
G21                          ; metric values
G90                          ; absolute positioning
M82                          ; set extruder to absolute mode
M107                         ; start with the fan off
G92 E0                       ; set extruder position to 0
M140 S60; get bed heating up
G28                          ; home all
M109 S140                    ; set to cleaning temp and wait
G1 Z150 E-30 F75             ; suck up XXmm of filament
M109 S140                    ; heat up rest of way
G1 X45 Y174 F11520           ; move behind scraper
G1 Z0  F1200                 ; CRITICAL: set Z to height of top of scraper
G1 X45 Y174 Z-.5 F4000       ; wiping ; plunge into wipe pad
G1 X55 Y172 Z-.5 F4000       ; wiping
G1 X45 Y174 Z0 F4000         ; wiping
G1 X55 Y172 F4000            ; wiping
G1 X45 Y174 F4000            ; wiping
G1 X55 Y172 F4000            ; wiping
G1 X45 Y174 F4000            ; wiping
G1 X55 Y172 F4000            ; wiping
G1 X60 Y174 F4000            ; wiping
G1 X80 Y172 F4000            ; wiping
G1 X60 Y174 F4000            ; wiping
G1 X80 Y172 F4000            ; wiping
G1 X60 Y174 F4000            ; wiping
G1 X90 Y172 F4000            ; wiping
G1 X80 Y174 F4000            ; wiping
G1 X100 Y172 F4000           ; wiping
G1 X80 Y174 F4000            ; wiping
G1 X100 Y172 F4000           ; wiping
G1 X80 Y174 F4000            ; wiping
G1 X100 Y172 F4000           ; wiping
G1 X110 Y174 F4000           ; wiping
G1 X100 Y172 F4000           ; wiping
G1 X110 Y174 F4000           ; wiping
G1 X100 Y172 F4000           ; wiping
G1 X110 Y174 F4000           ; wiping
G1 X115 Y172 Z-0.5 F1000     ; wipe slower and bury noz in cleanish area
G1 Z10                       ; raise z
G28 X0 Y0                    ; home x and y
M109 S140                    ; set to probing temp
M204 S300                    ; Set probing acceleration
G29                          ; Probe
M204 S2000                   ; Restore standard acceleration
G1 X5 Y15 Z10 F5000          ; get out the way
G4 S1                        ; pause
M400                         ; clear buffer
M109 S205    ; set extruder temp and wait
G4 S15                       ; wait for bed to temp up
G1 Z2 E0 F75                 ; extrude filament back into nozzle
M140 S60; get bed temping up during first layer

;Layer count: 47
;LAYER:0
M107
G0 F10500 X37.321 Y1.670 Z0.425
;TYPE:SKIRT
G1 F900 X42.026 Y1.640 E0.19591
G1 X54.764 Y1.642 E0.72629
G1 X54.794 Y6.347 E0.92221
G1 X54.792 Y19.085 E1.45259
G1 X50.087 Y19.115 E1.64850
G1 X37.349 Y19.113 E2.17888
G1 X37.319 Y14.408 E2.37479
G1 X37.321 Y1.670 E2.90518
G0 F10500 X37.945 Y2.291
G1 F900 X42.028 Y2.265 E3.07519
G1 X54.143 Y2.266 E3.57963
G1 X54.169 Y6.349 E3.74965
G1 X54.168 Y18.464 E4.25409
G1 X50.085 Y18.490 E4.42410
G1 X37.970 Y18.489 E4.92854
G1 X37.944 Y14.406 E5.09856
G1 X37.945 Y2.291 E5.60300
G0 F10500 X38.570 Y2.912
G1 F900 X42.030 Y2.890 E5.74707
G1 X53.522 Y2.891 E6.22557
G1 X53.544 Y6.351 E6.36964
G1 X53.543 Y17.843 E6.84815
G1 X50.083 Y17.865 E6.99222
G1 X38.591 Y17.864 E7.47072
G1 X38.569 Y14.404 E7.61479
G1 X38.570 Y2.912 E8.09329
G0 F10500 X101.679 Y2.208
G1 F900 X106.384 Y2.178 E8.28920
G1 X119.122 Y2.180 E8.81959
G1 X119.152 Y6.885 E9.01550
G1 X119.150 Y19.623 E9.54588
G1 X114.445 Y19.653 E9.74179
G1 X101.707 Y19.651 E10.27218
G1 X101.677 Y14.946 E10.46809
G1 X101.679 Y2.208 E10.99847
G0 F10500 X102.303 Y2.829
G1 F900 X106.386 Y2.803 E11.16848
G1 X118.501 Y2.804 E11.67293
G1 X118.527 Y6.887 E11.84294
G1 X118.526 Y19.002 E12.34738
G1 X114.443 Y19.028 E12.51739
G1 X102.328 Y19.027 E13.02184
G1 X102.302 Y14.944 E13.19185
G1 X102.303 Y2.829 E13.69629
G0 F10500 X102.928 Y3.450
G1 F900 X106.388 Y3.428 E13.84036
G1 X117.880 Y3.429 E14.31887
G1 X117.902 Y6.889 E14.46294
G1 X117.901 Y18.381 E14.94144
G1 X114.441 Y18.403 E15.08551
G1 X102.949 Y18.402 E15.56401
G1 X102.927 Y14.942 E15.70808
G1 X102.928 Y3.450 E16.18659
G1 F600 E14.68659
G1 Z0.525
G0 F10500 X49.295 Y7.140
;TYPE:WALL-INNER
G1 Z0.425
G1 F600 E16.18659
G1 F900 X49.294 Y13.616 E16.45623
G1 X42.818 Y13.615 E16.72588
G1 X42.819 Y7.139 E16.99553
G1 X49.295 Y7.140 E17.26518
G0 F10500 X49.920 Y6.515
;TYPE:WALL-OUTER
G1 F900 X49.919 Y14.241 E17.58687
G1 X42.193 Y14.240 E17.90857
G1 X42.194 Y6.514 E18.23026
G1 X49.920 Y6.515 E18.55196
G0 F10500 X49.597 Y6.927
G0 X49.075 Y7.975
;TYPE:SKIN
G1 F900 X48.458 Y7.358 E18.58829
G0 F10500 X47.574 Y7.358
G1 F900 X49.075 Y8.859 E18.67667
G0 F10500 X49.075 Y9.743
G1 F900 X46.690 Y7.358 E18.81711
G0 F10500 X45.807 Y7.358
G1 F900 X49.075 Y10.627 E19.00958
G0 F10500 X49.075 Y11.510
G1 F900 X44.923 Y7.358 E19.25407
G0 F10500 X44.039 Y7.358
G1 F900 X49.075 Y12.394 E19.55061
G0 F10500 X49.075 Y13.278
G1 F900 X43.155 Y7.358 E19.89921
G0 F10500 X43.036 Y8.123
G1 F900 X48.308 Y13.396 E20.20968
G0 F10500 X47.424 Y13.396
G1 F900 X43.036 Y9.007 E20.46810
G0 F10500 X43.036 Y9.891
G1 F900 X46.541 Y13.396 E20.67449
G0 F10500 X45.657 Y13.396
G1 F900 X43.036 Y10.775 E20.82883
G0 F10500 X43.036 Y11.659
G1 F900 X44.773 Y13.396 E20.93111
G0 F10500 X43.889 Y13.396
G1 F900 X43.036 Y12.543 E20.98134
G1 F600 E19.48134
G1 Z0.525
G0 F10500 X107.176 Y14.153
;TYPE:WALL-INNER
G1 Z0.425
G1 F600 E20.98134
G1 F900 X107.177 Y7.677 E21.25099
G1 X113.653 Y7.678 E21.52064
G1 X113.652 Y14.154 E21.79028
G1 X107.176 Y14.153 E22.05993
G0 F10500 X106.551 Y14.778
;TYPE:WALL-OUTER
G1 F900 X106.552 Y7.052 E22.38163
G1 X114.278 Y7.053 E22.70332
G1 X114.277 Y14.779 E23.02502
G1 X106.551 Y14.778 E23.34671
G0 F10500 X106.874 Y14.366
G0 X107.393 Y13.261
;TYPE:SKIN
G1 F900 X108.067 Y13.934 E23.38637
G0 F10500 X108.951 Y13.934
G1 F900 X107.393 Y12.377 E23.47808
G0 F10500 X107.393 Y11.493
G1 F900 X109.834 Y13.934 E23.62182
G0 F10500 X110.718 Y13.934
G1 F900 X107.394 Y10.610 E23.81755
G0 F10500 X107.394 Y9.726
G1 F900 X111.602 Y13.934 E24.06534
G0 F10500 X112.486 Y13.934
G1 F900 X107.394 Y8.842 E24.36519
G0 F10500 X107.394 Y7.958
G1 F900 X113.370 Y13.934 E24.71708
G0 F10500 X113.432 Y13.112
G1 F900 X108.216 Y7.896 E25.02423
G0 F10500 X109.100 Y7.896
G1 F900 X113.432 Y12.228 E25.27932
G0 F10500 X113.432 Y11.344
G1 F900 X109.984 Y7.896 E25.48235
G0 F10500 X110.868 Y7.896
G1 F900 X113.432 Y10.460 E25.63333
G0 F10500 X113.432 Y9.577
G1 F900 X111.752 Y7.896 E25.73229
G0 F10500 X112.636 Y7.896
G1 F900 X113.432 Y8.693 E25.77919
;LAYER:1
M106 S239
G1 F600 E24.27919
G1 Z0.525
G0 F10500 X49.199 Y7.236 Z0.805
;TYPE:WALL-INNER
G1 Z0.805
G1 F600 E25.77919
G1 F660 X49.198 Y13.520 E25.96635
G1 X42.914 Y13.519 E26.15351
G1 X42.915 Y7.235 E26.34067
G1 X49.199 Y7.236 E26.52782
G0 F10500 X49.698 Y6.736
;TYPE:WALL-OUTER
G1 F660 X49.698 Y14.019 E26.74474
G1 X42.415 Y14.019 E26.96165
G1 X42.415 Y6.736 E27.17856
G1 X49.698 Y6.736 E27.39547
G0 F10500 X48.804 Y7.410
;TYPE:SKIN
G1 F840 X43.088 Y13.126 E27.63623
G0 F10500 X43.577 Y13.344
G1 F840 X49.022 Y7.899 E27.86558
G0 F10500 X49.022 Y8.606
G1 F840 X44.284 Y13.344 E28.06514
G0 F10500 X44.991 Y13.344
G1 F840 X49.022 Y9.314 E28.23491
G0 F10500 X49.022 Y10.021
G1 F840 X45.698 Y13.344 E28.37489
G0 F10500 X46.406 Y13.344
G1 F840 X49.022 Y10.728 E28.48508
G0 F10500 X49.022 Y11.435
G1 F840 X47.113 Y13.344 E28.56549
G0 F10500 X47.820 Y13.344
G1 F840 X49.022 Y12.142 E28.61611
G0 F10500 X49.022 Y12.849
G1 F840 X48.527 Y13.344 E28.63696
G0 F10500 X43.088 Y12.418
G1 F840 X48.097 Y7.410 E28.84792
G0 F10500 X47.390 Y7.410
G1 F840 X43.088 Y11.711 E29.02910
G0 F10500 X43.088 Y11.004
G1 F840 X46.683 Y7.410 E29.18050
G0 F10500 X45.976 Y7.409
G1 F840 X43.088 Y10.297 E29.30214
G0 F10500 X43.088 Y9.590
G1 F840 X45.269 Y7.409 E29.39401
G0 F10500 X44.562 Y7.409
G1 F840 X43.088 Y8.883 E29.45609
G0 F10500 X43.088 Y8.176
G1 F840 X43.855 Y7.409 E29.48840
G1 F600 E27.98840
G1 Z0.905
G0 F10500 X107.273 Y7.773
;TYPE:WALL-INNER
G1 Z0.805
G1 F600 E29.48840
G1 F660 X113.557 Y7.774 E29.67556
G1 X113.556 Y14.058 E29.86272
G1 X107.272 Y14.057 E30.04988
G1 X107.273 Y7.773 E30.23703
G0 F10500 X106.773 Y7.274
;TYPE:WALL-OUTER
G1 F660 X114.056 Y7.274 E30.45395
G1 X114.056 Y14.557 E30.67086
G1 X106.773 Y14.557 E30.88777
G1 X106.773 Y7.274 E31.10468
G0 F10500 X107.447 Y8.164
;TYPE:SKIN
G1 F840 X107.664 Y7.947 E31.11382
G0 F10500 X108.371 Y7.947
G1 F840 X107.447 Y8.871 E31.15274
G0 F10500 X107.447 Y9.578
G1 F840 X109.078 Y7.947 E31.22144
G0 F10500 X109.785 Y7.947
G1 F840 X107.447 Y10.285 E31.31992
G0 F10500 X107.446 Y10.993
G1 F840 X110.492 Y7.947 E31.44821
G0 F10500 X111.199 Y7.947
G1 F840 X107.446 Y11.700 E31.60629
G0 F10500 X107.446 Y12.407
G1 F840 X111.906 Y7.947 E31.79415
G0 F10500 X112.613 Y7.947
G1 F840 X107.446 Y13.114 E32.01178
G0 F10500 X107.446 Y13.821
G1 F840 X113.320 Y7.947 E32.25919
G0 F10500 X113.380 Y8.595
G1 F840 X108.093 Y13.882 E32.48188
G0 F10500 X108.800 Y13.882
G1 F840 X113.380 Y9.302 E32.67479
G0 F10500 X113.380 Y10.009
G1 F840 X109.507 Y13.882 E32.83792
G0 F10500 X110.214 Y13.882
G1 F840 X113.380 Y10.716 E32.97128
G0 F10500 X113.380 Y11.424
G1 F840 X110.921 Y13.883 E33.07485
G0 F10500 X111.628 Y13.883
G1 F840 X113.380 Y12.131 E33.14864
G0 F10500 X113.380 Y12.838
G1 F840 X112.335 Y13.883 E33.19266
G0 F10500 X113.042 Y13.883
G1 F840 X113.380 Y13.545 E33.20690
;LAYER:2
M106 S255
G1 F600 E31.70690
G1 Z0.905
G0 F10500 X48.916 Y13.238 Z1.185
;TYPE:WALL-INNER
G1 Z1.185
G1 F600 E33.20690
G1 X43.196 Y13.237 E33.37726
G1 X43.197 Y7.517 E33.54762
G1 X48.917 Y7.518 E33.71798
G1 X48.916 Y13.238 E33.88834
G0 F10500 X49.416 Y13.737
;TYPE:WALL-OUTER
G1 F540 X42.697 Y13.737 E34.08845
G1 X42.697 Y7.018 E34.28857
G1 X49.416 Y7.018 E34.48868
G1 X49.416 Y13.737 E34.68880
G0 F10500 X48.741 Y13.032
;TYPE:SKIN
G1 F840 X43.401 Y7.692 E34.91372
G0 F10500 X43.370 Y8.368
G1 F840 X48.064 Y13.062 E35.11143
G0 F10500 X47.357 Y13.062
G1 F840 X43.370 Y9.075 E35.27936
G0 F10500 X43.370 Y9.782
G1 F840 X46.649 Y13.062 E35.41750
G0 F10500 X45.942 Y13.062
G1 F840 X43.370 Y10.489 E35.52585
G0 F10500 X43.370 Y11.197
G1 F840 X45.235 Y13.062 E35.60440
G0 F10500 X44.528 Y13.062
G1 F840 X43.370 Y11.904 E35.65318
G0 F10500 X43.370 Y12.611
G1 F840 X43.821 Y13.062 E35.67217
G0 F10500 X48.741 Y12.325
G1 F840 X44.108 Y7.692 E35.86732
G0 F10500 X44.815 Y7.692
G1 F840 X48.741 Y11.618 E36.03268
G0 F10500 X48.741 Y10.911
G1 F840 X45.522 Y7.692 E36.16826
G0 F10500 X46.229 Y7.692
G1 F840 X48.741 Y10.204 E36.27407
G0 F10500 X48.741 Y9.497
G1 F840 X46.937 Y7.692 E36.35008
G0 F10500 X47.644 Y7.692
G1 F840 X48.741 Y8.790 E36.39630
G0 F10500 X48.741 Y8.082
G1 F840 X48.351 Y7.692 E36.41273
G1 F600 E34.91273
G1 Z1.285
G0 F10500 X107.555 Y8.055
;TYPE:WALL-INNER
G1 Z1.185
G1 F600 E36.41273
G1 X113.275 Y8.056 E36.58309
G1 X113.274 Y13.776 E36.75345
G1 X107.554 Y13.775 E36.92381
G1 X107.555 Y8.055 E37.09417
G0 F10500 X107.055 Y7.556
;TYPE:WALL-OUTER
G1 F540 X113.774 Y7.556 E37.29429
G1 X113.774 Y14.275 E37.49440
G1 X107.055 Y14.275 E37.69452
G1 X107.055 Y7.556 E37.89463
G0 F10500 X107.729 Y8.380
;TYPE:SKIN
G1 F840 X112.948 Y13.600 E38.11448
G0 F10500 X113.098 Y13.043
G1 F840 X108.286 Y8.230 E38.31718
G0 F10500 X108.993 Y8.230
G1 F840 X113.098 Y12.336 E38.49010
G0 F10500 X113.098 Y11.629
G1 F840 X109.700 Y8.230 E38.63325
G0 F10500 X110.407 Y8.230
G1 F840 X113.098 Y10.921 E38.74659
G0 F10500 X113.098 Y10.214
G1 F840 X111.114 Y8.230 E38.83016
G0 F10500 X111.821 Y8.230
G1 F840 X113.098 Y9.507 E38.88395
G0 F10500 X113.098 Y8.800
G1 F840 X112.528 Y8.230 E38.90796
G0 F10500 X107.729 Y9.087
G1 F840 X112.241 Y13.600 E39.09802
G0 F10500 X111.534 Y13.600
G1 F840 X107.729 Y9.794 E39.25831
G0 F10500 X107.729 Y10.501
G1 F840 X110.827 Y13.600 E39.38882
G0 F10500 X110.119 Y13.599
G1 F840 X107.728 Y11.208 E39.48953
G0 F10500 X107.728 Y11.915
G1 F840 X109.412 Y13.599 E39.56046
G0 F10500 X108.705 Y13.599
G1 F840 X107.728 Y12.622 E39.60161
G0 F10500 X107.728 Y13.329
G1 F840 X107.998 Y13.599 E39.61298
;LAYER:3
G1 F600 E38.11298
G1 Z1.285
G0 F10500 X48.633 Y12.954 Z1.565
;TYPE:WALL-INNER
G1 Z1.565
G1 F600 E39.61298
G1 F660 X43.480 Y12.954 E39.76646
G1 X43.480 Y7.801 E39.91993
G1 X48.633 Y7.801 E40.07340
G1 X48.633 Y12.954 E40.22688
G0 F10500 X49.133 Y13.454
;TYPE:WALL-OUTER
G1 F600 X42.980 Y13.454 E40.41013
G1 X42.980 Y7.301 E40.59339
G1 X49.133 Y7.301 E40.77665
G1 X49.133 Y13.454 E40.95991
G0 F10500 X48.457 Y12.707
;TYPE:SKIN
G1 F960 X48.385 Y12.779 E40.96294
G0 F10500 X47.678 Y12.779
G1 F960 X48.457 Y12.000 E40.99575
G0 F10500 X48.457 Y11.293
G1 F960 X46.970 Y12.779 E41.05836
G0 F10500 X46.263 Y12.779
G1 F960 X47.011 Y12.031 E41.08987
G0 F10500 X46.304 Y12.031
G1 F960 X45.556 Y12.779 E41.12137
G0 F10500 X44.849 Y12.779
G1 F960 X45.597 Y12.031 E41.15288
G0 F10500 X44.890 Y12.031
G1 F960 X44.142 Y12.779 E41.18439
G0 F10500 X43.653 Y12.561
G1 F960 X44.401 Y11.813 E41.21589
G0 F10500 X44.401 Y11.106
G1 F960 X43.653 Y11.853 E41.24738
G0 F10500 X43.653 Y11.146
G1 F960 X44.401 Y10.399 E41.27886
G0 F10500 X44.401 Y9.692
G1 F960 X43.653 Y10.439 E41.31035
G0 F10500 X43.653 Y9.732
G1 F960 X44.401 Y8.985 E41.34183
G0 F10500 X44.662 Y8.723
G1 F960 X45.411 Y7.975 E41.37336
G0 F10500 X46.118 Y7.975
G1 F960 X45.370 Y8.723 E41.40486
G0 F10500 X46.077 Y8.723
G1 F960 X46.825 Y7.975 E41.43637
G0 F10500 X47.532 Y7.975
G1 F960 X46.784 Y8.723 E41.46787
G0 F10500 X47.491 Y8.723
G1 F960 X48.239 Y7.975 E41.49938
G0 F10500 X48.457 Y8.464
G1 F960 X47.709 Y9.212 E41.53089
G0 F10500 X47.709 Y9.919
G1 F960 X48.457 Y9.171 E41.56239
G0 F10500 X48.457 Y9.878
G1 F960 X47.709 Y10.626 E41.59390
G0 F10500 X47.709 Y11.333
G1 F960 X48.457 Y10.586 E41.62538
G0 F10500 X44.703 Y7.975
G1 F960 X43.653 Y9.025 E41.66961
G0 F10500 X43.653 Y8.318
G1 F960 X43.996 Y7.975 E41.68406
G1 F600 E40.18406
G1 Z1.665
G0 F10500 X107.838 Y8.339
;TYPE:WALL-INNER
G1 Z1.565
G1 F600 E41.68406
G1 F660 X112.991 Y8.339 E41.83753
G1 X112.991 Y13.492 E41.99100
G1 X107.838 Y13.492 E42.14448
G1 X107.838 Y8.339 E42.29795
G0 F10500 X107.338 Y7.839
;TYPE:WALL-OUTER
G1 F600 X113.491 Y7.839 E42.48121
G1 X113.491 Y13.992 E42.66446
G1 X107.338 Y13.992 E42.84772
G1 X107.338 Y7.839 E43.03098
G0 F10500 X108.511 Y8.514
;TYPE:SKIN
G1 F960 X108.012 Y9.013 E43.05200
G0 F10500 X108.012 Y9.720
G1 F960 X109.219 Y8.514 E43.10281
G0 F10500 X109.926 Y8.514
G1 F960 X109.179 Y9.260 E43.13426
G0 F10500 X108.759 Y9.680
G1 F960 X108.012 Y10.427 E43.16572
G0 F10500 X108.012 Y11.134
G1 F960 X108.759 Y10.388 E43.19716
G0 F10500 X108.759 Y11.095
G1 F960 X108.012 Y11.841 E43.22861
G0 F10500 X108.012 Y12.549
G1 F960 X108.759 Y11.802 E43.26007
G0 F10500 X108.759 Y12.509
G1 F960 X108.012 Y13.256 E43.29153
G0 F10500 X108.658 Y13.316
G1 F960 X109.405 Y12.570 E43.32298
G0 F10500 X110.112 Y12.570
G1 F960 X109.366 Y13.316 E43.35440
G0 F10500 X110.073 Y13.316
G1 F960 X110.819 Y12.570 E43.38582
G0 F10500 X111.527 Y12.570
G1 F960 X110.780 Y13.316 E43.41726
G0 F10500 X111.487 Y13.316
G1 F960 X112.815 Y11.988 E43.47320
G0 F10500 X112.815 Y11.281
G1 F960 X112.068 Y12.028 E43.50466
G0 F10500 X112.068 Y11.321
G1 F960 X112.815 Y10.574 E43.53613
G0 F10500 X112.815 Y9.867
G1 F960 X112.068 Y10.614 E43.56759
G0 F10500 X112.068 Y9.907
G1 F960 X112.815 Y9.160 E43.59905
G0 F10500 X112.754 Y8.514
G1 F960 X112.007 Y9.260 E43.63050
G0 F10500 X111.300 Y9.260
G1 F960 X112.047 Y8.514 E43.66194
G0 F10500 X111.340 Y8.514
G1 F960 X110.593 Y9.260 E43.69338
G0 F10500 X109.886 Y9.260
G1 F960 X110.633 Y8.514 E43.72482
G0 F10500 X112.815 Y12.696
G1 F960 X112.194 Y13.316 E43.75096
;LAYER:4
G1 F600 E42.25096
G1 Z1.665
G0 F10500 X48.351 Y12.672 Z1.945
;TYPE:WALL-INNER
G1 Z1.945
G1 F600 E43.75096
G1 F660 X43.762 Y12.672 E43.88763
G1 X43.762 Y8.083 E44.02431
G1 X48.351 Y8.083 E44.16099
G1 X48.351 Y12.672 E44.29766
G0 F10500 X48.851 Y13.172
;TYPE:WALL-OUTER
G1 F540 X43.262 Y13.172 E44.46412
G1 X43.262 Y7.583 E44.63058
G1 X48.851 Y7.583 E44.79704
G1 X48.851 Y13.172 E44.96350
G0 F10500 X48.175 Y12.466
;TYPE:SKIN
G1 F960 X47.427 Y11.718 E44.99501
G0 F10500 X46.751 Y11.749
G1 F960 X47.498 Y12.496 E45.02647
G0 F10500 X46.791 Y12.496
G1 F960 X46.043 Y11.749 E45.05795
G0 F10500 X45.336 Y11.749
G1 F960 X46.084 Y12.496 E45.08944
G0 F10500 X45.377 Y12.496
G1 F960 X43.936 Y11.055 E45.15013
G0 F10500 X43.936 Y11.762
G1 F960 X44.670 Y12.496 E45.18105
G0 F10500 X44.684 Y11.096
G1 F960 X43.936 Y10.348 E45.21256
G0 F10500 X43.936 Y9.641
G1 F960 X44.684 Y10.389 E45.24406
G0 F10500 X44.684 Y9.682
G1 F960 X43.936 Y8.934 E45.27557
G0 F10500 X43.967 Y8.258
G1 F960 X44.714 Y9.005 E45.30703
G0 F10500 X45.421 Y9.005
G1 F960 X44.674 Y8.258 E45.33849
G0 F10500 X45.381 Y8.258
G1 F960 X46.128 Y9.005 E45.36996
G0 F10500 X46.835 Y9.005
G1 F960 X46.088 Y8.258 E45.40142
G0 F10500 X46.795 Y8.258
G1 F960 X48.175 Y9.637 E45.45953
G0 F10500 X48.175 Y10.344
G1 F960 X47.427 Y9.596 E45.49103
G0 F10500 X47.427 Y10.303
G1 F960 X48.175 Y11.052 E45.52256
G0 F10500 X48.175 Y11.759
G1 F960 X47.427 Y11.011 E45.55406
G0 F10500 X48.175 Y8.930
G1 F960 X47.502 Y8.258 E45.58239
G1 F600 E44.08239
G1 Z2.045
G0 F10500 X108.120 Y8.621
;TYPE:WALL-INNER
G1 Z1.945
G1 F600 E45.58239
G1 F660 X112.709 Y8.621 E45.71907
G1 X112.709 Y13.210 E45.85574
G1 X108.120 Y13.210 E45.99242
G1 X108.120 Y8.621 E46.12909
G0 F10500 X107.620 Y8.121
;TYPE:WALL-OUTER
G1 F540 X113.209 Y8.121 E46.29555
G1 X113.209 Y13.710 E46.46201
G1 X107.620 Y13.710 E46.62847
G1 X107.620 Y8.121 E46.79493
G0 F10500 X108.294 Y8.945
;TYPE:SKIN
G1 F960 X109.042 Y9.693 E46.82644
G0 F10500 X109.599 Y9.543
G1 F960 X108.852 Y8.796 E46.85790
G0 F10500 X109.559 Y8.796
G1 F960 X110.306 Y9.543 E46.88936
G0 F10500 X111.013 Y9.543
G1 F960 X110.266 Y8.796 E46.92083
G0 F10500 X110.973 Y8.796
G1 F960 X111.720 Y9.543 E46.95229
G0 F10500 X111.785 Y9.608
G1 F960 X112.533 Y10.356 E46.98380
G0 F10500 X112.533 Y11.063
G1 F960 X111.785 Y10.315 E47.01530
G0 F10500 X111.785 Y11.022
G1 F960 X112.533 Y11.770 E47.04681
G0 F10500 X112.533 Y12.477
G1 F960 X111.785 Y11.729 E47.07832
G0 F10500 X111.635 Y12.287
G1 F960 X112.383 Y13.034 E47.10980
G0 F10500 X111.676 Y13.034
G1 F960 X110.928 Y12.287 E47.14128
G0 F10500 X110.221 Y12.287
G1 F960 X110.969 Y13.034 E47.17277
G0 F10500 X110.261 Y13.034
G1 F960 X109.514 Y12.287 E47.20423
G0 F10500 X109.042 Y11.815
G1 F960 X108.294 Y11.066 E47.23576
G0 F10500 X108.294 Y10.359
G1 F960 X109.042 Y11.107 E47.26727
G0 F10500 X109.042 Y10.400
G1 F960 X108.294 Y9.652 E47.29877
G0 F10500 X108.294 Y11.774
G1 F960 X109.554 Y13.034 E47.35184
G0 F10500 X108.847 Y13.034
G1 F960 X108.294 Y12.481 E47.37514
G0 F10500 X111.680 Y8.796
G1 F960 X112.533 Y9.649 E47.41106
G0 F10500 X112.533 Y8.942
G1 F960 X112.387 Y8.796 E47.41721
;LAYER:5
G1 F600 E45.91721
G1 Z2.045
G0 F10500 X48.068 Y8.366 Z2.325
;TYPE:WALL-INNER
G1 Z2.325
G1 F600 E47.41721
G1 F660 X48.068 Y12.389 E47.53703
G1 X44.045 Y12.389 E47.65685
G1 X44.045 Y8.366 E47.77667
G1 X48.068 Y8.366 E47.89649
G0 F10500 X48.568 Y7.866
;TYPE:WALL-OUTER
G1 F540 X48.568 Y12.889 E48.04609
G1 X43.545 Y12.889 E48.19569
G1 X43.545 Y7.866 E48.34529
G1 X48.568 Y7.866 E48.49490
G0 F10500 X47.674 Y8.540
;TYPE:SKIN
G1 F960 X46.926 Y9.288 E48.52640
G0 F10500 X47.144 Y9.777
G1 F960 X47.892 Y9.029 E48.55791
G0 F10500 X47.892 Y9.736
G1 F960 X47.144 Y10.484 E48.58941
G0 F10500 X47.144 Y11.191
G1 F960 X47.892 Y10.443 E48.62092
G0 F10500 X47.892 Y11.151
G1 F960 X46.828 Y12.214 E48.66571
G0 F10500 X47.535 Y12.214
G1 F960 X47.892 Y11.858 E48.68073
G0 F10500 X46.869 Y11.466
G1 F960 X46.121 Y12.214 E48.71223
G0 F10500 X45.414 Y12.214
G1 F960 X46.162 Y11.466 E48.74374
G0 F10500 X45.455 Y11.466
G1 F960 X44.707 Y12.214 E48.77525
G0 F10500 X44.218 Y11.996
G1 F960 X44.966 Y11.248 E48.80675
G0 F10500 X44.966 Y10.541
G1 F960 X44.218 Y11.288 E48.83824
G0 F10500 X44.218 Y10.581
G1 F960 X44.966 Y9.834 E48.86972
G0 F10500 X44.218 Y9.874
G1 F960 X45.553 Y8.540 E48.92593
G0 F10500 X46.260 Y8.540
G1 F960 X45.512 Y9.288 E48.95744
G0 F10500 X46.219 Y9.288
G1 F960 X46.967 Y8.540 E48.98894
G0 F10500 X44.846 Y8.540
G1 F960 X44.218 Y9.167 E49.01537
G1 F600 E47.51537
G1 Z2.425
G0 F10500 X108.403 Y8.904
;TYPE:WALL-INNER
G1 Z2.325
G1 F600 E49.01537
G1 F660 X112.426 Y8.904 E49.13519
G1 X112.426 Y12.927 E49.25501
G1 X108.403 Y12.927 E49.37483
G1 X108.403 Y8.904 E49.49465
G0 F10500 X107.903 Y8.404
;TYPE:WALL-OUTER
G1 F540 X112.926 Y8.404 E49.64425
G1 X112.926 Y13.427 E49.79385
G1 X107.903 Y13.427 E49.94345
G1 X107.903 Y8.404 E50.09305
G0 F10500 X108.577 Y9.155
;TYPE:SKIN
G1 F960 X108.654 Y9.079 E50.09628
G0 F10500 X109.361 Y9.079
G1 F960 X108.577 Y9.862 E50.12928
G0 F10500 X108.577 Y10.569
G1 F960 X110.068 Y9.079 E50.19206
G0 F10500 X110.775 Y9.079
G1 F960 X110.028 Y9.825 E50.22350
G0 F10500 X110.735 Y9.825
G1 F960 X111.482 Y9.079 E50.25494
G0 F10500 X112.189 Y9.079
G1 F960 X111.442 Y9.825 E50.28639
G0 F10500 X111.503 Y10.472
G1 F960 X112.250 Y9.725 E50.31785
G0 F10500 X112.250 Y10.432
G1 F960 X111.503 Y11.179 E50.34931
G0 F10500 X111.503 Y11.886
G1 F960 X112.250 Y11.139 E50.38078
G0 F10500 X112.250 Y11.846
G1 F960 X111.345 Y12.751 E50.41890
G0 F10500 X112.052 Y12.751
G1 F960 X112.250 Y12.553 E50.42724
G0 F10500 X111.384 Y12.005
G1 F960 X110.638 Y12.751 E50.45866
G0 F10500 X109.931 Y12.751
G1 F960 X110.677 Y12.005 E50.49008
G0 F10500 X109.970 Y12.005
G1 F960 X109.223 Y12.751 E50.52152
G0 F10500 X108.577 Y12.691
G1 F960 X109.324 Y11.944 E50.55298
G0 F10500 X109.324 Y11.237
G1 F960 X108.577 Y11.984 E50.58445
G0 F10500 X108.577 Y11.276
G1 F960 X109.324 Y10.530 E50.61589
;LAYER:6
G1 F600 E49.11589
G1 Z2.425
G0 F10500 X47.786 Y12.107 Z2.705
;TYPE:WALL-INNER
G1 Z2.705
G1 F600 E50.61589
G1 F660 X44.327 Y12.107 E50.71891
G1 X44.327 Y8.648 E50.82193
G1 X47.786 Y8.648 E50.92495
G1 X47.786 Y12.107 E51.02797
G0 F10500 X48.286 Y12.607
;TYPE:WALL-OUTER
G1 F540 X43.827 Y12.607 E51.16078
G1 X43.827 Y8.148 E51.29358
G1 X48.286 Y8.148 E51.42639
G1 X48.286 Y12.607 E51.55919
G0 F10500 X47.610 Y11.901
;TYPE:SKIN
G1 F960 X46.863 Y11.154 E51.59065
G0 F10500 X46.187 Y11.185
G1 F960 X46.933 Y11.931 E51.62208
G0 F10500 X46.226 Y11.931
G1 F960 X45.480 Y11.185 E51.65350
G0 F10500 X45.248 Y10.953
G1 F960 X44.501 Y10.206 E51.68496
G0 F10500 X44.501 Y10.913
G1 F960 X45.519 Y11.931 E51.72784
G0 F10500 X44.812 Y11.931
G1 F960 X44.501 Y11.620 E51.74094
G0 F10500 X45.248 Y10.246
G1 F960 X44.501 Y9.499 E51.77240
G0 F10500 X44.532 Y8.823
G1 F960 X45.278 Y9.569 E51.80382
G0 F10500 X45.985 Y9.569
G1 F960 X45.239 Y8.823 E51.83525
G0 F10500 X45.946 Y8.823
G1 F960 X46.692 Y9.569 E51.86667
G0 F10500 X46.863 Y9.740
G1 F960 X47.610 Y10.487 E51.89813
G0 F10500 X47.610 Y11.194
G1 F960 X46.863 Y10.447 E51.92959
G0 F10500 X47.610 Y9.779
G1 F960 X46.653 Y8.823 E51.96988
G0 F10500 X47.360 Y8.823
G1 F960 X47.610 Y9.072 E51.98039
G1 F600 E50.48039
G1 Z2.805
G0 F10500 X108.685 Y9.186
;TYPE:WALL-INNER
G1 Z2.705
G1 F600 E51.98039
G1 F660 X112.144 Y9.186 E52.08341
G1 X112.144 Y12.645 E52.18643
G1 X108.685 Y12.645 E52.28945
G1 X108.685 Y9.186 E52.39247
G0 F10500 X108.185 Y8.686
;TYPE:WALL-OUTER
G1 F540 X112.644 Y8.686 E52.52528
G1 X112.644 Y13.145 E52.65808
G1 X108.185 Y13.145 E52.79089
G1 X108.185 Y8.686 E52.92369
G0 F10500 X108.859 Y9.510
;TYPE:SKIN
G1 F960 X109.605 Y10.257 E52.95513
G0 F10500 X110.162 Y10.107
G1 F960 X109.416 Y9.361 E52.98655
G0 F10500 X110.124 Y9.361
G1 F960 X110.869 Y10.106 E53.01793
G0 F10500 X111.221 Y10.458
G1 F960 X111.968 Y11.205 E53.04940
G0 F10500 X111.968 Y11.912
G1 F960 X111.221 Y11.165 E53.08086
G0 F10500 X111.071 Y11.723
G1 F960 X111.818 Y12.469 E53.11230
G0 F10500 X111.111 Y12.469
G1 F960 X110.365 Y11.723 E53.14373
G0 F10500 X109.658 Y11.723
G1 F960 X110.404 Y12.469 E53.17515
G0 F10500 X109.697 Y12.469
G1 F960 X108.859 Y11.631 E53.21044
G0 F10500 X108.859 Y10.924
G1 F960 X109.605 Y11.671 E53.24189
G0 F10500 X109.605 Y10.964
G1 F960 X108.859 Y10.217 E53.27333
G0 F10500 X108.859 Y12.339
G1 F960 X108.989 Y12.469 E53.27880
G0 F10500 X111.968 Y10.498
G1 F960 X110.831 Y9.361 E53.32670
G0 F10500 X111.538 Y9.361
G1 F960 X111.968 Y9.791 E53.34481
;LAYER:7
G1 F600 E51.84481
G1 Z2.805
G0 F10500 X47.503 Y8.931 Z3.085
;TYPE:WALL-INNER
G1 Z3.085
G1 F600 E53.34481
G1 F660 X47.503 Y11.824 E53.43097
G1 X44.610 Y11.824 E53.51713
G1 X44.610 Y8.931 E53.60330
G1 X47.503 Y8.931 E53.68946
G0 F10500 X48.003 Y8.431
;TYPE:WALL-OUTER
G1 F540 X48.003 Y12.324 E53.80541
G1 X44.110 Y12.324 E53.92135
G1 X44.110 Y8.431 E54.03730
G1 X48.003 Y8.431 E54.15325
G0 F10500 X47.109 Y9.105
;TYPE:SKIN
G1 F960 X46.375 Y9.839 E54.18416
G0 F10500 X46.594 Y10.328
G1 F960 X47.327 Y9.594 E54.21506
G0 F10500 X47.327 Y10.301
G1 F960 X45.979 Y11.649 E54.27184
G0 F10500 X46.686 Y11.649
G1 F960 X47.327 Y11.008 E54.29883
G0 F10500 X46.006 Y10.915
G1 F960 X45.272 Y11.649 E54.32975
G0 F10500 X44.783 Y11.431
G1 F960 X45.517 Y10.697 E54.36067
G0 F10500 X45.517 Y9.990
G1 F960 X44.783 Y10.723 E54.39156
G0 F10500 X44.783 Y10.016
G1 F960 X45.695 Y9.105 E54.42995
G0 F10500 X46.402 Y9.105
G1 F960 X45.668 Y9.839 E54.46087
G0 F10500 X44.988 Y9.105
G1 F960 X44.783 Y9.309 E54.46948
G1 F600 E52.96948
G1 Z3.185
G0 F10500 X108.968 Y9.469
;TYPE:WALL-INNER
G1 Z3.085
G1 F600 E54.46948
G1 F660 X111.861 Y9.469 E54.55565
G1 X111.861 Y12.362 E54.64181
G1 X108.968 Y12.362 E54.72797
G1 X108.968 Y9.469 E54.81414
G0 F10500 X108.468 Y8.969
;TYPE:WALL-OUTER
G1 F540 X112.361 Y8.969 E54.93008
G1 X112.361 Y12.862 E55.04603
G1 X108.468 Y12.862 E55.16198
G1 X108.468 Y8.969 E55.27792
G0 F10500 X109.142 Y10.004
;TYPE:SKIN
G1 F960 X109.503 Y9.644 E55.29311
G0 F10500 X110.210 Y9.644
G1 F960 X109.142 Y10.711 E55.33807
G0 F10500 X109.142 Y11.419
G1 F960 X109.875 Y10.686 E55.36895
G0 F10500 X110.184 Y10.377
G1 F960 X110.917 Y9.644 E55.39982
G0 F10500 X111.624 Y9.644
G1 F960 X110.891 Y10.377 E55.43069
G0 F10500 X110.952 Y11.023
G1 F960 X111.685 Y10.290 E55.46157
G0 F10500 X111.685 Y10.997
G1 F960 X110.496 Y12.186 E55.51165
G0 F10500 X111.203 Y12.186
G1 F960 X111.685 Y11.704 E55.53195
G0 F10500 X110.522 Y11.453
G1 F960 X109.788 Y12.186 E55.56285
G0 F10500 X109.142 Y12.126
G1 F960 X109.875 Y11.393 E55.59372
;LAYER:8
G1 F600 E54.09372
G1 Z3.185
G0 F10500 X47.221 Y11.542 Z3.465
;TYPE:WALL-INNER
G1 Z3.465
G1 F600 E55.59372
G1 F660 X44.892 Y11.542 E55.66309
G1 X44.892 Y9.213 E55.73245
G1 X47.221 Y9.213 E55.80182
G1 X47.221 Y11.542 E55.87118
G0 F10500 X47.721 Y12.042
;TYPE:WALL-OUTER
G1 F540 X44.392 Y12.042 E55.97033
G1 X44.392 Y8.713 E56.06948
G1 X47.721 Y8.713 E56.16863
G1 X47.721 Y12.042 E56.26778
G0 F10500 X47.045 Y11.336
;TYPE:SKIN
G1 F960 X46.819 Y10.757 E56.28673
G1 X46.424 Y10.008 E56.30570
G1 X45.675 Y9.613 E56.32461
G1 X45.081 Y9.726 E56.34356
G1 X45.291 Y10.643 E56.36250
G1 X45.789 Y11.141 E56.38754
G1 X46.368 Y11.366 E56.40604
G0 F10500 X47.045 Y9.922
G1 F960 X46.511 Y9.388 E56.42854
G1 F600 E54.92854
G1 Z3.565
G0 F10500 X109.250 Y9.751
;TYPE:WALL-INNER
G1 Z3.465
G1 F600 E56.42854
G1 F660 X111.579 Y9.751 E56.49790
G1 X111.579 Y12.080 E56.56727
G1 X109.250 Y12.080 E56.63663
G1 X109.250 Y9.751 E56.70600
G0 F10500 X108.750 Y9.251
;TYPE:WALL-OUTER
G1 F540 X112.079 Y9.251 E56.80515
G1 X112.079 Y12.580 E56.90430
G1 X108.750 Y12.580 E57.00345
G1 X108.750 Y9.251 E57.10259
G0 F10500 X109.424 Y10.075
;TYPE:SKIN
G1 F960 X109.649 Y10.654 E57.12154
G1 X109.984 Y11.343 E57.14048
G1 X110.673 Y11.678 E57.15946
G1 X111.328 Y11.625 E57.17845
G1 X110.952 Y10.896 E57.20288
G0 F10500 X111.403 Y10.640
G1 F960 X110.689 Y9.926 E57.23295
G0 F10500 X110.432 Y10.376
G1 F960 X109.981 Y9.926 E57.25193
G0 F10500 X109.424 Y11.489
G1 F960 X109.839 Y11.904 E57.26941
;LAYER:9
G1 F600 E55.76941
G1 Z3.565
G0 F10500 X46.940 Y11.209 Z3.845
;TYPE:WALL-INNER
G1 Z3.845
G1 F600 E57.26941
G1 F660 X46.940 Y11.260 E57.27092
G1 X45.225 Y11.261 E57.32200
G1 X45.174 Y11.261 E57.32352
G1 X45.173 Y9.546 E57.37460
G1 X45.173 Y9.495 E57.37612
G1 X46.888 Y9.494 E57.42720
G1 X46.939 Y9.494 E57.42872
G1 X46.940 Y11.209 E57.47980
G0 F10500 X47.439 Y11.760
;TYPE:WALL-OUTER
G1 F540 X44.674 Y11.760 E57.56215
G1 X44.674 Y8.995 E57.64450
G1 X47.439 Y8.995 E57.72685
G1 X47.439 Y11.760 E57.80920
G0 F10500 X46.543 Y11.086
;TYPE:SKIN
G1 F960 X46.678 Y10.596 E57.81846
G1 X46.569 Y9.998 E57.82556
G1 X46.192 Y9.668 E57.83272
G1 X45.592 Y9.914 E57.83987
G1 X45.432 Y10.428 E57.84699
G1 X45.592 Y10.976 E57.85410
G1 X46.006 Y10.915 E57.86656
G1 F600 E56.36656
G1 Z3.945
G0 F10500 X109.531 Y10.084
;TYPE:WALL-INNER
G1 Z3.845
G1 F600 E57.86656
G1 F660 X109.531 Y10.033 E57.86808
G1 X111.246 Y10.032 E57.91916
G1 X111.297 Y10.032 E57.92068
G1 X111.298 Y11.747 E57.97175
G1 X111.298 Y11.798 E57.97327
G1 X109.583 Y11.799 E58.02435
G1 X109.532 Y11.799 E58.02587
G1 X109.531 Y10.084 E58.07695
G0 F10500 X109.032 Y9.533
;TYPE:WALL-OUTER
G1 F540 X111.797 Y9.533 E58.15930
G1 X111.797 Y12.298 E58.24165
G1 X109.032 Y12.298 E58.32400
G1 X109.032 Y9.533 E58.40635
G0 F10500 X110.184 Y10.377
;TYPE:SKIN
G1 F960 X110.622 Y10.292 E58.41345
G1 X111.091 Y10.530 E58.42059
G1 X110.737 Y11.238 E58.42771
G1 X110.113 Y11.508 E58.43484
G1 X109.706 Y11.208 E58.44195
G1 X109.875 Y10.686 E58.45829
;LAYER:10
G1 F600 E56.95829
G1 Z3.945
G0 F10500 X46.670 Y10.991 Z4.225
;TYPE:WALL-INNER
G1 Z4.225
G1 F600 E58.45829
G1 F660 X45.443 Y10.991 E58.49483
G1 X45.443 Y9.764 E58.53138
G1 X46.670 Y9.764 E58.56792
G1 X46.670 Y10.991 E58.60447
G0 F10500 X47.170 Y11.491
;TYPE:WALL-OUTER
G1 F540 X44.943 Y11.491 E58.67079
G1 X44.943 Y9.264 E58.73712
G1 X47.170 Y9.264 E58.80345
G1 X47.170 Y11.491 E58.86978
G0 F10500 X46.820 Y11.231
G0 X45.920 Y10.241
G1 F600 E57.36978
G1 Z4.325
G0 F10500 X109.801 Y10.302
;TYPE:WALL-INNER
G1 Z4.225
G1 F600 E58.86978
G1 F660 X111.028 Y10.302 E58.90632
G1 X111.028 Y11.528 E58.94283
G1 X109.801 Y11.528 E58.97938
G1 X109.801 Y10.302 E59.01589
G0 F10500 X109.301 Y9.802
;TYPE:WALL-OUTER
G1 F540 X111.528 Y9.802 E59.08222
G1 X111.528 Y12.028 E59.14852
G1 X109.301 Y12.028 E59.21485
G1 X109.301 Y9.802 E59.28114
G0 F10500 X109.651 Y10.062
G0 X110.551 Y11.052
;LAYER:11
G1 F600 E57.78114
G1 Z4.325
G0 F10500 X46.670 Y10.991 Z4.605
;TYPE:WALL-INNER
G1 Z4.605
G1 F600 E59.28114
G1 F660 X45.443 Y10.991 E59.31769
G1 X45.443 Y9.764 E59.35423
G1 X46.670 Y9.764 E59.39078
G1 X46.670 Y10.991 E59.42732
G0 F10500 X47.170 Y11.491
;TYPE:WALL-OUTER
G1 F540 X44.943 Y11.491 E59.49365
G1 X44.943 Y9.264 E59.55998
G1 X47.170 Y9.264 E59.62630
G1 X47.170 Y11.491 E59.69263
G0 F10500 X46.820 Y11.231
G0 X45.920 Y10.241
G1 F600 E58.19263
G1 Z4.705
G0 F10500 X109.801 Y10.302
;TYPE:WALL-INNER
G1 Z4.605
G1 F600 E59.69263
G1 F660 X111.028 Y10.302 E59.72918
G1 X111.028 Y11.528 E59.76569
G1 X109.801 Y11.528 E59.80223
G1 X109.801 Y10.302 E59.83875
G0 F10500 X109.301 Y9.802
;TYPE:WALL-OUTER
G1 F540 X111.528 Y9.802 E59.90508
G1 X111.528 Y12.028 E59.97137
G1 X109.301 Y12.028 E60.03770
G1 X109.301 Y9.802 E60.10400
G0 F10500 X109.651 Y10.062
G0 X110.551 Y11.052
;LAYER:12
G1 F600 E58.60400
G1 Z4.705
G0 F10500 X46.670 Y10.991 Z4.985
;TYPE:WALL-INNER
G1 Z4.985
G1 F600 E60.10400
G1 F660 X45.443 Y10.991 E60.14054
G1 X45.443 Y9.764 E60.17709
G1 X46.670 Y9.764 E60.21363
G1 X46.670 Y10.991 E60.25018
G0 F10500 X47.170 Y11.491
;TYPE:WALL-OUTER
G1 F540 X44.943 Y11.491 E60.31650
G1 X44.943 Y9.264 E60.38283
G1 X47.170 Y9.264 E60.44916
G1 X47.170 Y11.491 E60.51549
G0 F10500 X46.820 Y11.231
G0 X45.920 Y10.241
G1 F600 E59.01549
G1 Z5.085
G0 F10500 X109.801 Y10.302
;TYPE:WALL-INNER
G1 Z4.985
G1 F600 E60.51549
G1 F660 X111.028 Y10.302 E60.55203
G1 X111.028 Y11.528 E60.58854
G1 X109.801 Y11.528 E60.62509
G1 X109.801 Y10.302 E60.66160
G0 F10500 X109.301 Y9.802
;TYPE:WALL-OUTER
G1 F540 X111.528 Y9.802 E60.72793
G1 X111.528 Y12.028 E60.79423
G1 X109.301 Y12.028 E60.86056
G1 X109.301 Y9.802 E60.92685
G0 F10500 X109.651 Y10.062
G0 X110.551 Y11.052
;LAYER:13
G1 F600 E59.42685
G1 Z5.085
G0 F10500 X46.670 Y10.991 Z5.365
;TYPE:WALL-INNER
G1 Z5.365
G1 F600 E60.92685
G1 F660 X45.443 Y10.991 E60.96340
G1 X45.443 Y9.764 E60.99994
G1 X46.670 Y9.764 E61.03649
G1 X46.670 Y10.991 E61.07303
G0 F10500 X47.170 Y11.491
;TYPE:WALL-OUTER
G1 F540 X44.943 Y11.491 E61.13936
G1 X44.943 Y9.264 E61.20569
G1 X47.170 Y9.264 E61.27201
G1 X47.170 Y11.491 E61.33834
G0 F10500 X46.820 Y11.231
G0 X45.920 Y10.241
G1 F600 E59.83834
G1 Z5.465
G0 F10500 X109.801 Y10.302
;TYPE:WALL-INNER
G1 Z5.365
G1 F600 E61.33834
G1 F660 X111.028 Y10.302 E61.37489
G1 X111.028 Y11.528 E61.41140
G1 X109.801 Y11.528 E61.44794
G1 X109.801 Y10.302 E61.48446
G0 F10500 X109.301 Y9.802
;TYPE:WALL-OUTER
G1 F540 X111.528 Y9.802 E61.55079
G1 X111.528 Y12.028 E61.61708
G1 X109.301 Y12.028 E61.68341
G1 X109.301 Y9.802 E61.74971
G0 F10500 X109.651 Y10.062
G0 X110.551 Y11.052
;LAYER:14
G1 F600 E60.24971
G1 Z5.465
G0 F10500 X46.670 Y10.991 Z5.745
;TYPE:WALL-INNER
G1 Z5.745
G1 F600 E61.74971
G1 F660 X45.443 Y10.991 E61.78625
G1 X45.443 Y9.764 E61.82280
G1 X46.670 Y9.764 E61.85934
G1 X46.670 Y10.991 E61.89589
G0 F10500 X47.170 Y11.491
;TYPE:WALL-OUTER
G1 F540 X44.943 Y11.491 E61.96221
G1 X44.943 Y9.264 E62.02854
G1 X47.170 Y9.264 E62.09487
G1 X47.170 Y11.491 E62.16120
G0 F10500 X46.820 Y11.231
G0 X45.920 Y10.241
G1 F600 E60.66120
G1 Z5.845
G0 F10500 X109.801 Y10.302
;TYPE:WALL-INNER
G1 Z5.745
G1 F600 E62.16120
G1 F660 X111.028 Y10.302 E62.19774
G1 X111.028 Y11.528 E62.23426
G1 X109.801 Y11.528 E62.27080
G1 X109.801 Y10.302 E62.30731
G0 F10500 X109.301 Y9.802
;TYPE:WALL-OUTER
G1 F540 X111.528 Y9.802 E62.37364
G1 X111.528 Y12.028 E62.43994
G1 X109.301 Y12.028 E62.50627
G1 X109.301 Y9.802 E62.57256
G0 F10500 X109.651 Y10.062
G0 X110.551 Y11.052
;LAYER:15
G1 F600 E61.07256
G1 Z5.845
G0 F10500 X46.670 Y10.991 Z6.125
;TYPE:WALL-INNER
G1 Z6.125
G1 F600 E62.57256
G1 F660 X45.443 Y10.991 E62.60911
G1 X45.443 Y9.764 E62.64565
G1 X46.670 Y9.764 E62.68220
G1 X46.670 Y10.991 E62.71874
G0 F10500 X47.170 Y11.491
;TYPE:WALL-OUTER
G1 F540 X44.943 Y11.491 E62.78507
G1 X44.943 Y9.264 E62.85140
G1 X47.170 Y9.264 E62.91772
G1 X47.170 Y11.491 E62.98405
G0 F10500 X46.820 Y11.231
G0 X45.920 Y10.241
G1 F600 E61.48405
G1 Z6.225
G0 F10500 X109.801 Y10.302
;TYPE:WALL-INNER
G1 Z6.125
G1 F600 E62.98405
G1 F660 X111.028 Y10.302 E63.02060
G1 X111.028 Y11.528 E63.05711
G1 X109.801 Y11.528 E63.09365
G1 X109.801 Y10.302 E63.13017
G0 F10500 X109.301 Y9.802
;TYPE:WALL-OUTER
G1 F540 X111.528 Y9.802 E63.19650
G1 X111.528 Y12.028 E63.26279
G1 X109.301 Y12.028 E63.32912
G1 X109.301 Y9.802 E63.39542
G0 F10500 X109.651 Y10.062
G0 X110.551 Y11.052
;LAYER:16
G1 F600 E61.89542
G1 Z6.225
G0 F10500 X46.670 Y10.991 Z6.505
;TYPE:WALL-INNER
G1 Z6.505
G1 F600 E63.39542
G1 F660 X45.443 Y10.991 E63.43196
G1 X45.443 Y9.764 E63.46851
G1 X46.670 Y9.764 E63.50505
G1 X46.670 Y10.991 E63.54160
G0 F10500 X47.170 Y11.491
;TYPE:WALL-OUTER
G1 F540 X44.943 Y11.491 E63.60792
G1 X44.943 Y9.264 E63.67425
G1 X47.170 Y9.264 E63.74058
G1 X47.170 Y11.491 E63.80691
G0 F10500 X46.820 Y11.231
G0 X45.920 Y10.241
G1 F600 E62.30691
G1 Z6.605
G0 F10500 X109.801 Y10.302
;TYPE:WALL-INNER
G1 Z6.505
G1 F600 E63.80691
G1 F660 X111.028 Y10.302 E63.84345
G1 X111.028 Y11.528 E63.87997
G1 X109.801 Y11.528 E63.91651
G1 X109.801 Y10.302 E63.95302
G0 F10500 X109.301 Y9.802
;TYPE:WALL-OUTER
G1 F540 X111.528 Y9.802 E64.01935
G1 X111.528 Y12.028 E64.08565
G1 X109.301 Y12.028 E64.15198
G1 X109.301 Y9.802 E64.21828
G0 F10500 X109.651 Y10.062
G0 X110.551 Y11.052
;LAYER:17
G1 F600 E62.71828
G1 Z6.605
G0 F10500 X46.670 Y10.991 Z6.885
;TYPE:WALL-INNER
G1 Z6.885
G1 F600 E64.21828
G1 F660 X45.443 Y10.991 E64.25482
G1 X45.443 Y9.764 E64.29136
G1 X46.670 Y9.764 E64.32791
G1 X46.670 Y10.991 E64.36445
G0 F10500 X47.170 Y11.491
;TYPE:WALL-OUTER
G1 F540 X44.943 Y11.491 E64.43078
G1 X44.943 Y9.264 E64.49711
G1 X47.170 Y9.264 E64.56344
G1 X47.170 Y11.491 E64.62976
G0 F10500 X46.820 Y11.231
G0 X45.920 Y10.241
G1 F600 E63.12976
G1 Z6.985
G0 F10500 X109.801 Y10.302
;TYPE:WALL-INNER
G1 Z6.885
G1 F600 E64.62976
G1 F660 X111.028 Y10.302 E64.66631
G1 X111.028 Y11.528 E64.70282
G1 X109.801 Y11.528 E64.73937
G1 X109.801 Y10.302 E64.77588
G0 F10500 X109.301 Y9.802
;TYPE:WALL-OUTER
G1 F540 X111.528 Y9.802 E64.84221
G1 X111.528 Y12.028 E64.90851
G1 X109.301 Y12.028 E64.97483
G1 X109.301 Y9.802 E65.04113
G0 F10500 X109.651 Y10.062
G0 X110.551 Y11.052
;LAYER:18
G1 F600 E63.54113
G1 Z6.985
G0 F10500 X46.670 Y10.991 Z7.265
;TYPE:WALL-INNER
G1 Z7.265
G1 F600 E65.04113
G1 F660 X45.443 Y10.991 E65.07767
G1 X45.443 Y9.764 E65.11422
G1 X46.670 Y9.764 E65.15076
G1 X46.670 Y10.991 E65.18731
G0 F10500 X47.170 Y11.491
;TYPE:WALL-OUTER
G1 F540 X44.943 Y11.491 E65.25364
G1 X44.943 Y9.264 E65.31996
G1 X47.170 Y9.264 E65.38629
G1 X47.170 Y11.491 E65.45262
G0 F10500 X46.820 Y11.231
G0 X45.920 Y10.241
G1 F600 E63.95262
G1 Z7.365
G0 F10500 X109.801 Y10.302
;TYPE:WALL-INNER
G1 Z7.265
G1 F600 E65.45262
G1 F660 X111.028 Y10.302 E65.48916
G1 X111.028 Y11.528 E65.52568
G1 X109.801 Y11.528 E65.56222
G1 X109.801 Y10.302 E65.59874
G0 F10500 X109.301 Y9.802
;TYPE:WALL-OUTER
G1 F540 X111.528 Y9.802 E65.66506
G1 X111.528 Y12.028 E65.73136
G1 X109.301 Y12.028 E65.79769
G1 X109.301 Y9.802 E65.86399
G0 F10500 X109.651 Y10.062
G0 X110.551 Y11.052
;LAYER:19
G1 F600 E64.36399
G1 Z7.365
G0 F10500 X46.670 Y10.991 Z7.645
;TYPE:WALL-INNER
G1 Z7.645
G1 F600 E65.86399
G1 F660 X45.443 Y10.991 E65.90053
G1 X45.443 Y9.764 E65.93707
G1 X46.670 Y9.764 E65.97362
G1 X46.670 Y10.991 E66.01016
G0 F10500 X47.170 Y11.491
;TYPE:WALL-OUTER
G1 F540 X44.943 Y11.491 E66.07649
G1 X44.943 Y9.264 E66.14282
G1 X47.170 Y9.264 E66.20915
G1 X47.170 Y11.491 E66.27547
G0 F10500 X46.820 Y11.231
G0 X45.920 Y10.241
G1 F600 E64.77547
G1 Z7.745
G0 F10500 X109.801 Y10.302
;TYPE:WALL-INNER
G1 Z7.645
G1 F600 E66.27547
G1 F660 X111.028 Y10.302 E66.31202
G1 X111.028 Y11.528 E66.34853
G1 X109.801 Y11.528 E66.38508
G1 X109.801 Y10.302 E66.42159
G0 F10500 X109.301 Y9.802
;TYPE:WALL-OUTER
G1 F540 X111.528 Y9.802 E66.48792
G1 X111.528 Y12.028 E66.55422
G1 X109.301 Y12.028 E66.62054
G1 X109.301 Y9.802 E66.68684
G0 F10500 X109.651 Y10.062
G0 X110.551 Y11.052
;LAYER:20
G1 F600 E65.18684
G1 Z7.745
G0 F10500 X46.670 Y10.991 Z8.025
;TYPE:WALL-INNER
G1 Z8.025
G1 F600 E66.68684
G1 F660 X45.443 Y10.991 E66.72339
G1 X45.443 Y9.764 E66.75993
G1 X46.670 Y9.764 E66.79647
G1 X46.670 Y10.991 E66.83302
G0 F10500 X47.170 Y11.491
;TYPE:WALL-OUTER
G1 F540 X44.943 Y11.491 E66.89935
G1 X44.943 Y9.264 E66.96567
G1 X47.170 Y9.264 E67.03200
G1 X47.170 Y11.491 E67.09833
G0 F10500 X46.820 Y11.231
G0 X45.920 Y10.241
G1 F600 E65.59833
G1 Z8.125
G0 F10500 X109.801 Y10.302
;TYPE:WALL-INNER
G1 Z8.025
G1 F600 E67.09833
G1 F660 X111.028 Y10.302 E67.13487
G1 X111.028 Y11.528 E67.17139
G1 X109.801 Y11.528 E67.20793
G1 X109.801 Y10.302 E67.24445
G0 F10500 X109.301 Y9.802
;TYPE:WALL-OUTER
G1 F540 X111.528 Y9.802 E67.31077
G1 X111.528 Y12.028 E67.37707
G1 X109.301 Y12.028 E67.44340
G1 X109.301 Y9.802 E67.50970
G0 F10500 X109.651 Y10.062
G0 X110.551 Y11.052
;LAYER:21
G1 F600 E66.00970
G1 Z8.125
G0 F10500 X46.670 Y10.991 Z8.405
;TYPE:WALL-INNER
G1 Z8.405
G1 F600 E67.50970
G1 F660 X45.443 Y10.991 E67.54624
G1 X45.443 Y9.764 E67.58278
G1 X46.670 Y9.764 E67.61933
G1 X46.670 Y10.991 E67.65587
G0 F10500 X47.170 Y11.491
;TYPE:WALL-OUTER
G1 F540 X44.943 Y11.491 E67.72220
G1 X44.943 Y9.264 E67.78853
G1 X47.170 Y9.264 E67.85486
G1 X47.170 Y11.491 E67.92118
G0 F10500 X46.820 Y11.231
G0 X45.920 Y10.241
G1 F600 E66.42118
G1 Z8.505
G0 F10500 X109.801 Y10.302
;TYPE:WALL-INNER
G1 Z8.405
G1 F600 E67.92118
G1 F660 X111.028 Y10.302 E67.95773
G1 X111.028 Y11.528 E67.99424
G1 X109.801 Y11.528 E68.03079
G1 X109.801 Y10.302 E68.06730
G0 F10500 X109.301 Y9.802
;TYPE:WALL-OUTER
G1 F540 X111.528 Y9.802 E68.13363
G1 X111.528 Y12.028 E68.19993
G1 X109.301 Y12.028 E68.26625
G1 X109.301 Y9.802 E68.33255
G0 F10500 X109.651 Y10.062
G0 X110.551 Y11.052
;LAYER:22
G1 F600 E66.83255
G1 Z8.505
G0 F10500 X46.670 Y10.991 Z8.785
;TYPE:WALL-INNER
G1 Z8.785
G1 F600 E68.33255
G1 F660 X45.443 Y10.991 E68.36910
G1 X45.443 Y9.764 E68.40564
G1 X46.670 Y9.764 E68.44218
G1 X46.670 Y10.991 E68.47873
G0 F10500 X47.170 Y11.491
;TYPE:WALL-OUTER
G1 F540 X44.943 Y11.491 E68.54506
G1 X44.943 Y9.264 E68.61138
G1 X47.170 Y9.264 E68.67771
G1 X47.170 Y11.491 E68.74404
G0 F10500 X46.820 Y11.231
G0 X45.920 Y10.241
G1 F600 E67.24404
G1 Z8.885
G0 F10500 X109.801 Y10.302
;TYPE:WALL-INNER
G1 Z8.785
G1 F600 E68.74404
G1 F660 X111.028 Y10.302 E68.78058
G1 X111.028 Y11.528 E68.81710
G1 X109.801 Y11.528 E68.85364
G1 X109.801 Y10.302 E68.89016
G0 F10500 X109.301 Y9.802
;TYPE:WALL-OUTER
G1 F540 X111.528 Y9.802 E68.95648
G1 X111.528 Y12.028 E69.02278
G1 X109.301 Y12.028 E69.08911
G1 X109.301 Y9.802 E69.15541
G0 F10500 X109.651 Y10.062
G0 X110.551 Y11.052
;LAYER:23
G1 F600 E67.65541
G1 Z8.885
G0 F10500 X46.670 Y10.991 Z9.165
;TYPE:WALL-INNER
G1 Z9.165
G1 F600 E69.15541
G1 F660 X45.443 Y10.991 E69.19195
G1 X45.443 Y9.764 E69.22850
G1 X46.670 Y9.764 E69.26504
G1 X46.670 Y10.991 E69.30158
G0 F10500 X47.170 Y11.491
;TYPE:WALL-OUTER
G1 F540 X44.943 Y11.491 E69.36791
G1 X44.943 Y9.264 E69.43424
G1 X47.170 Y9.264 E69.50057
G1 X47.170 Y11.491 E69.56689
G0 F10500 X46.820 Y11.231
G0 X45.920 Y10.241
G1 F600 E68.06689
G1 Z9.265
G0 F10500 X109.801 Y10.302
;TYPE:WALL-INNER
G1 Z9.165
G1 F600 E69.56689
G1 F660 X111.028 Y10.302 E69.60344
G1 X111.028 Y11.528 E69.63995
G1 X109.801 Y11.528 E69.67650
G1 X109.801 Y10.302 E69.71301
G0 F10500 X109.301 Y9.802
;TYPE:WALL-OUTER
G1 F540 X111.528 Y9.802 E69.77934
G1 X111.528 Y12.028 E69.84564
G1 X109.301 Y12.028 E69.91196
G1 X109.301 Y9.802 E69.97826
G0 F10500 X109.651 Y10.062
G0 X110.551 Y11.052
;LAYER:24
G1 F600 E68.47826
G1 Z9.265
G0 F10500 X46.670 Y10.991 Z9.545
;TYPE:WALL-INNER
G1 Z9.545
G1 F600 E69.97826
G1 F660 X45.443 Y10.991 E70.01481
G1 X45.443 Y9.764 E70.05135
G1 X46.670 Y9.764 E70.08789
G1 X46.670 Y10.991 E70.12444
G0 F10500 X47.170 Y11.491
;TYPE:WALL-OUTER
G1 F540 X44.943 Y11.491 E70.19077
G1 X44.943 Y9.264 E70.25709
G1 X47.170 Y9.264 E70.32342
G1 X47.170 Y11.491 E70.38975
G0 F10500 X46.820 Y11.231
G0 X45.920 Y10.241
G1 F600 E68.88975
G1 Z9.645
G0 F10500 X109.801 Y10.302
;TYPE:WALL-INNER
G1 Z9.545
G1 F600 E70.38975
G1 F660 X111.028 Y10.302 E70.42629
G1 X111.028 Y11.528 E70.46281
G1 X109.801 Y11.528 E70.49935
G1 X109.801 Y10.302 E70.53587
G0 F10500 X109.301 Y9.802
;TYPE:WALL-OUTER
G1 F540 X111.528 Y9.802 E70.60219
G1 X111.528 Y12.028 E70.66849
G1 X109.301 Y12.028 E70.73482
G1 X109.301 Y9.802 E70.80112
G0 F10500 X109.651 Y10.062
G0 X110.551 Y11.052
;LAYER:25
G1 F600 E69.30112
G1 Z9.645
G0 F10500 X46.670 Y10.991 Z9.925
;TYPE:WALL-INNER
G1 Z9.925
G1 F600 E70.80112
G1 F660 X45.443 Y10.991 E70.83766
G1 X45.443 Y9.764 E70.87421
G1 X46.670 Y9.764 E70.91075
G1 X46.670 Y10.991 E70.94729
G0 F10500 X47.170 Y11.491
;TYPE:WALL-OUTER
G1 F540 X44.943 Y11.491 E71.01362
G1 X44.943 Y9.264 E71.07995
G1 X47.170 Y9.264 E71.14628
G1 X47.170 Y11.491 E71.21260
G0 F10500 X46.820 Y11.231
G0 X45.920 Y10.241
G1 F600 E69.71260
G1 Z10.025
G0 F10500 X109.801 Y10.302
;TYPE:WALL-INNER
G1 Z9.925
G1 F600 E71.21260
G1 F660 X111.028 Y10.302 E71.24915
G1 X111.028 Y11.528 E71.28566
G1 X109.801 Y11.528 E71.32221
G1 X109.801 Y10.302 E71.35872
G0 F10500 X109.301 Y9.802
;TYPE:WALL-OUTER
G1 F540 X111.528 Y9.802 E71.42505
G1 X111.528 Y12.028 E71.49135
G1 X109.301 Y12.028 E71.55767
G1 X109.301 Y9.802 E71.62397
G0 F10500 X109.651 Y10.062
G0 X110.551 Y11.052
;LAYER:26
G1 F600 E70.12397
G1 Z10.025
G0 F10500 X46.670 Y10.991 Z10.305
;TYPE:WALL-INNER
G1 Z10.305
G1 F600 E71.62397
G1 F660 X45.443 Y10.991 E71.66052
G1 X45.443 Y9.764 E71.69706
G1 X46.670 Y9.764 E71.73361
G1 X46.670 Y10.991 E71.77015
G0 F10500 X47.170 Y11.491
;TYPE:WALL-OUTER
G1 F540 X44.943 Y11.491 E71.83648
G1 X44.943 Y9.264 E71.90280
G1 X47.170 Y9.264 E71.96913
G1 X47.170 Y11.491 E72.03546
G0 F10500 X46.820 Y11.231
G0 X45.920 Y10.241
G1 F600 E70.53546
G1 Z10.405
G0 F10500 X109.801 Y10.302
;TYPE:WALL-INNER
G1 Z10.305
G1 F600 E72.03546
G1 F660 X111.028 Y10.302 E72.07200
G1 X111.028 Y11.528 E72.10852
G1 X109.801 Y11.528 E72.14506
G1 X109.801 Y10.302 E72.18158
G0 F10500 X109.301 Y9.802
;TYPE:WALL-OUTER
G1 F540 X111.528 Y9.802 E72.24790
G1 X111.528 Y12.028 E72.31420
G1 X109.301 Y12.028 E72.38053
G1 X109.301 Y9.802 E72.44683
G0 F10500 X109.651 Y10.062
G0 X110.551 Y11.052
;LAYER:27
G1 F600 E70.94683
G1 Z10.405
G0 F10500 X46.670 Y10.991 Z10.685
;TYPE:WALL-INNER
G1 Z10.685
G1 F600 E72.44683
G1 F660 X45.443 Y10.991 E72.48337
G1 X45.443 Y9.764 E72.51992
G1 X46.670 Y9.764 E72.55646
G1 X46.670 Y10.991 E72.59300
G0 F10500 X47.170 Y11.491
;TYPE:WALL-OUTER
G1 F540 X44.943 Y11.491 E72.65933
G1 X44.943 Y9.264 E72.72566
G1 X47.170 Y9.264 E72.79199
G1 X47.170 Y11.491 E72.85832
G0 F10500 X46.820 Y11.231
G0 X45.920 Y10.241
G1 F600 E71.35832
G1 Z10.785
G0 F10500 X109.801 Y10.302
;TYPE:WALL-INNER
G1 Z10.685
G1 F600 E72.85832
G1 F660 X111.028 Y10.302 E72.89486
G1 X111.028 Y11.528 E72.93137
G1 X109.801 Y11.528 E72.96792
G1 X109.801 Y10.302 E73.00443
G0 F10500 X109.301 Y9.802
;TYPE:WALL-OUTER
G1 F540 X111.528 Y9.802 E73.07076
G1 X111.528 Y12.028 E73.13706
G1 X109.301 Y12.028 E73.20339
G1 X109.301 Y9.802 E73.26968
G0 F10500 X109.651 Y10.062
G0 X110.551 Y11.052
;LAYER:28
G1 F600 E71.76968
G1 Z10.785
G0 F10500 X46.670 Y10.991 Z11.065
;TYPE:WALL-INNER
G1 Z11.065
G1 F600 E73.26968
G1 F660 X45.443 Y10.991 E73.30623
G1 X45.443 Y9.764 E73.34277
G1 X46.670 Y9.764 E73.37932
G1 X46.670 Y10.991 E73.41586
G0 F10500 X47.170 Y11.491
;TYPE:WALL-OUTER
G1 F540 X44.943 Y11.491 E73.48219
G1 X44.943 Y9.264 E73.54852
G1 X47.170 Y9.264 E73.61484
G1 X47.170 Y11.491 E73.68117
G0 F10500 X46.820 Y11.231
G0 X45.920 Y10.241
G1 F600 E72.18117
G1 Z11.165
G0 F10500 X45.755 Y12.134
G1 Z11.065
G1 F600 E73.68117
G1 F540 X46.358 Y12.134 E73.69913
G1 X46.358 Y12.438 E73.70818
G1 X45.755 Y12.439 E73.72614
G1 X45.755 Y12.134 E73.73523
G1 F600 E72.23523
G1 Z11.165
G0 F10500 X109.801 Y11.528
;TYPE:WALL-INNER
G1 Z11.065
G1 F600 E73.73523
G1 F660 X109.801 Y10.302 E73.77174
G1 X111.028 Y10.302 E73.80829
G1 X111.028 Y11.528 E73.84480
G1 X109.801 Y11.528 E73.88134
G0 F10500 X109.301 Y12.028
;TYPE:WALL-OUTER
G1 F540 X109.301 Y9.802 E73.94764
G1 X111.528 Y9.802 E74.01397
G1 X111.528 Y12.028 E74.08027
G1 X109.301 Y12.028 E74.14660
G0 F10500 X109.561 Y11.678
G0 X110.551 Y10.778
G1 F600 E72.64660
G1 Z11.165
G0 F10500 X110.715 Y12.672
G1 Z11.065
G1 F600 E74.14660
G1 F540 X110.715 Y12.976 E74.15565
G1 X110.113 Y12.977 E74.17358
G1 X110.113 Y12.672 E74.18266
G1 X110.715 Y12.672 E74.20059
;LAYER:29
G1 F600 E72.70059
G1 Z11.165
G0 F10500 X46.670 Y10.991 Z11.445
;TYPE:WALL-INNER
G1 Z11.445
G1 F600 E74.20059
G1 F660 X45.443 Y10.991 E74.23714
G1 X45.443 Y9.764 E74.27368
G1 X46.670 Y9.764 E74.31023
G1 X46.670 Y10.991 E74.34677
G0 F10500 X47.170 Y11.491
;TYPE:WALL-OUTER
G1 F540 X44.943 Y11.491 E74.41310
G1 X44.943 Y9.264 E74.47942
G1 X47.170 Y9.264 E74.54575
G1 X47.170 Y11.491 E74.61208
G0 F10500 X46.820 Y11.231
G0 X45.920 Y10.241
G1 F600 E73.11208
G1 Z11.545
G0 F10500 X45.857 Y12.865
G1 Z11.445
G1 F600 E74.61208
G1 F540 X45.755 Y12.865 E74.61512
G1 X45.755 Y12.134 E74.63689
G1 X46.358 Y12.134 E74.65485
G1 X46.358 Y12.864 E74.67659
G1 X45.857 Y12.865 E74.69151
G1 F600 E73.19151
G1 Z11.545
G0 F10500 X109.801 Y11.528
;TYPE:WALL-INNER
G1 Z11.445
G1 F600 E74.69151
G1 F660 X109.801 Y10.302 E74.72803
G1 X111.028 Y10.302 E74.76457
G1 X111.028 Y11.528 E74.80109
G1 X109.801 Y11.528 E74.83763
G0 F10500 X109.301 Y12.028
;TYPE:WALL-OUTER
G1 F540 X109.301 Y9.802 E74.90393
G1 X111.528 Y9.802 E74.97025
G1 X111.528 Y12.028 E75.03655
G1 X109.301 Y12.028 E75.10288
G0 F10500 X109.561 Y11.678
G0 X110.551 Y10.778
G1 F600 E73.60288
G1 Z11.545
G0 F10500 X110.214 Y13.403
G1 Z11.445
G1 F600 E75.10288
G1 F540 X110.113 Y13.403 E75.10589
G1 X110.113 Y12.672 E75.12766
G1 X110.715 Y12.672 E75.14559
G1 X110.715 Y13.402 E75.16733
G1 X110.214 Y13.403 E75.18225
;LAYER:30
G1 F600 E73.68225
G1 Z11.545
G0 F10500 X46.670 Y10.991 Z11.825
;TYPE:WALL-INNER
G1 Z11.825
G1 F600 E75.18225
G1 F660 X45.443 Y10.991 E75.21880
G1 X45.443 Y9.764 E75.25534
G1 X46.670 Y9.764 E75.29189
G1 X46.670 Y10.991 E75.32843
G0 F10500 X47.170 Y11.491
;TYPE:WALL-OUTER
G1 F540 X44.943 Y11.491 E75.39476
G1 X44.943 Y9.264 E75.46108
G1 X47.170 Y9.264 E75.52741
G1 X47.170 Y11.491 E75.59374
G0 F10500 X46.820 Y11.231
G0 X45.920 Y10.241
G1 F600 E74.09374
G1 Z11.925
G0 F10500 X45.755 Y12.134
G1 Z11.825
G1 F600 E75.59374
G1 F540 X46.358 Y12.134 E75.61170
G1 X46.358 Y13.290 E75.64613
G1 X45.755 Y13.290 E75.66409
G1 X45.755 Y12.134 E75.69852
G1 F600 E74.19852
G1 Z11.925
G0 F10500 X109.801 Y11.528
;TYPE:WALL-INNER
G1 Z11.825
G1 F600 E75.69852
G1 F660 X109.801 Y10.302 E75.73503
G1 X111.028 Y10.302 E75.77158
G1 X111.028 Y11.528 E75.80809
G1 X109.801 Y11.528 E75.84464
G0 F10500 X109.301 Y12.028
;TYPE:WALL-OUTER
G1 F540 X109.301 Y9.802 E75.91093
G1 X111.528 Y9.802 E75.97726
G1 X111.528 Y12.028 E76.04356
G1 X109.301 Y12.028 E76.10989
G0 F10500 X109.561 Y11.678
G0 X110.551 Y10.778
G1 F600 E74.60989
G1 Z11.925
G0 F10500 X110.715 Y12.672
G1 Z11.825
G1 F600 E76.10989
G1 F540 X110.715 Y13.828 E76.14432
G1 X110.113 Y13.828 E76.16225
G1 X110.113 Y12.672 E76.19667
G1 X110.715 Y12.672 E76.21460
;LAYER:31
G1 F600 E74.71460
G1 Z11.925
G0 F10500 X46.670 Y10.991 Z12.205
;TYPE:WALL-INNER
G1 Z12.205
G1 F600 E76.21460
G1 F660 X45.443 Y10.991 E76.25115
G1 X45.443 Y9.764 E76.28769
G1 X46.670 Y9.764 E76.32424
G1 X46.670 Y10.991 E76.36078
G0 F10500 X47.170 Y11.491
;TYPE:WALL-OUTER
G1 F540 X44.943 Y11.491 E76.42711
G1 X44.943 Y9.264 E76.49344
G1 X47.170 Y9.264 E76.55976
G1 X47.170 Y11.491 E76.62609
G0 F10500 X46.820 Y11.231
G0 X45.920 Y10.241
G1 F600 E75.12609
G1 Z12.305
G0 F10500 X45.755 Y12.134
G1 Z12.205
G1 F600 E76.62609
G1 F540 X46.358 Y12.134 E76.64405
G1 X46.358 Y13.715 E76.69114
G1 X45.755 Y13.715 E76.70910
G1 X45.755 Y12.134 E76.75619
G1 F600 E75.25619
G1 Z12.305
G0 F10500 X109.801 Y11.528
;TYPE:WALL-INNER
G1 Z12.205
G1 F600 E76.75619
G1 F660 X109.801 Y10.302 E76.79270
G1 X111.028 Y10.302 E76.82924
G1 X111.028 Y11.528 E76.86576
G1 X109.801 Y11.528 E76.90230
G0 F10500 X109.301 Y12.028
;TYPE:WALL-OUTER
G1 F540 X109.301 Y9.802 E76.96860
G1 X111.528 Y9.802 E77.03493
G1 X111.528 Y12.028 E77.10123
G1 X109.301 Y12.028 E77.16755
G0 F10500 X109.561 Y11.678
G0 X110.551 Y10.778
G1 F600 E75.66755
G1 Z12.305
G0 F10500 X110.715 Y12.672
G1 Z12.205
G1 F600 E77.16755
G1 F540 X110.715 Y14.253 E77.21464
G1 X110.113 Y14.253 E77.23257
G1 X110.113 Y12.672 E77.27966
G1 X110.715 Y12.672 E77.29759
;LAYER:32
G1 F600 E75.79759
G1 Z12.305
G0 F10500 X46.670 Y10.991 Z12.585
;TYPE:WALL-INNER
G1 Z12.585
G1 F600 E77.29759
G1 F660 X45.443 Y10.991 E77.33413
G1 X45.443 Y9.764 E77.37068
G1 X46.670 Y9.764 E77.40722
G1 X46.670 Y10.991 E77.44376
G0 F10500 X47.170 Y11.491
;TYPE:WALL-OUTER
G1 F540 X44.943 Y11.491 E77.51009
G1 X44.943 Y9.264 E77.57642
G1 X47.170 Y9.264 E77.64275
G1 X47.170 Y11.491 E77.70907
G0 F10500 X46.820 Y11.231
G0 X45.920 Y10.241
G1 F600 E76.20907
G1 Z12.685
G0 F10500 X45.755 Y12.134
G1 Z12.585
G1 F600 E77.70907
G1 F540 X46.358 Y12.134 E77.72703
G1 X46.358 Y14.141 E77.78681
G1 X45.755 Y14.141 E77.80477
G1 X45.755 Y12.134 E77.86454
G1 F600 E76.36454
G1 Z12.685
G0 F10500 X109.801 Y11.528
;TYPE:WALL-INNER
G1 Z12.585
G1 F600 E77.86454
G1 F660 X109.801 Y10.302 E77.90106
G1 X111.028 Y10.302 E77.93760
G1 X111.028 Y11.528 E77.97412
G1 X109.801 Y11.528 E78.01066
G0 F10500 X109.301 Y12.028
;TYPE:WALL-OUTER
G1 F540 X109.301 Y9.802 E78.07696
G1 X111.528 Y9.802 E78.14329
G1 X111.528 Y12.028 E78.20958
G1 X109.301 Y12.028 E78.27591
G0 F10500 X109.561 Y11.678
G0 X110.551 Y10.778
G1 F600 E76.77591
G1 Z12.685
G0 F10500 X110.715 Y12.672
G1 Z12.585
G1 F600 E78.27591
G1 F540 X110.715 Y14.679 E78.33569
G1 X110.113 Y14.679 E78.35362
G1 X110.113 Y12.672 E78.41339
G1 X110.715 Y12.672 E78.43132
;LAYER:33
G1 F600 E76.93132
G1 Z12.685
G0 F10500 X46.670 Y10.991 Z12.965
;TYPE:WALL-INNER
G1 Z12.965
G1 F600 E78.43132
G1 F660 X45.443 Y10.991 E78.46787
G1 X45.443 Y9.764 E78.50441
G1 X46.670 Y9.764 E78.54095
G1 X46.670 Y10.991 E78.57750
G0 F10500 X47.170 Y11.491
;TYPE:WALL-OUTER
G1 F540 X44.943 Y11.491 E78.64383
G1 X44.943 Y9.264 E78.71015
G1 X47.170 Y9.264 E78.77648
G1 X47.170 Y11.491 E78.84281
G0 F10500 X46.820 Y11.231
G0 X45.920 Y10.241
G1 F600 E77.34281
G1 Z13.065
G0 F10500 X45.755 Y12.134
G1 Z12.965
G1 F600 E78.84281
G1 F540 X46.358 Y12.134 E78.86077
G1 X46.358 Y14.568 E78.93326
G1 X45.755 Y14.567 E78.95122
G1 X45.755 Y12.134 E79.02368
G1 F600 E77.52368
G1 Z13.065
G0 F10500 X109.801 Y11.528
;TYPE:WALL-INNER
G1 Z12.965
G1 F600 E79.02368
G1 F660 X109.801 Y10.302 E79.06020
G1 X111.028 Y10.302 E79.09674
G1 X111.028 Y11.528 E79.13326
G1 X109.801 Y11.528 E79.16980
G0 F10500 X109.301 Y12.028
;TYPE:WALL-OUTER
G1 F540 X109.301 Y9.802 E79.23610
G1 X111.528 Y9.802 E79.30243
G1 X111.528 Y12.028 E79.36872
G1 X109.301 Y12.028 E79.43505
G0 F10500 X109.561 Y11.678
G0 X110.551 Y10.778
G1 F600 E77.93505
G1 Z13.065
G0 F10500 X110.715 Y12.672
G1 Z12.965
G1 F600 E79.43505
G1 F540 X110.715 Y15.106 E79.50754
G1 X110.113 Y15.105 E79.52547
G1 X110.113 Y12.672 E79.59794
G1 X110.715 Y12.672 E79.61587
;LAYER:34
G1 F600 E78.11587
G1 Z13.065
G0 F10500 X46.670 Y10.991 Z13.345
;TYPE:WALL-INNER
G1 Z13.345
G1 F600 E79.61587
G1 F660 X45.443 Y10.991 E79.65241
G1 X45.443 Y9.764 E79.68896
G1 X46.670 Y9.764 E79.72550
G1 X46.670 Y10.991 E79.76204
G0 F10500 X47.170 Y11.491
;TYPE:WALL-OUTER
G1 F540 X44.943 Y11.491 E79.82837
G1 X44.943 Y9.264 E79.89470
G1 X47.170 Y9.264 E79.96103
G1 X47.170 Y11.491 E80.02735
G0 F10500 X46.820 Y11.231
G0 X45.920 Y10.241
G1 F600 E78.52735
G1 Z13.445
G0 F10500 X45.755 Y12.134
G1 Z13.345
G1 F600 E80.02735
G1 F540 X46.358 Y12.134 E80.04531
G1 X46.358 Y14.994 E80.13049
G1 X45.755 Y14.993 E80.14845
G1 X45.755 Y12.134 E80.23360
G1 F600 E78.73360
G1 Z13.445
G0 F10500 X109.801 Y11.528
;TYPE:WALL-INNER
G1 Z13.345
G1 F600 E80.23360
G1 F660 X109.801 Y10.302 E80.27012
G1 X111.028 Y10.302 E80.30666
G1 X111.028 Y11.528 E80.34318
G1 X109.801 Y11.528 E80.37972
G0 F10500 X109.301 Y12.028
;TYPE:WALL-OUTER
G1 F540 X109.301 Y9.802 E80.44602
G1 X111.528 Y9.802 E80.51235
G1 X111.528 Y12.028 E80.57864
G1 X109.301 Y12.028 E80.64497
G0 F10500 X109.561 Y11.678
G0 X110.551 Y10.778
G1 F600 E79.14497
G1 Z13.445
G0 F10500 X110.715 Y12.672
G1 Z13.345
G1 F600 E80.64497
G1 F540 X110.715 Y15.532 E80.73015
G1 X110.113 Y15.531 E80.74808
G1 X110.113 Y12.672 E80.83323
G1 X110.715 Y12.672 E80.85116
;LAYER:35
G1 F600 E79.35116
G1 Z13.445
G0 F10500 X46.670 Y10.991 Z13.725
;TYPE:WALL-INNER
G1 Z13.725
G1 F600 E80.85116
G1 F660 X45.443 Y10.991 E80.88771
G1 X45.443 Y9.764 E80.92425
G1 X46.670 Y9.764 E80.96079
G1 X46.670 Y10.991 E80.99734
G0 F10500 X47.170 Y11.491
;TYPE:WALL-OUTER
G1 F540 X44.943 Y11.491 E81.06367
G1 X44.943 Y9.264 E81.12999
G1 X47.170 Y9.264 E81.19632
G1 X47.170 Y11.491 E81.26265
G0 F10500 X46.820 Y11.231
G0 X45.920 Y10.241
G1 F600 E79.76265
G1 Z13.825
G0 F10500 X45.755 Y12.134
G1 Z13.725
G1 F600 E81.26265
G1 F540 X46.358 Y12.134 E81.28061
G1 X46.358 Y15.420 E81.37848
G1 X45.755 Y15.419 E81.39644
G1 X45.755 Y12.134 E81.49427
G1 F600 E79.99427
G1 Z13.825
G0 F10500 X109.801 Y11.528
;TYPE:WALL-INNER
G1 Z13.725
G1 F600 E81.49427
G1 F660 X109.801 Y10.302 E81.53079
G1 X111.028 Y10.302 E81.56733
G1 X111.028 Y11.528 E81.60385
G1 X109.801 Y11.528 E81.64039
G0 F10500 X109.301 Y12.028
;TYPE:WALL-OUTER
G1 F540 X109.301 Y9.802 E81.70669
G1 X111.528 Y9.802 E81.77302
G1 X111.528 Y12.028 E81.83932
G1 X109.301 Y12.028 E81.90564
G0 F10500 X109.561 Y11.678
G0 X110.551 Y10.778
G1 F600 E80.40564
G1 Z13.825
G0 F10500 X110.715 Y12.672
G1 Z13.725
G1 F600 E81.90564
G1 F540 X110.715 Y15.958 E82.00351
G1 X110.113 Y15.957 E82.02144
G1 X110.113 Y12.672 E82.11928
G1 X110.715 Y12.672 E82.13721
;LAYER:36
G1 F600 E80.63721
G1 Z13.825
G0 F10500 X46.670 Y10.991 Z14.105
;TYPE:WALL-INNER
G1 Z14.105
G1 F600 E82.13721
G1 F660 X45.443 Y10.991 E82.17375
G1 X45.443 Y9.764 E82.21030
G1 X46.670 Y9.764 E82.24684
G1 X46.670 Y10.991 E82.28339
G0 F10500 X47.170 Y11.491
;TYPE:WALL-OUTER
G1 F540 X44.943 Y11.491 E82.34971
G1 X44.943 Y9.264 E82.41604
G1 X47.170 Y9.264 E82.48237
G1 X47.170 Y11.491 E82.54870
G0 F10500 X46.820 Y11.231
G0 X45.920 Y10.241
G1 F600 E81.04870
G1 Z14.205
G0 F10500 X45.755 Y12.134
G1 Z14.105
G1 F600 E82.54870
G1 F540 X46.358 Y12.134 E82.56666
G1 X46.358 Y15.510 E82.66720
G1 X45.755 Y15.510 E82.68516
G1 X45.755 Y12.134 E82.78571
G1 F600 E81.28571
G1 Z14.205
G0 F10500 X109.801 Y11.528
;TYPE:WALL-INNER
G1 Z14.105
G1 F600 E82.78571
G1 F660 X109.801 Y10.302 E82.82223
G1 X111.028 Y10.302 E82.85877
G1 X111.028 Y11.528 E82.89529
G1 X109.801 Y11.528 E82.93183
G0 F10500 X109.301 Y12.028
;TYPE:WALL-OUTER
G1 F540 X109.301 Y9.802 E82.99813
G1 X111.528 Y9.802 E83.06445
G1 X111.528 Y12.028 E83.13075
G1 X109.301 Y12.028 E83.19708
G0 F10500 X109.561 Y11.678
G0 X110.551 Y10.778
G1 F600 E81.69708
G1 Z14.205
G0 F10500 X110.715 Y12.672
G1 Z14.105
G1 F600 E83.19708
G1 F540 X110.715 Y16.048 E83.29763
G1 X110.113 Y16.048 E83.31556
G1 X110.113 Y12.672 E83.41611
G1 X110.715 Y12.672 E83.43404
;LAYER:37
G1 F600 E81.93404
G1 Z14.205
G0 F10500 X46.670 Y10.991 Z14.485
;TYPE:WALL-INNER
G1 Z14.485
G1 F600 E83.43404
G1 F660 X45.443 Y10.991 E83.47058
G1 X45.443 Y9.764 E83.50713
G1 X46.670 Y9.764 E83.54367
G1 X46.670 Y10.991 E83.58021
G0 F10500 X47.170 Y11.491
;TYPE:WALL-OUTER
G1 F540 X44.943 Y11.491 E83.64654
G1 X44.943 Y9.264 E83.71287
G1 X47.170 Y9.264 E83.77920
G1 X47.170 Y11.491 E83.84552
G0 F10500 X46.820 Y11.231
G0 X45.920 Y10.241
G1 F600 E82.34552
G1 Z14.585
G0 F10500 X45.755 Y12.134
G1 Z14.485
G1 F600 E83.84552
G1 F540 X46.358 Y12.134 E83.86348
G1 X46.358 Y15.193 E83.95459
G1 X45.755 Y15.193 E83.97255
G1 X45.755 Y12.134 E84.06366
G1 F600 E82.56366
G1 Z14.585
G0 F10500 X109.801 Y11.528
;TYPE:WALL-INNER
G1 Z14.485
G1 F600 E84.06366
G1 F660 X109.801 Y10.302 E84.10017
G1 X111.028 Y10.302 E84.13672
G1 X111.028 Y11.528 E84.17323
G1 X109.801 Y11.528 E84.20977
G0 F10500 X109.301 Y12.028
;TYPE:WALL-OUTER
G1 F540 X109.301 Y9.802 E84.27607
G1 X111.528 Y9.802 E84.34240
G1 X111.528 Y12.028 E84.40870
G1 X109.301 Y12.028 E84.47503
G0 F10500 X109.561 Y11.678
G0 X110.551 Y10.778
G1 F600 E82.97503
G1 Z14.585
G0 F10500 X110.715 Y12.672
G1 Z14.485
G1 F600 E84.47503
G1 F540 X110.715 Y15.731 E84.56613
G1 X110.113 Y15.731 E84.58406
G1 X110.113 Y12.672 E84.67517
G1 X110.715 Y12.672 E84.69310
;LAYER:38
G1 F600 E83.19310
G1 Z14.585
G0 F10500 X46.670 Y10.991 Z14.865
;TYPE:WALL-INNER
G1 Z14.865
G1 F600 E84.69310
G1 F660 X45.443 Y10.991 E84.72964
G1 X45.443 Y9.764 E84.76619
G1 X46.670 Y9.764 E84.80273
G1 X46.670 Y10.991 E84.83928
G0 F10500 X47.170 Y11.491
;TYPE:WALL-OUTER
G1 F540 X44.943 Y11.491 E84.90560
G1 X44.943 Y9.264 E84.97193
G1 X47.170 Y9.264 E85.03826
G1 X47.170 Y11.491 E85.10459
G0 F10500 X46.820 Y11.231
G0 X45.920 Y10.241
G1 F600 E83.60459
G1 Z14.965
G0 F10500 X45.755 Y12.134
G1 Z14.865
G1 F600 E85.10459
G1 F540 X46.358 Y12.134 E85.12255
G1 X46.358 Y14.767 E85.20097
G1 X45.755 Y14.767 E85.21892
G1 X45.755 Y12.134 E85.29734
G1 F600 E83.79734
G1 Z14.965
G0 F10500 X109.801 Y11.528
;TYPE:WALL-INNER
G1 Z14.865
G1 F600 E85.29734
G1 F660 X109.801 Y10.302 E85.33386
G1 X111.028 Y10.302 E85.37040
G1 X111.028 Y11.528 E85.40692
G1 X109.801 Y11.528 E85.44346
G0 F10500 X109.301 Y12.028
;TYPE:WALL-OUTER
G1 F540 X109.301 Y9.802 E85.50976
G1 X111.528 Y9.802 E85.57609
G1 X111.528 Y12.028 E85.64239
G1 X109.301 Y12.028 E85.70871
G0 F10500 X109.561 Y11.678
G0 X110.551 Y10.778
G1 F600 E84.20871
G1 Z14.965
G0 F10500 X110.715 Y12.672
G1 Z14.865
G1 F600 E85.70871
G1 F540 X110.715 Y15.305 E85.78713
G1 X110.113 Y15.305 E85.80506
G1 X110.113 Y12.672 E85.88348
G1 X110.715 Y12.672 E85.90141
;LAYER:39
G1 F600 E84.40141
G1 Z14.965
G0 F10500 X46.670 Y10.991 Z15.245
;TYPE:WALL-INNER
G1 Z15.245
G1 F600 E85.90141
G1 F660 X45.443 Y10.991 E85.93796
G1 X45.443 Y9.764 E85.97450
G1 X46.670 Y9.764 E86.01104
G1 X46.670 Y10.991 E86.04759
G0 F10500 X47.170 Y11.491
;TYPE:WALL-OUTER
G1 F540 X44.943 Y11.491 E86.11392
G1 X44.943 Y9.264 E86.18024
G1 X47.170 Y9.264 E86.24657
G1 X47.170 Y11.491 E86.31290
G0 F10500 X46.820 Y11.231
G0 X45.920 Y10.241
G1 F600 E84.81290
G1 Z15.345
G0 F10500 X45.755 Y12.134
G1 Z15.245
G1 F600 E86.31290
G1 F540 X46.358 Y12.134 E86.33086
G1 X46.358 Y14.342 E86.39662
G1 X45.755 Y14.343 E86.41458
G1 X45.755 Y12.134 E86.48037
G1 F600 E84.98037
G1 Z15.345
G0 F10500 X109.801 Y11.528
;TYPE:WALL-INNER
G1 Z15.245
G1 F600 E86.48037
G1 F660 X109.801 Y10.302 E86.51688
G1 X111.028 Y10.302 E86.55343
G1 X111.028 Y11.528 E86.58994
G1 X109.801 Y11.528 E86.62649
G0 F10500 X109.301 Y12.028
;TYPE:WALL-OUTER
G1 F540 X109.301 Y9.802 E86.69279
G1 X111.528 Y9.802 E86.75911
G1 X111.528 Y12.028 E86.82541
G1 X109.301 Y12.028 E86.89174
G0 F10500 X109.561 Y11.678
G0 X110.551 Y10.778
G1 F600 E85.39174
G1 Z15.345
G0 F10500 X110.715 Y12.672
G1 Z15.245
G1 F600 E86.89174
G1 F540 X110.715 Y14.880 E86.95750
G1 X110.113 Y14.881 E86.97543
G1 X110.113 Y12.672 E87.04122
G1 X110.715 Y12.672 E87.05915
;LAYER:40
G1 F600 E85.55915
G1 Z15.345
G0 F10500 X46.670 Y10.991 Z15.625
;TYPE:WALL-INNER
G1 Z15.625
G1 F600 E87.05915
G1 F660 X45.443 Y10.991 E87.09569
G1 X45.443 Y9.764 E87.13224
G1 X46.670 Y9.764 E87.16878
G1 X46.670 Y10.991 E87.20533
G0 F10500 X47.170 Y11.491
;TYPE:WALL-OUTER
G1 F540 X44.943 Y11.491 E87.27166
G1 X44.943 Y9.264 E87.33798
G1 X47.170 Y9.264 E87.40431
G1 X47.170 Y11.491 E87.47064
G0 F10500 X46.820 Y11.231
G0 X45.920 Y10.241
G1 F600 E85.97064
G1 Z15.725
G0 F10500 X45.755 Y12.134
G1 Z15.625
G1 F600 E87.47064
G1 F540 X46.358 Y12.134 E87.48860
G1 X46.358 Y13.916 E87.54167
G1 X45.755 Y13.917 E87.55963
G1 X45.755 Y12.134 E87.61273
G1 F600 E86.11273
G1 Z15.725
G0 F10500 X109.801 Y11.528
;TYPE:WALL-INNER
G1 Z15.625
G1 F600 E87.61273
G1 F660 X109.801 Y10.302 E87.64925
G1 X111.028 Y10.302 E87.68579
G1 X111.028 Y11.528 E87.72231
G1 X109.801 Y11.528 E87.75885
G0 F10500 X109.301 Y12.028
;TYPE:WALL-OUTER
G1 F540 X109.301 Y9.802 E87.82515
G1 X111.528 Y9.802 E87.89148
G1 X111.528 Y12.028 E87.95777
G1 X109.301 Y12.028 E88.02410
G0 F10500 X109.561 Y11.678
G0 X110.551 Y10.778
G1 F600 E86.52410
G1 Z15.725
G0 F10500 X110.715 Y12.672
G1 Z15.625
G1 F600 E88.02410
G1 F540 X110.715 Y14.454 E88.07718
G1 X110.113 Y14.455 E88.09511
G1 X110.113 Y12.672 E88.14821
G1 X110.715 Y12.672 E88.16614
;LAYER:41
G1 F600 E86.66614
G1 Z15.725
G0 F10500 X46.670 Y10.991 Z16.005
;TYPE:WALL-INNER
G1 Z16.005
G1 F600 E88.16614
G1 F660 X45.443 Y10.991 E88.20268
G1 X45.443 Y9.764 E88.23923
G1 X46.670 Y9.764 E88.27577
G1 X46.670 Y10.991 E88.31232
G0 F10500 X47.170 Y11.491
;TYPE:WALL-OUTER
G1 F540 X44.943 Y11.491 E88.37864
G1 X44.943 Y9.264 E88.44497
G1 X47.170 Y9.264 E88.51130
G1 X47.170 Y11.491 E88.57763
G0 F10500 X46.820 Y11.231
G0 X45.920 Y10.241
G1 F600 E87.07763
G1 Z16.105
G0 F10500 X45.755 Y12.134
G1 Z16.005
G1 F600 E88.57763
G1 F540 X46.358 Y12.134 E88.59559
G1 X46.358 Y13.490 E88.63597
G1 X45.755 Y13.491 E88.65393
G1 X45.755 Y12.134 E88.69435
G1 F600 E87.19435
G1 Z16.105
G0 F10500 X109.801 Y11.528
;TYPE:WALL-INNER
G1 Z16.005
G1 F600 E88.69435
G1 F660 X109.801 Y10.302 E88.73086
G1 X111.028 Y10.302 E88.76741
G1 X111.028 Y11.528 E88.80392
G1 X109.801 Y11.528 E88.84047
G0 F10500 X109.301 Y12.028
;TYPE:WALL-OUTER
G1 F540 X109.301 Y9.802 E88.90676
G1 X111.528 Y9.802 E88.97309
G1 X111.528 Y12.028 E89.03939
G1 X109.301 Y12.028 E89.10572
G0 F10500 X109.561 Y11.678
G0 X110.551 Y10.778
G1 F600 E87.60572
G1 Z16.105
G0 F10500 X110.715 Y12.672
G1 Z16.005
G1 F600 E89.10572
G1 F540 X110.715 Y14.028 E89.14610
G1 X110.113 Y14.029 E89.16403
G1 X110.113 Y12.672 E89.20445
G1 X110.715 Y12.672 E89.22238
;LAYER:42
G1 F600 E87.72238
G1 Z16.105
G0 F10500 X46.670 Y10.991 Z16.385
;TYPE:WALL-INNER
G1 Z16.385
G1 F600 E89.22238
G1 F660 X45.443 Y10.991 E89.25892
G1 X45.443 Y9.764 E89.29547
G1 X46.670 Y9.764 E89.33201
G1 X46.670 Y10.991 E89.36855
G0 F10500 X47.170 Y11.491
;TYPE:WALL-OUTER
G1 F540 X44.943 Y11.491 E89.43488
G1 X44.943 Y9.264 E89.50121
G1 X47.170 Y9.264 E89.56754
G1 X47.170 Y11.491 E89.63386
G0 F10500 X46.820 Y11.231
G0 X45.920 Y10.241
G1 F600 E88.13386
G1 Z16.485
G0 F10500 X45.755 Y12.134
G1 Z16.385
G1 F600 E89.63386
G1 F540 X46.358 Y12.134 E89.65182
G1 X46.358 Y13.064 E89.67952
G1 X45.755 Y13.065 E89.69748
G1 X45.755 Y12.134 E89.72521
G1 F600 E88.22521
G1 Z16.485
G0 F10500 X109.801 Y11.528
;TYPE:WALL-INNER
G1 Z16.385
G1 F600 E89.72521
G1 F660 X109.801 Y10.302 E89.76172
G1 X111.028 Y10.302 E89.79827
G1 X111.028 Y11.528 E89.83478
G1 X109.801 Y11.528 E89.87133
G0 F10500 X109.301 Y12.028
;TYPE:WALL-OUTER
G1 F540 X109.301 Y9.802 E89.93763
G1 X111.528 Y9.802 E90.00395
G1 X111.528 Y12.028 E90.07025
G1 X109.301 Y12.028 E90.13658
G0 F10500 X109.561 Y11.678
G0 X110.551 Y10.778
G1 F600 E88.63658
G1 Z16.485
G0 F10500 X110.715 Y12.672
G1 Z16.385
G1 F600 E90.13658
G1 F540 X110.715 Y13.602 E90.16428
G1 X110.113 Y13.603 E90.18221
G1 X110.113 Y12.672 E90.20993
G1 X110.715 Y12.672 E90.22786
;LAYER:43
G1 F600 E88.72786
G1 Z16.485
G0 F10500 X46.670 Y10.991 Z16.765
;TYPE:WALL-INNER
G1 Z16.765
G1 F600 E90.22786
G1 F660 X45.443 Y10.991 E90.26441
G1 X45.443 Y9.764 E90.30095
G1 X46.670 Y9.764 E90.33750
G1 X46.670 Y10.991 E90.37404
G0 F10500 X47.170 Y11.491
;TYPE:WALL-OUTER
G1 F540 X44.943 Y11.491 E90.44037
G1 X44.943 Y9.264 E90.50670
G1 X47.170 Y9.264 E90.57302
G1 X47.170 Y11.491 E90.63935
G0 F10500 X46.820 Y11.231
G0 X45.920 Y10.241
G1 F600 E89.13935
G1 Z16.865
G0 F10500 X45.755 Y12.134
G1 Z16.765
G1 F600 E90.63935
G1 F540 X46.358 Y12.134 E90.65731
G1 X46.358 Y12.638 E90.67232
G1 X45.755 Y12.639 E90.69028
G1 X45.755 Y12.134 E90.70532
G1 F600 E89.20532
G1 Z16.865
G0 F10500 X109.801 Y11.528
;TYPE:WALL-INNER
G1 Z16.765
G1 F600 E90.70532
G1 F660 X109.801 Y10.302 E90.74184
G1 X111.028 Y10.302 E90.77838
G1 X111.028 Y11.528 E90.81489
G1 X109.801 Y11.528 E90.85144
G0 F10500 X109.301 Y12.028
;TYPE:WALL-OUTER
G1 F540 X109.301 Y9.802 E90.91774
G1 X111.528 Y9.802 E90.98406
G1 X111.528 Y12.028 E91.05036
G1 X109.301 Y12.028 E91.11669
G0 F10500 X109.561 Y11.678
G0 X110.551 Y10.778
G1 F600 E89.61669
G1 Z16.865
G0 F10500 X110.715 Y12.672
G1 Z16.765
G1 F600 E91.11669
G1 F540 X110.715 Y13.176 E91.13170
G1 X110.113 Y13.177 E91.14963
G1 X110.113 Y12.672 E91.16467
G1 X110.715 Y12.672 E91.18260
;LAYER:44
G1 F600 E89.68260
G1 Z16.865
G0 F10500 X46.670 Y10.991 Z17.145
;TYPE:WALL-INNER
G1 Z17.145
G1 F600 E91.18260
G1 F660 X45.443 Y10.991 E91.21914
G1 X45.443 Y9.764 E91.25569
G1 X46.670 Y9.764 E91.29223
G1 X46.670 Y10.991 E91.32878
G0 F10500 X47.170 Y11.491
;TYPE:WALL-OUTER
G1 F540 X44.943 Y11.491 E91.39510
G1 X44.943 Y9.264 E91.46143
G1 X47.170 Y9.264 E91.52776
G1 X47.170 Y11.491 E91.59409
G0 F10500 X46.493 Y10.784
;TYPE:SKIN
G1 F960 X45.647 Y9.939 E91.62970
G0 F10500 X45.616 Y10.615
G1 F960 X45.817 Y10.815 E91.63815
G0 F10500 X46.493 Y10.077
G1 F960 X46.355 Y9.939 E91.64396
G1 F600 E90.14396
G1 Z17.245
G0 F10500 X46.358 Y12.134
;TYPE:WALL-OUTER
G1 Z17.145
G1 F600 E91.64396
G1 F540 X46.358 Y12.212 E91.64628
G1 X45.755 Y12.213 E91.66424
G1 X45.755 Y12.134 E91.66659
G1 X46.358 Y12.134 E91.68455
G1 F600 E90.18455
G1 Z17.245
G0 F10500 X109.801 Y11.528
;TYPE:WALL-INNER
G1 Z17.145
G1 F600 E91.68455
G1 F660 X109.801 Y10.302 E91.72107
G1 X111.028 Y10.302 E91.75761
G1 X111.028 Y11.528 E91.79413
G1 X109.801 Y11.528 E91.83067
G0 F10500 X109.301 Y12.028
;TYPE:WALL-OUTER
G1 F540 X109.301 Y9.802 E91.89697
G1 X111.528 Y9.802 E91.96330
G1 X111.528 Y12.028 E92.02959
G1 X109.301 Y12.028 E92.09592
G0 F10500 X109.561 Y11.678
G0 X110.701 Y11.352
;TYPE:SKIN
G1 F960 X109.974 Y10.626 E92.12652
G0 F10500 X110.532 Y10.477
G1 F960 X110.852 Y10.796 E92.13998
G1 F600 E90.63998
G1 Z17.245
G0 F10500 X110.715 Y12.672
;TYPE:WALL-OUTER
G1 Z17.145
G1 F600 E92.13998
G1 F540 X110.715 Y12.750 E92.14230
G1 X110.113 Y12.751 E92.16023
G1 X110.113 Y12.672 E92.16258
G1 X110.715 Y12.672 E92.18051
;LAYER:45
G1 F600 E90.68051
G1 Z17.245
G0 F10500 X46.670 Y10.991 Z17.525
;TYPE:WALL-INNER
G1 Z17.525
G1 F600 E92.18051
G1 F660 X45.443 Y10.991 E92.21706
G1 X45.443 Y9.764 E92.25360
G1 X46.670 Y9.764 E92.29015
G1 X46.670 Y10.991 E92.32669
G0 F10500 X47.170 Y11.491
;TYPE:WALL-OUTER
G1 F540 X44.943 Y11.491 E92.39302
G1 X44.943 Y9.264 E92.45935
G1 X47.170 Y9.264 E92.52567
G1 X47.170 Y11.491 E92.59200
G0 F10500 X46.493 Y10.428
;TYPE:SKIN
G1 F960 X45.861 Y10.706 E92.60829
G1 X46.275 Y9.939 E92.63425
G1 F600 E91.13425
G1 Z17.625
G0 F10500 X109.801 Y10.302
;TYPE:WALL-INNER
G1 Z17.525
G1 F600 E92.63425
G1 F660 X111.028 Y10.302 E92.67079
G1 X111.028 Y11.528 E92.70730
G1 X109.801 Y11.528 E92.74385
G1 X109.801 Y10.302 E92.78036
G0 F10500 X109.301 Y9.802
;TYPE:WALL-OUTER
G1 F540 X111.528 Y9.802 E92.84669
G1 X111.528 Y12.028 E92.91299
G1 X109.301 Y12.028 E92.97932
G1 X109.301 Y9.802 E93.04561
G0 F10500 X110.084 Y10.477
;TYPE:SKIN
G1 F960 X109.975 Y10.586 E93.05021
G0 F10500 X109.975 Y11.293
G1 F960 X110.791 Y10.477 E93.08458
G0 F10500 X110.852 Y11.123
G1 F960 X110.622 Y11.353 E93.09426
;LAYER:46
G1 F600 E91.59426
G1 Z17.625
G0 F10500 X46.670 Y10.991 Z17.905
;TYPE:WALL-INNER
G1 Z17.905
G1 F600 E93.09426
G1 F660 X45.443 Y10.991 E93.13081
G1 X45.443 Y9.764 E93.16735
G1 X46.670 Y9.764 E93.20390
G1 X46.670 Y10.991 E93.24044
G0 F10500 X47.170 Y11.491
;TYPE:WALL-OUTER
G1 F540 X44.943 Y11.491 E93.30677
G1 X44.943 Y9.264 E93.37310
G1 X47.170 Y9.264 E93.43942
G1 X47.170 Y11.491 E93.50575
G0 F10500 X46.493 Y10.784
;TYPE:SKIN
G1 F960 X45.647 Y9.939 E93.54136
G0 F10500 X45.616 Y10.615
G1 F960 X45.817 Y10.815 E93.54981
G0 F10500 X46.493 Y10.077
G1 F960 X46.355 Y9.939 E93.55562
G1 F600 E92.05562
G1 Z18.005
G0 F10500 X109.801 Y10.302
;TYPE:WALL-INNER
G1 Z17.905
G1 F600 E93.55562
G1 F660 X111.028 Y10.302 E93.59216
G1 X111.028 Y11.528 E93.62868
G1 X109.801 Y11.528 E93.66522
G1 X109.801 Y10.302 E93.70174
G0 F10500 X109.301 Y9.802
;TYPE:WALL-OUTER
G1 F540 X111.528 Y9.802 E93.76807
G1 X111.528 Y12.028 E93.83436
G1 X109.301 Y12.028 E93.90069
G1 X109.301 Y9.802 E93.96699
G0 F10500 X109.974 Y10.626
;TYPE:SKIN
G1 F960 X110.701 Y11.352 E93.99759
G0 F10500 X110.852 Y10.796
G1 F960 X110.532 Y10.477 E94.01105
M107
G1 F600 E92.51105
G1 Z18.005
G0 F10500 X110.532 Y10.477 Z22.988
M400
M104 S0                                      ; hotend off
M140 S0                                      ; heated bed heater off (if you have it)
M107                                         ; fans off
G92 E5                                       ; set extruder to 5mm for retract on print end
G1 X5 Y5 Z158 E0 F10000                      ; move to cooling positioning
M190 R50                                     ; wait for bed to cool
M140 S0                                      ;
G1 X145 F1000                                ; move to cooling positioning
G1 Y175 F1000                                ; move to cooling positioning
M84                                          ; steppers off
G90                                          ; absolute positioning
;CURA_PROFILE_STRING:eNrtWltv28gVfhWE/oh53EVjlaTE2A7Bh03WNhaIF0Hsol6/ECNyJE3DG8ihZdnQf+93hheRMqXKbbpNdpUHxzw6tznXb2iFfCUybyHkfKFcYzQ+Gyx5GHpqIf0vschz1xxkQmXcVzKJPRHzaSjc26wQgzwJZeCFWr7NPpOQD0ScS7VyjUEqMhkJBaapmCWZ8GRMHKWOOHl6CoWXyycB4/YgzWSsvDwVInBto3pUIoISropMuJZhv6Rabg/ruI846SPaDXEqgo61t8YgL9I0yZT7axKLQRpyhTNEHg8WIkdASnLF4wUFDz3xqLJCf/Y+UYvBUqbCU8lSZO4lD3PRIngPSVhEwjXtQZI8IQoLKcKgYkOMeCTgUyC5Dp9rjc7sl2Q6+wviuI846SPabeIsTJauaRgjo53zMhtmh8ajpIiVayJlLao+f/3R2+5nkYw9PDyIcFvKT6KpjOfuT2G4JSCjTjzhl9GRXCQpiOZgmiiVRK0iNEYTyx7o0jS8pQzUwptBJslcE/Rk+k/ho8pk/IV0DpIHkYU81e6TPntQOlqf/NSuLZTFXpHtQVnJ1fPEKDuCZ4JXJFIu41wooyKMq+fH+tke+EkS6uBUjYReQZEPZrxutqDqti8SFRbKWCBgOsAVac5TdwxD5VMdtVDEc7VwLbtUNSvgZ9PktqaVLpy2HryIP1L+N07NQEUvCEq/Ji4ER8/LmarKtBwCColozYQyWiVFR6iKMMWs7hW1SoX7EcfJGxKP55gtkw2PltXmx00jeo8rFG+ueOzTyDht6E9tMuokT2XGQxoslacySjFqoiSoKVMMpk5EUeJ8hhjybC5j1x5Vz5olT7lPVTquqVOei07JjVt0EtF1h2Kv+DFfRIYq7ApZp9ufbkRRxeWHXGbIsoe5rEuqRdPJ1M95UYlTGeWu1aX2mWwkOgZn8hF9lWUSpecVsW522gdIl8frlO5mmTbjq82DiCSpiL2pVHkfA3qc9sUDwqyk8hcU6JItDQvkAglCq83dunV9QeHyHt0Tc4u0IlKZ6mtk+kYoBWW526J9yhIUFrrMizHKedj66Bq1lklMAdPDqO/54Jaq9r2AS7HI/oJyy9Ro7lNJObcLmbMr+p0teM6mQsRsLmJaJSJg6C9fzqSPQK0YVghTC8E+FuETlgS7RtMOnfc8lz7LK4/fsY+USVY27Tv2HLYW9Zr9A4rA89xd1mt2iZYBub2D10Pnsprw7Odq7Jcs3VUAvl/1OmY36BpwtJbzenhlmWznP4dBQwbvH3hYiHx4dW7sY+ZTzIlCCZYmcBD1gwMPr8+sfTKIC9OrIEBQVLLRQQ09vDaN033ClCi2lGqh446Bx5LZDG5a7MI4zGTtKtk2YG9isJvnXtSwdpB3hQIIkDxOyWRFivid7TveIokEQy7pJOfshtTv9Ake+KHgFDVGdhmPA7bkUg2vTHZv2ga7OBkb7PLU3hYu/C/whd3dRRECwOoS+HdG6Rgkl4lckdySr8jU3cRmv5mnE3ZpmrZldOsBIx8hQCej9v2MIzjaO3BdmpZh9Fj58PmX218+/PTxnT7kPR2zrHYyiQ1D/7VUNdbvT0Y2u5wYjVIHmU4pOA7D+IjngiFLCRFRcTzQwrYWtnYLd00YHZ4trlpXl2WXrv1cv7+ut8Yhus6Mb1PX+UG6zg7SBeTTr+y70GWaO5R9H7rMpiEN6kiz5nXKvs1DujHpSTctshXDbkJXV3MwXzBC3eX42z3PMy5zwZ70KL6DU8aeUfyoTa0OHMdplkzraTy8towJuxkbO0QASRp+7vsipLWBxQK3zvdtCMCWqaiUW0avdod9xoTGHZsWXoybSLBlgYYCwmzrMF3aHS3l1koKpVekHvGwZO52KOXAdcPriWHs8ZoSlCFlsxmmdhnM5xcX8HXfiu8uNnLF3mmFeDSqoqWLfGhhWrooCL3it3dhKVYZa/Ygm3IsSL0sSuxz6J4narnnWVBk9NtMZtiVGrMNRBxUIFFHi8KA4+xBSNv1CHAcaMBSunO4pNDYs0YiiCqUsB/kjK2SAigVK1qqH/eDp5dagZ7yDXyyD5bbRnA2QAjlrLrQM2ArHWeG09alSpVqn+kM0kQwdsJPghuEi3BHpfB3gKWJJfHZNg50c7uWSOUrA19OtEl7jO01uc97qMJc/Cqqrs8m7BV5zpVIUet1ro3XyPYifAd9pK9euOVRk6wHGpdb9Q3qJpQ+Ys7pthPw1Zp+KgyHZ3opsv6fXpA+6cIjO/ismk+l0ebqhGEXtK9N5XuuddQiLUvb85aUn+SqLUXP0KprctdcYc7fYz+JtDzddIKA+hXNu4ybaVPxMrq8kzqaKH2DdY+qXjXn7Nbs02T9R6qM/96p1r3T2XnJdPpvlJu55uy6AW6ggKNb5+5vv5FPEbAFxhCWaZprpvsKjWim+5cs+uI1wph6br87XFcCZLJ+d8wCOqeJ6Te83bFdnZslvQXRmwySFqZ/PTh33lmdJ5GV7BVrwMp3gOTbJd24LragkVOvP9OoroOCXlSoxP/yeiuMz7mMN7ZOnvvfC6+Ht8ZBhy4X6Hd07G7iMVIKVe4zGsMRZg/HRRQ77uOHn+kaK0SMAjVP2aeKZzQaEVJopuEFsn71oXq5MdG91B85p1mqmyVfyZivlNm95JwDscTVuXnQhsgE2kE+iO1dd3GCUI73bzqnRgxlnVSTlrOpJDRGf2Ni9IZaA3JwlFDuDRUWrAqOO0BOEJ/eKlBfZsgNxo3u4b/S5ePixGZ3JxbGAv3o7+h7wnqlSQKptUeNN+JBxFjGpHbfbaN1qF3j5w281Y7Sq3cmcw3RK98Jpe/b6s7BO9x5zcYeHzf2cWP/OTe29Wfc2EeYcoQpWzBl/P+EKSRjHaHNEdp8fWgzOUKbbwraWF8P2hxR0u+GksYH7c4JnP4DAYbDoOH4j3XoIzQ8QsMtaDj53qAhyYyPcPIIJ78unKy+l9r+kmBD3PxJuPxabYdJU1ocmcCO9cXIzx/cAZJQjpmLqi4bwFoOn6lQS/rqIR3aL7JMh7guYUqATjQoDfUNWy5EvOl0DSaiIlQyDZtxkeWjYfkVR/0NR/wPeKOrXFcRKb39If5xgJiob8k/PqMGrN37F3kphxw=

